LaRojaPlamya162/UR5-Gazebo/bc_log.csv
timestep,episode,s1,s2,s3,s4,s5,s6,next_s1,next_s2,next_s3,next_s4,next_s5,next_s6,a1,a2,a3,a4,a5,a6,ball_pos_x,ball_pos_y,ball_pos_z,wrist_3_x,wrist_3_y,wrist_3_z,reward,done
0,0,0.06596367806196213,-1.5869766473770142,0.04869070649147034,-1.5673797130584717,-0.06898007541894913,-0.03431504964828491,0.06596367806196213,-1.5869766473770142,0.04869070649147034,-1.5673797130584717,-0.06898007541894913,-0.03431504964828491,0.059248533099889755,0.10725536942481995,0.03877896070480347,-0.03998797386884689,-0.006280839443206787,0.001039404422044754,0.35875,-0.35604,0.45148568405566597,0.0009419603432522534,0.2332324606785019,1.0788262027028197,-1.151907693613555,False
1,0,0.06596367806196213,-1.5869766473770142,0.04869070649147034,-1.5673797130584717,-0.06898007541894913,-0.03431504964828491,0.06596367806196213,-1.5869766473770142,0.04869070649147034,-1.5673797130584717,-0.06898007541894913,-0.03431504964828491,0.059248533099889755,0.10725536942481995,0.03877896070480347,-0.03998797386884689,-0.006280839443206787,0.001039404422044754,0.35875,-0.35604,0.45148568405566597,0.0009419603432522534,0.2332324606785019,1.0788262027028197,-1.161907693613555,False
2,0,0.06596367806196213,-1.5869766473770142,0.04869070649147034,-1.5673797130584717,-0.06898007541894913,-0.03431504964828491,0.06596723943948746,-1.586991548538208,0.048704568296670914,-1.567370057106018,-0.06897293776273727,-0.034331757575273514,0.059248533099889755,0.10725536942481995,0.03877896070480347,-0.03998797386884689,-0.006280839443206787,0.001039404422044754,0.35875,-0.35604,0.45148568405566597,0.0009346041333404987,0.233232082096484,1.078826048064514,-1.17191017405256,False
3,0,0.06596723943948746,-1.586991548538208,0.048704568296670914,-1.567370057106018,-0.06897293776273727,-0.034331757575273514,0.0665692687034607,-1.5859376192092896,0.04909336939454079,-1.5677624940872192,-0.06904996186494827,-0.034327276051044464,0.059245843440294266,0.10725588351488113,0.03878090903162956,-0.0399896577000618,-0.0062833428382873535,0.0010365862399339676,0.35875,-0.35604,0.45148568405566597,0.0019172021585537203,0.23330694090702558,1.0788029599613476,-1.1815652209765872,False
4,0,0.0665692687034607,-1.5859376192092896,0.04909336939454079,-1.5677624940872192,-0.06904996186494827,-0.034327276051044464,0.06660042703151703,-1.58594810962677,0.04911891371011734,-1.567758560180664,-0.06908167153596878,-0.034347694367170334,0.05930668115615845,0.10733877122402191,0.03874479606747627,-0.04000089317560196,-0.006188496947288513,0.0010754503309726715,0.35875,-0.35604,0.45148568405566597,0.0019163196111284019,0.23330720812744457,1.0788023765605697,-1.1915653352012903,False
5,0,0.06660042703151703,-1.58594810962677,0.04911891371011734,-1.567758560180664,-0.06908167153596878,-0.034347694367170334,0.06719176471233368,-1.5853086709976196,0.04993980750441551,-1.5683478116989136,-0.06923743337392807,-0.034354377537965775,0.0593031607568264,0.10734020173549652,0.038744788616895676,-0.04000481218099594,-0.006188578903675079,0.0010737162083387375,0.35875,-0.35604,0.45148568405566597,0.0027643996231986384,0.2333730166977164,1.0787783597893998,-1.2012663455850252,False
6,0,0.06719176471233368,-1.5853086709976196,0.04993980750441551,-1.5683478116989136,-0.06923743337392807,-0.034354377537965775,0.06792125105857849,-1.5847504138946533,0.05105450749397278,-1.569071650505066,-0.06951165944337845,-0.03440055996179581,0.05930601432919502,0.1074795201420784,0.03874668851494789,-0.04006589204072952,-0.006112918257713318,0.0010775532573461533,0.35875,-0.35604,0.45148568405566597,0.0026879286346863903,0.23336874353932283,1.0787756584066652,-1.211291050706789,False
7,0,0.06792125105857849,-1.5847504138946533,0.05105450749397278,-1.569071650505066,-0.06951165944337845,-0.03440055996179581,0.06866034865379333,-1.5841777324676514,0.05218781158328056,-1.5698130130767822,-0.06979865580797195,-0.034442901611328125,0.059281524270772934,0.10765703022480011,0.038760844618082047,-0.04016035050153732,-0.006033197045326233,0.0010678358376026154,0.35875,-0.35604,0.45148568405566597,0.0026879286346863903,0.23336874353932283,1.0787756584066652,-1.2212910507067891,False
8,0,0.06866034865379333,-1.5841777324676514,0.05218781158328056,-1.5698130130767822,-0.06979865580797195,-0.034442901611328125,0.06973512470722198,-1.5824577808380127,0.053480666130781174,-1.5709141492843628,-0.0699595957994461,-0.03437769412994385,0.05925711989402771,0.10783783346414566,0.03877473995089531,-0.040256500244140625,-0.005951248109340668,0.001058841124176979,0.35875,-0.35604,0.45148568405566597,0.006287358137701237,0.23366237397968914,1.078651274233567,-1.2300233502170472,False
9,0,0.06973512470722198,-1.5824577808380127,0.053480666130781174,-1.5709141492843628,-0.0699595957994461,-0.03437769412994385,0.06992122530937195,-1.5830167531967163,0.05423115938901901,-1.571242094039917,-0.0701453760266304,-0.034435123205184937,0.05932585895061493,0.10808207094669342,0.03874992951750755,-0.04032832384109497,-0.005779854953289032,0.0011004917323589325,0.35875,-0.35604,0.45148568405566597,0.006086717360983641,0.23365123530304913,1.0786460386998882,-1.240088801583911,False
10,0,0.06992122530937195,-1.5830167531967163,0.05423115938901901,-1.571242094039917,-0.0701453760266304,-0.034435123205184937,0.0707937553524971,-1.5822268724441528,0.0556502491235733,-1.5722131729125977,-0.07046610862016678,-0.03445485234260559,0.05922890827059746,0.10817717015743256,0.03880308195948601,-0.04041951894760132,-0.005795881152153015,0.0010482221841812134,0.35875,-0.35604,0.45148568405566597,0.0072356713271205155,0.23375013918048157,1.0785974633368125,-1.2496838181461394,False
11,0,0.0707937553524971,-1.5822268724441528,0.0556502491235733,-1.5722131729125977,-0.07046610862016678,-0.03445485234260559,0.0707937553524971,-1.5822268724441528,0.0556502491235733,-1.5722131729125977,-0.07046610862016678,-0.03445485234260559,0.059206001460552216,0.10840868204832077,0.038820963352918625,-0.04053616523742676,-0.00568949431180954,0.0010410882532596588,0.35875,-0.35604,0.45148568405566597,0.0072356713271205155,0.23375013918048157,1.0785974633368125,-1.2596838181461394,False
12,0,0.0707937553524971,-1.5822268724441528,0.0556502491235733,-1.5722131729125977,-0.07046610862016678,-0.03445485234260559,0.07088949531316757,-1.5827372074127197,0.056425850838422775,-1.572619915008545,-0.07054783403873444,-0.03444856405258179,0.059206001460552216,0.10840868204832077,0.038820963352918625,-0.04053616523742676,-0.00568949431180954,0.0010410882532596588,0.35875,-0.35604,0.45148568405566597,0.007094704481407713,0.23374183533631662,1.0785915646155588,-1.2697278711769755,False
13,0,0.07088949531316757,-1.5827372074127197,0.056425850838422775,-1.572619915008545,-0.07054783403873444,-0.03444856405258179,0.07106469571590424,-1.5834459066390991,0.05744582414627075,-1.5731170177459717,-0.07071724534034729,-0.03447825461626053,0.05911480262875557,0.10851579159498215,0.038880299776792526,-0.040624164044857025,-0.005703330039978027,0.0009904075413942337,0.35875,-0.35604,0.45148568405566597,0.007094704481407713,0.23374183533631662,1.0785915646155588,-1.2797278711769753,False
14,0,0.07106469571590424,-1.5834459066390991,0.05744582414627075,-1.5731170177459717,-0.07071724534034729,-0.03447825461626053,0.07113559544086456,-1.58368980884552,0.05777653679251671,-1.573266863822937,-0.07079080492258072,-0.03449848294258118,0.05898984894156456,0.10865173488855362,0.038956109434366226,-0.04074341803789139,-0.0057233721017837524,0.0009218510240316391,0.35875,-0.35604,0.45148568405566597,0.007094704481407713,0.23374183533631662,1.0785915646155588,-1.2897278711769755,False
15,0,0.07113559544086456,-1.58368980884552,0.05777653679251671,-1.573266863822937,-0.07079080492258072,-0.03449848294258118,0.07185613363981247,-1.5827924013137817,0.05886296555399895,-1.5740883350372314,-0.0709632858633995,-0.03447624668478966,0.058947596698999405,0.10869425535202026,0.038980092853307724,-0.04078323394060135,-0.00573054701089859,0.0008989237248897552,0.35875,-0.35604,0.45148568405566597,0.007908064224716769,0.2338204606558103,1.0785364960153738,-1.2994333404751366,False
16,0,0.07185613363981247,-1.5827924013137817,0.05886296555399895,-1.5740883350372314,-0.0709632858633995,-0.03447624668478966,0.07255186140537262,-1.582196831703186,0.05997368320822716,-1.5748388767242432,-0.07122039794921875,-0.03450167179107666,0.05895738676190376,0.10888323932886124,0.03898400440812111,-0.04086124897003174,-0.005628250539302826,0.000907164067029953,0.35875,-0.35604,0.45148568405566597,0.007812437927485139,0.23381495705595418,1.078532724387311,-1.3094633980240145,False
17,0,0.07255186140537262,-1.582196831703186,0.05997368320822716,-1.5748388767242432,-0.07122039794921875,-0.03450167179107666,0.07255186140537262,-1.582196831703186,0.05997368320822716,-1.5748388767242432,-0.07122039794921875,-0.03450167179107666,0.0589374303817749,0.1090632975101471,0.03899826109409332,-0.04095355421304703,-0.005546353757381439,0.0009001810103654861,0.35875,-0.35604,0.45148568405566597,0.008784650401052958,0.23389961516890048,1.07849546105021,-1.3191254305743985,False
18,0,0.07255186140537262,-1.582196831703186,0.05997368320822716,-1.5748388767242432,-0.07122039794921875,-0.03450167179107666,0.07270163297653198,-1.5829198360443115,0.061009008437395096,-1.5753587484359741,-0.07135835289955139,-0.034512799233198166,0.0589374303817749,0.1090632975101471,0.03899826109409332,-0.04095355421304703,-0.005546353757381439,0.0009001810103654861,0.35875,-0.35604,0.45148568405566597,0.008558418786622418,0.23388602175267734,1.0784876601168125,-1.329196757406786,False
19,0,0.07270163297653198,-1.5829198360443115,0.061009008437395096,-1.5753587484359741,-0.07135835289955139,-0.034512799233198166,0.07270163297653198,-1.5829198360443115,0.061009008437395096,-1.5753587484359741,-0.07135835289955139,-0.034512799233198166,0.058811254799366,0.10920331627130508,0.039077285677194595,-0.04107337445020676,-0.005567274987697601,0.0008304417133331299,0.35875,-0.35604,0.45148568405566597,0.008558418786622418,0.23388602175267734,1.0784876601168125,-1.339196757406786,False
20,0,0.07270163297653198,-1.5829198360443115,0.061009008437395096,-1.5753587484359741,-0.07135835289955139,-0.034512799233198166,0.07276030629873276,-1.5831613540649414,0.06135229021310806,-1.5755254030227661,-0.07141576707363129,-0.03452309966087341,0.058811254799366,0.10920331627130508,0.039077285677194595,-0.04107337445020676,-0.005567274987697601,0.0008304417133331299,0.35875,-0.35604,0.45148568405566597,0.008481341809389378,0.23388149666009114,1.078484945948313,-1.3492210991505718,False
21,0,0.07276030629873276,-1.5831613540649414,0.06135229021310806,-1.5755254030227661,-0.07141576707363129,-0.03452309966087341,0.07282707840204239,-1.5833486318588257,0.06161198765039444,-1.5756381750106812,-0.07148586213588715,-0.034545306116342545,0.058768946677446365,0.10924893617630005,0.03910291567444801,-0.041113629937171936,-0.005574226379394531,0.0008072126656770706,0.35875,-0.35604,0.45148568405566597,0.008481341809389378,0.23388149666009114,1.078484945948313,-1.3592210991505718,False
22,0,0.07282707840204239,-1.5833486318588257,0.06161198765039444,-1.5756381750106812,-0.07148586213588715,-0.034545306116342545,0.07287687063217163,-1.5834863185882568,0.06184237077832222,-1.5757511854171753,-0.07153483480215073,-0.034554872661828995,0.058735791593790054,0.10928170382976532,0.03912083059549332,-0.04114522039890289,-0.005579330027103424,0.0007894393056631088,0.35875,-0.35604,0.45148568405566597,0.008481341809389378,0.23388149666009114,1.078484945948313,-1.3692210991505718,False
23,0,0.07287687063217163,-1.5834863185882568,0.06184237077832222,-1.5757511854171753,-0.07153483480215073,-0.034554872661828995,0.073666051030159,-1.5827021598815918,0.06307397782802582,-1.5766180753707886,-0.07178078591823578,-0.03456737846136093,0.058709193021059036,0.10931244492530823,0.03913645073771477,-0.04117190092802048,-0.005582161247730255,0.0007751863449811935,0.35875,-0.35604,0.45148568405566597,0.008481341809389378,0.23388149666009114,1.078484945948313,-1.3792210991505718,False
24,0,0.073666051030159,-1.5827021598815918,0.06307397782802582,-1.5766180753707886,-0.07178078591823578,-0.03456737846136093,0.07372602820396423,-1.5829280614852905,0.06337659060955048,-1.5767573118209839,-0.07183978706598282,-0.034582894295454025,0.058698900043964386,0.1095174103975296,0.039148662239313126,-0.04126924276351929,-0.005482926964759827,0.0007729697972536087,0.35875,-0.35604,0.45148568405566597,0.009380109645524005,0.2339696131340386,1.0784280356028502,-1.3889003046175314,False
25,0,0.07372602820396423,-1.5829280614852905,0.06337659060955048,-1.5767573118209839,-0.07183978706598282,-0.034582894295454025,0.07436168938875198,-1.5823321342468262,0.06444335728883743,-1.5775032043457031,-0.07203597575426102,-0.034585170447826385,0.05866019427776337,0.1095566600561142,0.039171185344457626,-0.04130544513463974,-0.0054897889494895935,0.0007517579942941666,0.35875,-0.35604,0.45148568405566597,0.010243570485473827,0.23404952710506596,1.078385463659431,-1.3985979947648968,False
26,0,0.07436168938875198,-1.5823321342468262,0.06444335728883743,-1.5775032043457031,-0.07203597575426102,-0.034585170447826385,0.07504666596651077,-1.5816296339035034,0.06543359905481339,-1.578198790550232,-0.07226788252592087,-0.03461068868637085,0.05864458158612251,0.10973314195871353,0.03918679803609848,-0.041391536593437195,-0.005410447716712952,0.0007458142936229706,0.35875,-0.35604,0.45148568405566597,0.010180643487008157,0.23404643998913344,1.0783814957073912,-1.4086169688509174,False
27,0,0.07504666596651077,-1.5816296339035034,0.06543359905481339,-1.578198790550232,-0.07226788252592087,-0.03461068868637085,0.07511262595653534,-1.5819789171218872,0.06596145033836365,-1.578474760055542,-0.07232436537742615,-0.034607190638780594,0.058641646057367325,0.10989785939455032,0.03919127583503723,-0.04146900773048401,-0.0053247809410095215,0.0007476788014173508,0.35875,-0.35604,0.45148568405566597,0.011066093498657979,0.23413020097234663,1.0783356944784168,-1.4183073508178472,False
28,0,0.07511262595653534,-1.5819789171218872,0.06596145033836365,-1.578474760055542,-0.07232436537742615,-0.034607190638780594,0.07594587653875351,-1.5811207294464111,0.0671684592962265,-1.5793222188949585,-0.07261651754379272,-0.03464013338088989,0.05857938155531883,0.10997066646814346,0.03923167288303375,-0.04152899235486984,-0.005334317684173584,0.000713057816028595,0.35875,-0.35604,0.45148568405566597,0.011066093498657979,0.23413020097234663,1.0783356944784168,-1.4283073508178472,False
29,0,0.07594587653875351,-1.5811207294464111,0.0671684592962265,-1.5793222188949585,-0.07261651754379272,-0.03464013338088989,0.07683376222848892,-1.5810067653656006,0.0691581591963768,-1.5805166959762573,-0.07306580990552902,-0.034702472388744354,0.05857579782605171,0.11017116159200668,0.03923678398132324,-0.04162370413541794,-0.005229823291301727,0.0007156301289796829,0.35875,-0.35604,0.45148568405566597,0.012986782077131519,0.23432240987137443,1.0782180673964714,-1.4376326671256838,False
30,0,0.07683376222848892,-1.5810067653656006,0.0691581591963768,-1.5805166959762573,-0.07306580990552902,-0.034702472388744354,0.0776004046201706,-1.5804977416992188,0.07068267464637756,-1.5815273523330688,-0.07336858659982681,-0.03471512347459793,0.0584585964679718,0.11046992987394333,0.03930900618433952,-0.04181674122810364,-0.0051557645201683044,0.0006565451622009277,0.35875,-0.35604,0.45148568405566597,0.013947803059077188,0.23441877883619783,1.0781584169778384,-1.4472960046858236,False
31,0,0.0776004046201706,-1.5804977416992188,0.07068267464637756,-1.5815273523330688,-0.07336858659982681,-0.03471512347459793,0.07842344790697098,-1.5800838470458984,0.07239086180925369,-1.5826261043548584,-0.07373049855232239,-0.03474228084087372,0.058412209153175354,0.11070608347654343,0.039347533136606216,-0.04194743186235428,-0.005073234438896179,0.0006375294178724289,0.35875,-0.35604,0.45148568405566597,0.014895549311850984,0.23451716257227265,1.0780940022896472,-1.4569632164853612,False
32,0,0.07842344790697098,-1.5800838470458984,0.07239086180925369,-1.5826261043548584,-0.07373049855232239,-0.03474228084087372,0.07908426225185394,-1.5796915292739868,0.07417897880077362,-1.583861231803894,-0.07390423864126205,-0.03466587886214256,0.05836740508675575,0.11094144731760025,0.03939587622880936,-0.04208751022815704,-0.005008220672607422,0.0006292480975389481,0.35875,-0.35604,0.45148568405566597,0.01603937777167839,0.23462284449738038,1.0780387287630124,-1.4665695961186394,False
33,0,0.07908426225185394,-1.5796915292739868,0.07417897880077362,-1.583861231803894,-0.07390423864126205,-0.03466587886214256,0.08038954436779022,-1.5785298347473145,0.07646754384040833,-1.585456371307373,-0.07429815083742142,-0.03467139974236488,0.05832406505942345,0.1111973449587822,0.03946126252412796,-0.042226679623126984,-0.004948318004608154,0.0006193201988935471,0.35875,-0.35604,0.45148568405566597,0.01603937777167839,0.23462284449738038,1.0780387287630124,-1.4765695961186394,False
34,0,0.08038954436779022,-1.5785298347473145,0.07646754384040833,-1.585456371307373,-0.07429815083742142,-0.03467139974236488,0.08128569275140762,-1.578278660774231,0.07872790843248367,-1.586902379989624,-0.07470410317182541,-0.03466302156448364,0.05831529200077057,0.11153669655323029,0.03950090706348419,-0.04239547252655029,-0.004813522100448608,0.0006324499845504761,0.35875,-0.35604,0.45148568405566597,0.0186435236490125,0.2349116400016367,1.077831930265021,-1.4856541333369198,False
35,0,0.08128569275140762,-1.578278660774231,0.07872790843248367,-1.586902379989624,-0.07470410317182541,-0.03466302156448364,0.0818452537059784,-1.5771692991256714,0.07958289235830307,-1.5876673460006714,-0.07479073852300644,-0.03459278866648674,0.05823503062129021,0.11184263229370117,0.039584025740623474,-0.04258515685796738,-0.004752986133098602,0.00061001256108284,0.35875,-0.35604,0.45148568405566597,0.019874889306248505,0.2350331784694462,1.0777635517573303,-1.4952338498923734,False
36,0,0.0818452537059784,-1.5771692991256714,0.07958289235830307,-1.5876673460006714,-0.07479073852300644,-0.03459278866648674,0.08266196399927139,-1.5772693157196045,0.08132035285234451,-1.588655948638916,-0.07516728341579437,-0.034678149968385696,0.058278270065784454,0.1119755208492279,0.039580222219228745,-0.04262784868478775,-0.004649490118026733,0.0006236881017684937,0.35875,-0.35604,0.45148568405566597,0.019620020902001253,0.23502021692584069,1.0777512043279551,-1.50531057510833,False
37,0,0.08266196399927139,-1.5772693157196045,0.08132035285234451,-1.588655948638916,-0.07516728341579437,-0.034678149968385696,0.0831051841378212,-1.5783904790878296,0.08375415951013565,-1.5899932384490967,-0.0755763128399849,-0.03467625752091408,0.058179620653390884,0.1121615469455719,0.03965593874454498,-0.04278263449668884,-0.004619017243385315,0.0005638990551233292,0.35875,-0.35604,0.45148568405566597,0.02056367563279672,0.2351271994035909,1.0776705490201948,-1.5149789733615489,False
38,0,0.0831051841378212,-1.5783904790878296,0.08375415951013565,-1.5899932384490967,-0.0755763128399849,-0.03467625752091408,0.08450371772050858,-1.5770848989486694,0.08621112257242203,-1.5917280912399292,-0.07598847895860672,-0.034673579037189484,0.05797213688492775,0.11241346597671509,0.03982066735625267,-0.04301945120096207,-0.004663750529289246,0.000454489141702652,0.35875,-0.35604,0.45148568405566597,0.02056367563279672,0.2351271994035909,1.0776705490201948,-1.5249789733615486,False
39,0,0.08450371772050858,-1.5770848989486694,0.08621112257242203,-1.5917280912399292,-0.07598847895860672,-0.034673579037189484,0.0855274498462677,-1.5756657123565674,0.08711951971054077,-1.5924731492996216,-0.0761706754565239,-0.03472759202122688,0.05794591084122658,0.11272294819355011,0.03987583518028259,-0.04319657385349274,-0.004508934915065765,0.00041945092380046844,0.35875,-0.35604,0.45148568405566597,0.023005144712411905,0.23541576341028722,1.0774741042776006,-1.5341408625476225,False
40,0,0.0855274498462677,-1.5756657123565674,0.08711951971054077,-1.5924731492996216,-0.0761706754565239,-0.03472759202122688,0.08607722818851471,-1.576991081237793,0.09001384675502777,-1.5940518379211426,-0.07668295502662659,-0.034739840775728226,0.05800550803542137,0.11285308748483658,0.03984830901026726,-0.04323970526456833,-0.004372492432594299,0.00043278373777866364,0.35875,-0.35604,0.45148568405566597,0.023693476598392257,0.23551622230671798,1.0773703041772698,-1.5438850587086295,False
41,0,0.08607722818851471,-1.576991081237793,0.09001384675502777,-1.5940518379211426,-0.07668295502662659,-0.034739840775728226,0.0877194032073021,-1.5755473375320435,0.09291163831949234,-1.5960636138916016,-0.07721206545829773,-0.034761205315589905,0.05775837227702141,0.11315124481916428,0.04004241153597832,-0.0435221865773201,-0.004424765706062317,0.00030262209475040436,0.35875,-0.35604,0.45148568405566597,0.02624442791214391,0.23579546551182187,1.0772071552319502,-1.5530315707329776,False
42,0,0.0877194032073021,-1.5755473375320435,0.09291163831949234,-1.5960636138916016,-0.07721206545829773,-0.034761205315589905,0.0884331688284874,-1.574476957321167,0.09358444809913635,-1.5966439247131348,-0.07729557156562805,-0.03478003293275833,0.05771872028708458,0.1135115697979927,0.040109679102897644,-0.04373545199632645,-0.0042496249079704285,0.0002578515559434891,0.35875,-0.35604,0.45148568405566597,0.02624442791214391,0.23579546551182187,1.0772071552319502,-1.5630315707329774,False
43,0,0.0884331688284874,-1.574476957321167,0.09358444809913635,-1.5966439247131348,-0.07729557156562805,-0.03478003293275833,0.08963433653116226,-1.5745033025741577,0.09751138836145401,-1.5991483926773071,-0.07787986844778061,-0.03470392897725105,0.05776644125580788,0.11361157149076462,0.04009199142456055,-0.043764956295490265,-0.004148818552494049,0.00026840344071388245,0.35875,-0.35604,0.45148568405566597,0.026938277894606094,0.23592821506338948,1.077051214505928,-1.5727613315082056,False
44,0,0.08963433653116226,-1.5745033025741577,0.09751138836145401,-1.5991483926773071,-0.07787986844778061,-0.03470392897725105,0.09072403609752655,-1.5744011402130127,0.09973862767219543,-1.6004494428634644,-0.07843007147312164,-0.0348237007856369,0.057568393647670746,0.11406675726175308,0.04028579592704773,-0.044098787009716034,-0.004079997539520264,0.00014971569180488586,0.35875,-0.35604,0.45148568405566597,0.029533803935330647,0.23622344181611216,1.0768715095720562,-1.5818990830816255,False
45,0,0.09072403609752655,-1.5744011402130127,0.09973862767219543,-1.6004494428634644,-0.07843007147312164,-0.0348237007856369,0.09218716621398926,-1.5735740661621094,0.10318483412265778,-1.60275137424469,-0.0789853036403656,-0.0348021425306797,0.05745721980929375,0.11430971324443817,0.04037186875939369,-0.044294267892837524,-0.0040229856967926025,8.120015263557434e-05,0.35875,-0.35604,0.45148568405566597,0.031531972519171246,0.23647713780956253,1.0766735350515637,-1.5912163256310088,False
46,0,0.09218716621398926,-1.5735740661621094,0.10318483412265778,-1.60275137424469,-0.0789853036403656,-0.0348021425306797,0.09299755841493607,-1.5739967823028564,0.10482636094093323,-1.6035685539245605,-0.07947348803281784,-0.034968987107276917,0.057346098124980927,0.11472441256046295,0.040499746799468994,-0.044567689299583435,-0.0038920342922210693,1.5478581190109253e-06,0.35875,-0.35604,0.45148568405566597,0.031531972519171246,0.23647713780956253,1.0766735350515637,-1.6012163256310088,False
47,0,0.09299755841493607,-1.5739967823028564,0.10482636094093323,-1.6035685539245605,-0.07947348803281784,-0.034968987107276917,0.09389349818229675,-1.5736725330352783,0.1075359657406807,-1.605370044708252,-0.07985397428274155,-0.03490159660577774,0.05722416937351227,0.1148838922381401,0.040576815605163574,-0.044727906584739685,-0.003886118531227112,-6.714463233947754e-05,0.35875,-0.35604,0.45148568405566597,0.031531972519171246,0.23647713780956253,1.0766735350515637,-1.6112163256310088,False
48,0,0.09389349818229675,-1.5736725330352783,0.1075359657406807,-1.605370044708252,-0.07985397428274155,-0.03490159660577774,0.09491097927093506,-1.5735249519348145,0.10988131910562515,-1.6067577600479126,-0.08045510947704315,-0.035012852400541306,0.057114239782094955,0.11520814150571823,0.0406980998814106,-0.04494880884885788,-0.00381285697221756,-0.000138111412525177,0.35875,-0.35604,0.45148568405566597,0.03356894242768343,0.2368249677193991,1.0763270859704481,-1.6204836414858281,False
49,0,0.09491097927093506,-1.5735249519348145,0.10988131910562515,-1.6067577600479126,-0.08045510947704315,-0.035012852400541306,0.09589564800262451,-1.573327898979187,0.11221762001514435,-1.6081700325012207,-0.0809965506196022,-0.035087522119283676,0.05701538920402527,0.11546419560909271,0.04079871252179146,-0.045138485729694366,-0.0037716329097747803,-0.00018535181879997253,0.35875,-0.35604,0.45148568405566597,0.03456645158887875,0.23697192234606237,1.076198943745641,-1.6301394862426974,False
50,0,0.09589564800262451,-1.573327898979187,0.11221762001514435,-1.6081700325012207,-0.0809965506196022,-0.035087522119283676,0.09685499221086502,-1.5731173753738403,0.1146034225821495,-1.609637975692749,-0.08147642016410828,-0.0351073183119297,0.05695507675409317,0.11571904271841049,0.04091237857937813,-0.04529298096895218,-0.0037572160363197327,-0.00019239075481891632,0.35875,-0.35604,0.45148568405566597,0.035866315969362766,0.23713147906881563,1.0760868623636248,-1.639709185157738,False
51,0,0.09685499221086502,-1.5731173753738403,0.1146034225821495,-1.609637975692749,-0.08147642016410828,-0.0351073183119297,0.09750519692897797,-1.572097659111023,0.11542704701423645,-1.6102746725082397,-0.08170220255851746,-0.03516056761145592,0.05689617618918419,0.11598337441682816,0.04103098064661026,-0.04544668644666672,-0.0037412121891975403,-0.00019858591258525848,0.35875,-0.35604,0.45148568405566597,0.035866315969362766,0.23713147906881563,1.0760868623636248,-1.649709185157738,False
52,0,0.09750519692897797,-1.572097659111023,0.11542704701423645,-1.6102746725082397,-0.08170220255851746,-0.03516056761145592,0.0982518419623375,-1.5735838413238525,0.11750079691410065,-1.6110974550247192,-0.0825166329741478,-0.03542684018611908,0.05694374069571495,0.11609689146280289,0.04103522375226021,-0.04548625648021698,-0.0036659687757492065,-0.0001727808266878128,0.35875,-0.35604,0.45148568405566597,0.035866315969362766,0.23713147906881563,1.0760868623636248,-1.659709185157738,False
53,0,0.0982518419623375,-1.5735838413238525,0.11750079691410065,-1.6110974550247192,-0.0825166329741478,-0.03542684018611908,0.10017503798007965,-1.5717107057571411,0.12251504510641098,-1.6147657632827759,-0.08306051790714264,-0.03517383709549904,0.05675887688994408,0.11626633256673813,0.04119439423084259,-0.04568333178758621,-0.003784552216529846,-0.00022442825138568878,0.35875,-0.35604,0.45148568405566597,0.03887081207109393,0.23760835399611296,1.0756475923507132,-1.6686684077923595,False
54,0,0.10017503798007965,-1.5717107057571411,0.12251504510641098,-1.6147657632827759,-0.08306051790714264,-0.03517383709549904,0.10107996314764023,-1.5721837282180786,0.12469414621591568,-1.6159281730651855,-0.08370016515254974,-0.03531849756836891,0.056781917810440063,0.11691855639219284,0.04145611450076103,-0.045987941324710846,-0.003676176071166992,-0.0001832805573940277,0.35875,-0.35604,0.45148568405566597,0.04016217086047568,0.23779425685406164,1.0755061657281697,-1.6782437331900273,False
55,0,0.10107996314764023,-1.5721837282180786,0.12469414621591568,-1.6159281730651855,-0.08370016515254974,-0.03531849756836891,0.10203079134225845,-1.5723050832748413,0.12694846093654633,-1.6172502040863037,-0.08422449231147766,-0.03539969399571419,0.056677985936403275,0.11713983863592148,0.04159339517354965,-0.04616367071866989,-0.0037195831537246704,-0.00020462088286876678,0.35875,-0.35604,0.45148568405566597,0.039944733102640205,0.237795824020499,1.0754669716807124,-1.6882935663344696,False
56,0,0.10203079134225845,-1.5723050832748413,0.12694846093654633,-1.6172502040863037,-0.08422449231147766,-0.03539969399571419,0.10289198160171509,-1.5721378326416016,0.12965361773967743,-1.6190195083618164,-0.08466225117444992,-0.035342972725629807,0.056603532284498215,0.11738624423742294,0.041728392243385315,-0.04633244127035141,-0.0037380829453468323,-0.00021630898118019104,0.35875,-0.35604,0.45148568405566597,0.039944733102640205,0.237795824020499,1.0754669716807124,-1.6982935663344696,False
57,0,0.10289198160171509,-1.5721378326416016,0.12965361773967743,-1.6190195083618164,-0.08466225117444992,-0.035342972725629807,0.10390495508909225,-1.5719735622406006,0.1321375072002411,-1.6205483675003052,-0.08528999239206314,-0.035402778536081314,0.056547414511442184,0.11770748347043991,0.04189639538526535,-0.046519935131073,-0.00374487042427063,-0.00021925382316112518,0.35875,-0.35604,0.45148568405566597,0.042778624851809804,0.23825987159870463,1.0750244499425912,-1.707313400370297,False
58,0,0.10390495508909225,-1.5719735622406006,0.1321375072002411,-1.6205483675003052,-0.08528999239206314,-0.035402778536081314,0.10541337728500366,-1.571390151977539,0.13483528792858124,-1.6222079992294312,-0.0859813243150711,-0.035559676587581635,0.0564863421022892,0.11798890680074692,0.0420350581407547,-0.0467008501291275,-0.0037436261773109436,-0.000220373272895813,0.35875,-0.35604,0.45148568405566597,0.04416201251822108,0.23850260795402015,1.0748218913887455,-1.7168575455842405,False
59,0,0.10541337728500366,-1.571390151977539,0.13483528792858124,-1.6222079992294312,-0.0859813243150711,-0.035559676587581635,0.1059093177318573,-1.570497989654541,0.1357937902212143,-1.6229987144470215,-0.08613123744726181,-0.03551122918725014,0.056447308510541916,0.11829628795385361,0.042160481214523315,-0.04689110815525055,-0.0037055909633636475,-0.00021375901997089386,0.35875,-0.35604,0.45148568405566597,0.04525484100408873,0.2386519397940634,1.074705053834282,-1.7265006604323752,False
60,0,0.1059093177318573,-1.570497989654541,0.1357937902212143,-1.6229987144470215,-0.08613123744726181,-0.03551122918725014,0.10673705488443375,-1.5709679126739502,0.13750919699668884,-1.6238549947738647,-0.08666635304689407,-0.03567773103713989,0.056489355862140656,0.11843426525592804,0.042188454419374466,-0.046939872205257416,-0.0036434754729270935,-0.00018875859677791595,0.35875,-0.35604,0.45148568405566597,0.04525484100408873,0.2386519397940634,1.074705053834282,-1.7365006604323754,False
61,0,0.10673705488443375,-1.5709679126739502,0.13750919699668884,-1.6238549947738647,-0.08666635304689407,-0.03567773103713989,0.10791601240634918,-1.571100115776062,0.14085133373737335,-1.6258753538131714,-0.08745075762271881,-0.03573188558220863,0.05639803782105446,0.1186005249619484,0.042294908314943314,-0.04708213359117508,-0.0036824122071266174,-0.00021005049347877502,0.35875,-0.35604,0.45148568405566597,0.04652774832404313,0.23892060839394283,1.0744261572972422,-1.7460508898683447,False
62,0,0.10791601240634918,-1.571100115776062,0.14085133373737335,-1.6258753538131714,-0.08745075762271881,-0.03573188558220863,0.10872731357812881,-1.5708059072494507,0.14286954700946808,-1.6271779537200928,-0.08785367012023926,-0.035743582993745804,0.056292589753866196,0.11897357553243637,0.04250052943825722,-0.047330424189567566,-0.003711320459842682,-0.00022275932133197784,0.35875,-0.35604,0.45148568405566597,0.04764068123151327,0.23907797497370173,1.0743070259754117,-1.7556934634072374,False
63,0,0.10872731357812881,-1.5708059072494507,0.14286954700946808,-1.6271779537200928,-0.08785367012023926,-0.035743582993745804,0.10937843471765518,-1.5698527097702026,0.1439434289932251,-1.6280128955841064,-0.0880892425775528,-0.0357433557510376,0.05625920370221138,0.11921142041683197,0.04261272773146629,-0.04747018218040466,-0.0037004798650741577,-0.0002203863114118576,0.35875,-0.35604,0.45148568405566597,0.048658904791651234,0.23925520077953027,1.0741403064983652,-1.7653499124831562,False
64,0,0.10937843471765518,-1.5698527097702026,0.1439434289932251,-1.6280128955841064,-0.0880892425775528,-0.0357433557510376,0.10997366160154343,-1.571024775505066,0.14599458873271942,-1.628973126411438,-0.08875223249197006,-0.03588604927062988,0.05629945546388626,0.11935897916555405,0.04264022782444954,-0.04752892255783081,-0.003632374107837677,-0.00019447878003120422,0.35875,-0.35604,0.45148568405566597,0.048522092459042654,0.23926307314184875,1.0741077810465052,-1.7753792588141346,False
65,0,0.10997366160154343,-1.571024775505066,0.14599458873271942,-1.628973126411438,-0.08875223249197006,-0.03588604927062988,0.11142022162675858,-1.5688011646270752,0.1479194611310959,-1.6305259466171265,-0.08918637782335281,-0.03592585772275925,0.05614590272307396,0.11954696476459503,0.042797524482011795,-0.047711052000522614,-0.003730379045009613,-0.00023475848138332367,0.35875,-0.35604,0.45148568405566597,0.048522092459042654,0.23926307314184875,1.0741077810465052,-1.7853792588141344,False
66,0,0.11142022162675858,-1.5688011646270752,0.1479194611310959,-1.6305259466171265,-0.08918637782335281,-0.03592585772275925,0.11218363046646118,-1.5688350200653076,0.15013888478279114,-1.631885290145874,-0.08967459946870804,-0.0359528586268425,0.05625449866056442,0.11982084065675735,0.04282208904623985,-0.04780694097280502,-0.0035658851265907288,-0.00017466209828853607,0.35875,-0.35604,0.45148568405566597,0.051681969328693955,0.2397928522013733,1.0736479596107624,-1.7943454938638501,False
67,0,0.11218363046646118,-1.5688350200653076,0.15013888478279114,-1.631885290145874,-0.08967459946870804,-0.0359528586268425,0.11287947744131088,-1.5701050758361816,0.15245097875595093,-1.6329643726348877,-0.09045623242855072,-0.03612401336431503,0.056189700961112976,0.12007146328687668,0.04295908287167549,-0.04796961694955826,-0.0035828426480293274,-0.0001822207123041153,0.35875,-0.35604,0.45148568405566597,0.051454038572388325,0.2398147882753728,1.0735801613937093,-1.8043902226433994,False
68,0,0.11287947744131088,-1.5701050758361816,0.15245097875595093,-1.6329643726348877,-0.09045623242855072,-0.03612401336431503,0.11383870244026184,-1.569682002067566,0.1541924625635147,-1.6340420246124268,-0.09094399958848953,-0.03622618690133095,0.056013185530900955,0.12028636783361435,0.04313028231263161,-0.04817177355289459,-0.003694109618663788,-0.00022805482149124146,0.35875,-0.35604,0.45148568405566597,0.05239074405963656,0.2399930043496936,1.0734255014082406,-1.8140868654765905,False
69,0,0.11383870244026184,-1.569682002067566,0.1541924625635147,-1.6340420246124268,-0.09094399958848953,-0.03622618690133095,0.11534442752599716,-1.5687196254730225,0.15739759802818298,-1.636151909828186,-0.09168223291635513,-0.03629830479621887,0.05591120943427086,0.12053244560956955,0.04317430034279823,-0.04824737459421158,-0.0037397146224975586,-0.00025552697479724884,0.35875,-0.35604,0.45148568405566597,0.05447965836911611,0.24032214498876323,1.073161506188974,-1.8234241440531758,False
70,0,0.11534442752599716,-1.5687196254730225,0.15739759802818298,-1.636151909828186,-0.09168223291635513,-0.03629830479621887,0.11580228060483932,-1.5678455829620361,0.15823769569396973,-1.6368602514266968,-0.09179145842790604,-0.036261867731809616,0.055673204362392426,0.12103216350078583,0.04323878511786461,-0.048346422612667084,-0.0039343759417533875,-0.00033597834408283234,0.35875,-0.35604,0.45148568405566597,0.05447965836911611,0.24032214498876323,1.073161506188974,-1.833424144053176,False
71,0,0.11580228060483932,-1.5678455829620361,0.15823769569396973,-1.6368602514266968,-0.09179145842790604,-0.036261867731809616,0.1176532581448555,-1.5672791004180908,0.16260311007499695,-1.6395769119262695,-0.09287119656801224,-0.0363912396132946,0.05562842637300491,0.12120091170072556,0.04322551563382149,-0.04834090918302536,-0.003985293209552765,-0.00035387836396694183,0.35875,-0.35604,0.45148568405566597,0.05623033075772715,0.24069673472912242,1.0727645519655242,-1.8428171480125575,False
72,0,0.1176532581448555,-1.5672791004180908,0.16260311007499695,-1.6395769119262695,-0.09287119656801224,-0.0363912396132946,0.11931829154491425,-1.5666614770889282,0.16524383425712585,-1.6410883665084839,-0.09386786073446274,-0.03669365495443344,0.0552411749958992,0.12185737490653992,0.04333920404314995,-0.04849449545145035,-0.004324890673160553,-0.0004883408546447754,0.35875,-0.35604,0.45148568405566597,0.0587330991497156,0.2411675403080613,1.0723713147940015,-1.8520313047982702,False
73,0,0.11931829154491425,-1.5666614770889282,0.16524383425712585,-1.6410883665084839,-0.09386786073446274,-0.03669365495443344,0.12025415897369385,-1.5653609037399292,0.16638077795505524,-1.641980528831482,-0.09412136673927307,-0.03675135597586632,0.054983414709568024,0.12222585827112198,0.04335852339863777,-0.048590950667858124,-0.004484184086322784,-0.0005680304020643234,0.35875,-0.35604,0.45148568405566597,0.05939801085456227,0.24128993790231185,1.0722804499769165,-1.8618311450355904,False
74,0,0.12025415897369385,-1.5653609037399292,0.16638077795505524,-1.641980528831482,-0.09412136673927307,-0.03675135597586632,0.12186930328607559,-1.5666371583938599,0.17025648057460785,-1.6438543796539307,-0.09556256979703903,-0.03713337704539299,0.05490954965353012,0.12243876606225967,0.043316517025232315,-0.04858342558145523,-0.004529528319835663,-0.0005940143018960953,0.35875,-0.35604,0.45148568405566597,0.05939801085456227,0.24128993790231185,1.0722804499769165,-1.8718311450355904,False
75,0,0.12186930328607559,-1.5666371583938599,0.17025648057460785,-1.6438543796539307,-0.09556256979703903,-0.03713337704539299,0.12359301000833511,-1.5653976202011108,0.17493896186351776,-1.6470086574554443,-0.09655791521072388,-0.037096522748470306,0.05447560176253319,0.12288665026426315,0.043478745967149734,-0.048815496265888214,-0.004820317029953003,-0.0007275287061929703,0.35875,-0.35604,0.45148568405566597,0.06319254226636369,0.24207284917564367,1.0714955495584162,-1.8805718838939391,False
76,0,0.12359301000833511,-1.5653976202011108,0.17493896186351776,-1.6470086574554443,-0.09655791521072388,-0.037096522748470306,0.12440340220928192,-1.5659031867980957,0.17576301097869873,-1.647181749343872,-0.09716146439313889,-0.037420909851789474,0.054088085889816284,0.12359920144081116,0.04358317330479622,-0.048959627747535706,-0.005111023783683777,-0.0008517857640981674,0.35875,-0.35604,0.45148568405566597,0.06313328069237306,0.2420923085119958,1.0715205168888466,-1.8906208919137526,False
77,0,0.12440340220928192,-1.5659031867980957,0.17576301097869873,-1.647181749343872,-0.09716146439313889,-0.037420909851789474,0.12612462043762207,-1.5646398067474365,0.17968356609344482,-1.649765133857727,-0.09818253666162491,-0.037512242794036865,0.053962331265211105,0.12366277724504471,0.04359922185540199,-0.04902653396129608,-0.005175665020942688,-0.0008902475237846375,0.35875,-0.35604,0.45148568405566597,0.06445999398716597,0.24235751698864594,1.0712467638682333,-1.9001790375594387,False
78,0,0.12612462043762207,-1.5646398067474365,0.17968356609344482,-1.649765133857727,-0.09818253666162491,-0.037512242794036865,0.12707263231277466,-1.5633671283721924,0.17969457805156708,-1.649830937385559,-0.09837574511766434,-0.037745967507362366,0.053631775081157684,0.12425742298364639,0.04365922883152962,-0.04914408177137375,-0.005410216748714447,-0.0009941253811120987,0.35875,-0.35604,0.45148568405566597,0.06445999398716597,0.24235751698864594,1.0712467638682333,-1.9101790375594387,False
79,0,0.12707263231277466,-1.5633671283721924,0.17969457805156708,-1.649830937385559,-0.09837574511766434,-0.037745967507362366,0.12901780009269714,-1.5631563663482666,0.18413300812244415,-1.6523897647857666,-0.09984491020441055,-0.0380212664604187,0.053642161190509796,0.12429779022932053,0.04355679824948311,-0.04909563064575195,-0.005377918481826782,-0.0009937938302755356,0.35875,-0.35604,0.45148568405566597,0.06692411086447432,0.24296310186537126,1.0707214106792382,-1.9194262698169506,False
80,0,0.12901780009269714,-1.5631563663482666,0.18413300812244415,-1.6523897647857666,-0.09984491020441055,-0.0380212664604187,0.12948353588581085,-1.5639020204544067,0.18619906902313232,-1.6534981727600098,-0.10038229078054428,-0.0380702018737793,0.05327242612838745,0.12491722404956818,0.043756116181612015,-0.049328096210956573,-0.005689710378646851,-0.001090124249458313,0.35875,-0.35604,0.45148568405566597,0.06825844867584666,0.24324857822397764,1.070394506636064,-1.9289646011852224,False
81,0,0.12948353588581085,-1.5639020204544067,0.18619906902313232,-1.6534981727600098,-0.10038229078054428,-0.0380702018737793,0.1298854500055313,-1.5646408796310425,0.1874634325504303,-1.6540558338165283,-0.10085560381412506,-0.03818755969405174,0.05309268459677696,0.12517715990543365,0.04392256215214729,-0.04946958273649216,-0.005863219499588013,-0.0011396687477827072,0.35875,-0.35604,0.45148568405566597,0.06809356687135212,0.24326245155511025,1.0703524609365653,-1.938997821206137,False
82,0,0.1298854500055313,-1.5646408796310425,0.1874634325504303,-1.6540558338165283,-0.10085560381412506,-0.03818755969405174,0.1308385729789734,-1.5638984441757202,0.1894409954547882,-1.6553527116775513,-0.10141606628894806,-0.03826826065778732,0.05296089127659798,0.12531326711177826,0.04402484372258186,-0.049569033086299896,-0.005972288548946381,-0.0011761412024497986,0.35875,-0.35604,0.45148568405566597,0.06798720495480752,0.24327094341269828,1.0703239310951411,-1.9490180078922774,False
83,0,0.1308385729789734,-1.5638984441757202,0.1894409954547882,-1.6553527116775513,-0.10141606628894806,-0.03826826065778732,0.13172806799411774,-1.563489317893982,0.1913917362689972,-1.6565513610839844,-0.10201821476221085,-0.03837382420897484,0.052839040756225586,0.12563137710094452,0.04410465434193611,-0.04965754598379135,-0.0061040520668029785,-0.0012016594409942627,0.35875,-0.35604,0.45148568405566597,0.06798720495480752,0.24327094341269828,1.0703239310951411,-1.9590180078922774,False
84,0,0.13172806799411774,-1.563489317893982,0.1913917362689972,-1.6565513610839844,-0.10201821476221085,-0.03837382420897484,0.13272830843925476,-1.5630769729614258,0.19345034658908844,-1.657780647277832,-0.10273556411266327,-0.03852108493447304,0.05270368233323097,0.12592604756355286,0.04419644549489021,-0.04975692182779312,-0.00624026358127594,-0.0012321211397647858,0.35875,-0.35604,0.45148568405566597,0.07149632983141388,0.24398253498711162,1.0696649819909871,-1.9679229861166871,False
85,0,0.13272830843925476,-1.5630769729614258,0.19345034658908844,-1.657780647277832,-0.10273556411266327,-0.03852108493447304,0.13373051583766937,-1.5626906156539917,0.1955614537000656,-1.6590373516082764,-0.1034645363688469,-0.03866837918758392,0.052566513419151306,0.12623515725135803,0.04427710548043251,-0.04987744241952896,-0.00637613981962204,-0.0012728702276945114,0.35875,-0.35604,0.45148568405566597,0.07132338264449682,0.24399888385814755,1.069624872711626,-1.977961207637943,False
86,0,0.13373051583766937,-1.5626906156539917,0.1955614537000656,-1.6590373516082764,-0.1034645363688469,-0.03866837918758392,0.13446621596813202,-1.563900113105774,0.19760258495807648,-1.6598906517028809,-0.1043432354927063,-0.03890721872448921,0.05242575705051422,0.12655088305473328,0.04436192288994789,-0.05000291019678116,-0.0065162405371665955,-0.0013156738132238388,0.35875,-0.35604,0.45148568405566597,0.0723775673463953,0.2442397490927242,1.0693896950128046,-1.9876272490466933,False
87,0,0.13446621596813202,-1.563900113105774,0.19760258495807648,-1.6598906517028809,-0.1043432354927063,-0.03890721872448921,0.13547183573246002,-1.5634154081344604,0.19938147068023682,-1.660951018333435,-0.10499321669340134,-0.03907158970832825,0.05221780762076378,0.12676741182804108,0.04450777545571327,-0.05018091946840286,-0.0066829100251197815,-0.0013836603611707687,0.35875,-0.35604,0.45148568405566597,0.0734021764490139,0.24447196124410508,1.0691782807096655,-1.9973142643306971,False
88,0,0.13547183573246002,-1.5634154081344604,0.19938147068023682,-1.660951018333435,-0.10499321669340134,-0.03907158970832825,0.13547183573246002,-1.5634154081344604,0.19938147068023682,-1.660951018333435,-0.10499321669340134,-0.03907158970832825,0.052100252360105515,0.12703871726989746,0.0445643849670887,-0.05028212070465088,-0.006797134876251221,-0.0014190766960382462,0.35875,-0.35604,0.45148568405566597,0.0734021764490139,0.24447196124410508,1.0691782807096655,-2.0073142643306974,False
89,0,0.13547183573246002,-1.5634154081344604,0.19938147068023682,-1.660951018333435,-0.10499321669340134,-0.03907158970832825,0.13547183573246002,-1.5634154081344604,0.19938147068023682,-1.660951018333435,-0.10499321669340134,-0.03907158970832825,0.052100252360105515,0.12703871726989746,0.0445643849670887,-0.05028212070465088,-0.006797134876251221,-0.0014190766960382462,0.35875,-0.35604,0.45148568405566597,0.0734021764490139,0.24447196124410508,1.0691782807096655,-2.017314264330697,False
90,0,0.13547183573246002,-1.5634154081344604,0.19938147068023682,-1.660951018333435,-0.10499321669340134,-0.03907158970832825,0.13547183573246002,-1.5634154081344604,0.19938147068023682,-1.660951018333435,-0.10499321669340134,-0.03907158970832825,0.052100252360105515,0.12703871726989746,0.0445643849670887,-0.05028212070465088,-0.006797134876251221,-0.0014190766960382462,0.35875,-0.35604,0.45148568405566597,0.0734021764490139,0.24447196124410508,1.0691782807096655,-2.0273142643306974,False
91,0,0.13547183573246002,-1.5634154081344604,0.19938147068023682,-1.660951018333435,-0.10499321669340134,-0.03907158970832825,0.13547183573246002,-1.5634154081344604,0.19938147068023682,-1.660951018333435,-0.10499321669340134,-0.03907158970832825,0.052100252360105515,0.12703871726989746,0.0445643849670887,-0.05028212070465088,-0.006797134876251221,-0.0014190766960382462,0.35875,-0.35604,0.45148568405566597,0.0734021764490139,0.24447196124410508,1.0691782807096655,-2.037314264330697,False
92,0,0.13547183573246002,-1.5634154081344604,0.19938147068023682,-1.660951018333435,-0.10499321669340134,-0.03907158970832825,0.13547183573246002,-1.5634154081344604,0.19938147068023682,-1.660951018333435,-0.10499321669340134,-0.03907158970832825,0.052100252360105515,0.12703871726989746,0.0445643849670887,-0.05028212070465088,-0.006797134876251221,-0.0014190766960382462,0.35875,-0.35604,0.45148568405566597,0.0734021764490139,0.24447196124410508,1.0691782807096655,-2.0473142643306974,False
93,0,0.13547183573246002,-1.5634154081344604,0.19938147068023682,-1.660951018333435,-0.10499321669340134,-0.03907158970832825,0.13708962500095367,-1.5624722242355347,0.20266057550907135,-1.6630007028579712,-0.10602406412363052,-0.03927087038755417,0.052100252360105515,0.12703871726989746,0.0445643849670887,-0.05028212070465088,-0.006797134876251221,-0.0014190766960382462,0.35875,-0.35604,0.45148568405566597,0.0734021764490139,0.24447196124410508,1.0691782807096655,-2.057314264330697,False
94,0,0.13708962500095367,-1.5624722242355347,0.20266057550907135,-1.6630007028579712,-0.10602406412363052,-0.03927087038755417,0.13859793543815613,-1.5617177486419678,0.20442742109298706,-1.6639467477798462,-0.1069524958729744,-0.03964542970061302,0.05189890041947365,0.1275518536567688,0.04468393698334694,-0.050462476909160614,-0.007011055946350098,-0.0014809239655733109,0.35875,-0.35604,0.45148568405566597,0.07633888911610348,0.24522904167864884,1.0684794313173585,-2.0664210786165644,False
95,0,0.13859793543815613,-1.5617177486419678,0.20442742109298706,-1.6639467477798462,-0.1069524958729744,-0.03964542970061302,0.1399030089378357,-1.559607982635498,0.2060668021440506,-1.6652610301971436,-0.10743557661771774,-0.03976704552769661,0.05176990106701851,0.12781643867492676,0.04469740763306618,-0.05056271702051163,-0.007114134728908539,-0.0015180259943008423,0.35875,-0.35604,0.45148568405566597,0.07777038417450946,0.24551143203123177,1.0682481692025987,-2.076006175753005,False
96,0,0.1399030089378357,-1.559607982635498,0.2060668021440506,-1.6652610301971436,-0.10743557661771774,-0.03976704552769661,0.142099529504776,-1.5599123239517212,0.2101777046918869,-1.6673141717910767,-0.10927382856607437,-0.04030676558613777,0.05173102766275406,0.12815511226654053,0.04467470571398735,-0.05059868097305298,-0.007187314331531525,-0.0015253517776727676,0.35875,-0.35604,0.45148568405566597,0.07973795504293796,0.2460788412536687,1.067709187933635,-2.08540820830833,False
97,0,0.142099529504776,-1.5599123239517212,0.2101777046918869,-1.6673141717910767,-0.10927382856607437,-0.04030676558613777,0.1429855227470398,-1.5579001903533936,0.2105749547481537,-1.6678634881973267,-0.10942097008228302,-0.04040909558534622,0.05138665437698364,0.12869173288345337,0.04485360160470009,-0.050889767706394196,-0.0074738189578056335,-0.0016308892518281937,0.35875,-0.35604,0.45148568405566597,0.0814727905983672,0.2464289311915499,1.0674456131794858,-2.0949287743690768,False
98,0,0.1429855227470398,-1.5579001903533936,0.2105749547481537,-1.6678634881973267,-0.10942097008228302,-0.04040909558534622,0.14407207071781158,-1.5584028959274292,0.213114395737648,-1.6691433191299438,-0.11043305695056915,-0.04066409915685654,0.05142989754676819,0.12884512543678284,0.04476604238152504,-0.05085102468729019,-0.00745893269777298,-0.0016114357858896255,0.35875,-0.35604,0.45148568405566597,0.08193723164380616,0.24661236611352183,1.067240080994654,-2.104768872645321,False
99,0,0.14407207071781158,-1.5584028959274292,0.213114395737648,-1.6691433191299438,-0.11043305695056915,-0.04066409915685654,0.14467115700244904,-1.5594654083251953,0.2149142026901245,-1.6699042320251465,-0.1111648827791214,-0.04085608571767807,0.05127390846610069,0.129165917634964,0.044932905584573746,-0.05105578154325485,-0.0075979456305503845,-0.0016218721866607666,0.35875,-0.35604,0.45148568405566597,0.0816915674720146,0.24663900103947456,1.067172040646914,-2.114815493249375,False
100,0,0.14467115700244904,-1.5594654083251953,0.2149142026901245,-1.6699042320251465,-0.1111648827791214,-0.04085608571767807,0.14610199630260468,-1.5593793392181396,0.21693582832813263,-1.6708194017410278,-0.11245785653591156,-0.04128134995698929,0.051133956760168076,0.129356250166893,0.04508455470204353,-0.051224127411842346,-0.0077127739787101746,-0.0016415547579526901,0.35875,-0.35604,0.45148568405566597,0.0816915674720146,0.24663900103947456,1.067172040646914,-2.1248154932493746,False
101,0,0.14610199630260468,-1.5593793392181396,0.21693582832813263,-1.6708194017410278,-0.11245785653591156,-0.04128134995698929,0.1469762921333313,-1.5590671300888062,0.21866710484027863,-1.6718307733535767,-0.11308878660202026,-0.04143202677369118,0.05100705102086067,0.1296084225177765,0.045159269124269485,-0.051388151943683624,-0.0077908337116241455,-0.0016372278332710266,0.35875,-0.35604,0.45148568405566597,0.0816915674720146,0.24663900103947456,1.067172040646914,-2.1348154932493744,False
102,0,0.1469762921333313,-1.5590671300888062,0.21866710484027863,-1.6718307733535767,-0.11308878660202026,-0.04143202677369118,0.14739516377449036,-1.559704303741455,0.2197589874267578,-1.6722725629806519,-0.11361238360404968,-0.04157424718141556,0.050929222255945206,0.12986275553703308,0.04524470493197441,-0.05150478333234787,-0.007872551679611206,-0.001633649691939354,0.35875,-0.35604,0.45148568405566597,0.08311668958944281,0.24714436148310873,1.066679606195315,-2.144382034744905,False
103,0,0.14739516377449036,-1.559704303741455,0.2197589874267578,-1.6722725629806519,-0.11361238360404968,-0.04157424718141556,0.1483837217092514,-1.5588926076889038,0.22162452340126038,-1.6734645366668701,-0.11430017650127411,-0.04171193763613701,0.050841569900512695,0.12997496128082275,0.04533124342560768,-0.05160920321941376,-0.007938146591186523,-0.0016443617641925812,0.35875,-0.35604,0.45148568405566597,0.08443499087984119,0.24745211970874811,1.066389307032273,-2.1539890998728684,False
104,0,0.1483837217092514,-1.5588926076889038,0.22162452340126038,-1.6734645366668701,-0.11430017650127411,-0.04171193763613701,0.14924152195453644,-1.5586100816726685,0.2231644093990326,-1.674336552619934,-0.11492810398340225,-0.04188167676329613,0.05077837035059929,0.1302734613418579,0.04540311172604561,-0.05171991139650345,-0.008014246821403503,-0.0016314294189214706,0.35875,-0.35604,0.45148568405566597,0.08518236090144427,0.2476615181804065,1.0661905484418457,-2.1637672817725857,False
105,0,0.14924152195453644,-1.5586100816726685,0.2231644093990326,-1.674336552619934,-0.11492810398340225,-0.04188167676329613,0.14987097680568695,-1.5595651865005493,0.22479094564914703,-1.6749963760375977,-0.11572165787220001,-0.04209146648645401,0.0507059209048748,0.1304960995912552,0.045473355799913406,-0.05182573199272156,-0.008083976805210114,-0.0016277562826871872,0.35875,-0.35604,0.45148568405566597,0.08504788329670439,0.24768262367580038,1.0661499453149985,-2.1737944740402666,False
106,0,0.14987097680568695,-1.5595651865005493,0.22479094564914703,-1.6749963760375977,-0.11572165787220001,-0.04209146648645401,0.15119719505310059,-1.557436227798462,0.22649948298931122,-1.6763391494750977,-0.11627495288848877,-0.042235735803842545,0.05057474970817566,0.13066279888153076,0.045601535588502884,-0.05198170989751816,-0.008180610835552216,-0.001643279567360878,0.35875,-0.35604,0.45148568405566597,0.08504788329670439,0.24768262367580038,1.0661499453149985,-2.1837944740402664,False
107,0,0.15119719505310059,-1.557436227798462,0.22649948298931122,-1.6763391494750977,-0.11627495288848877,-0.042235735803842545,0.15213336050510406,-1.5572965145111084,0.22859007120132446,-1.67750084400177,-0.11713699996471405,-0.04242075979709625,0.050573065876960754,0.13100740313529968,0.04560081288218498,-0.05203668028116226,-0.008222557604312897,-0.0016100946813821793,0.35875,-0.35604,0.45148568405566597,0.08811782611440533,0.2484409678657768,1.0654409410399088,-2.192894719081325,False
108,0,0.15213336050510406,-1.5572965145111084,0.22859007120132446,-1.67750084400177,-0.11713699996471405,-0.04242075979709625,0.1532037854194641,-1.5568079948425293,0.23074470460414886,-1.678758978843689,-0.11801385134458542,-0.04261597618460655,0.050468169152736664,0.13129839301109314,0.04571463540196419,-0.05218861997127533,-0.008322305977344513,-0.0016077738255262375,0.35875,-0.35604,0.45148568405566597,0.08927076257973063,0.2487438842227618,1.0651417199586592,-2.2025493209171394,False
109,0,0.1532037854194641,-1.5568079948425293,0.23074470460414886,-1.678758978843689,-0.11801385134458542,-0.04261597618460655,0.15427009761333466,-1.5564072132110596,0.23294571042060852,-1.6800220012664795,-0.11892300099134445,-0.04281880334019661,0.050369493663311005,0.13160458207130432,0.04585025832056999,-0.05234909802675247,-0.008385792374610901,-0.0016237236559391022,0.35875,-0.35604,0.45148568405566597,0.09036986812647117,0.24904027459794553,1.0648445529375365,-2.212218492678439,False
110,0,0.15427009761333466,-1.5564072132110596,0.23294571042060852,-1.6800220012664795,-0.11892300099134445,-0.04281880334019661,0.1547926664352417,-1.5571799278259277,0.23421430587768555,-1.680503249168396,-0.11958882212638855,-0.04301026463508606,0.050245340913534164,0.1319054365158081,0.04599593207240105,-0.05251243710517883,-0.008443564176559448,-0.0016341563314199448,0.35875,-0.35604,0.45148568405566597,0.09016863301435146,0.24906838723561944,1.0647920524151122,-2.2222615296316097,False
111,0,0.1547926664352417,-1.5571799278259277,0.23421430587768555,-1.680503249168396,-0.11958882212638855,-0.04301026463508606,0.1558939516544342,-1.55679452419281,0.2364855855703354,-1.6817947626113892,-0.12054372578859329,-0.04322568327188492,0.050106920301914215,0.1320163905620575,0.04611117020249367,-0.05263311415910721,-0.00849076360464096,-0.0016439035534858704,0.35875,-0.35604,0.45148568405566597,0.09016863301435146,0.24906838723561944,1.0647920524151122,-2.23226152963161,False
112,0,0.1558939516544342,-1.55679452419281,0.2364855855703354,-1.6817947626113892,-0.12054372578859329,-0.04322568327188492,0.15624108910560608,-1.5573194026947021,0.23734992742538452,-1.6821309328079224,-0.1209866851568222,-0.04334835708141327,0.049955204129219055,0.13231918215751648,0.046260107308626175,-0.05278243124485016,-0.00853421539068222,-0.0016483385115861893,0.35875,-0.35604,0.45148568405566597,0.09016863301435146,0.24906838723561944,1.0647920524151122,-2.2422615296316097,False
113,0,0.15624108910560608,-1.5573194026947021,0.23734992742538452,-1.6821309328079224,-0.1209866851568222,-0.04334835708141327,0.15746645629405975,-1.5570764541625977,0.23960955440998077,-1.6833604574203491,-0.12200742959976196,-0.04361359775066376,0.049861662089824677,0.13239583373069763,0.04633920267224312,-0.05286448448896408,-0.008566796779632568,-0.0016548633575439453,0.35875,-0.35604,0.45148568405566597,0.09222558417189826,0.24967345394234278,1.0641888478445556,-2.251647669751488,False
114,0,0.15746645629405975,-1.5570764541625977,0.23960955440998077,-1.6833604574203491,-0.12200742959976196,-0.04361359775066376,0.1580488085746765,-1.5561801195144653,0.24040640890598297,-1.6839579343795776,-0.1223214715719223,-0.04369128495454788,0.049697618931531906,0.1326858401298523,0.046484071761369705,-0.05301737040281296,-0.008608080446720123,-0.0016604457050561905,0.35875,-0.35604,0.45148568405566597,0.09310224135166202,0.24992429790344256,1.0639501430339173,-2.261395350209849,False
115,0,0.1580488085746765,-1.5561801195144653,0.24040640890598297,-1.6839579343795776,-0.1223214715719223,-0.04369128495454788,0.15899737179279327,-1.5556355714797974,0.24236883223056793,-1.6851387023925781,-0.12308795750141144,-0.043851565569639206,0.049679748713970184,0.1328316032886505,0.04650412127375603,-0.05304110050201416,-0.008600234985351562,-0.0016567911952733994,0.35875,-0.35604,0.45148568405566597,0.0942352279500138,0.2502227332089589,1.0636519217854346,-2.271060267029937,False
116,0,0.15899737179279327,-1.5556355714797974,0.24236883223056793,-1.6851387023925781,-0.12308795750141144,-0.043851565569639206,0.15990205109119415,-1.5550733804702759,0.2443055361509323,-1.6863192319869995,-0.12380512803792953,-0.043995603919029236,0.04956170916557312,0.13310757279396057,0.046627964824438095,-0.05316179245710373,-0.008634962141513824,-0.0016592126339673996,0.35875,-0.35604,0.45148568405566597,0.09412766618639902,0.2502524975478477,1.0636000327098327,-2.2810766212235167,False
117,0,0.15990205109119415,-1.5550733804702759,0.2443055361509323,-1.6863192319869995,-0.12380512803792953,-0.043995603919029236,0.16067108511924744,-1.5561740398406982,0.24621562659740448,-1.687069058418274,-0.12480620294809341,-0.0442638173699379,0.049462128430604935,0.13337525725364685,0.04675443097949028,-0.053280726075172424,-0.008656889200210571,-0.0016653519123792648,0.35875,-0.35604,0.45148568405566597,0.09412766618639902,0.2502524975478477,1.0636000327098327,-2.2910766212235165,False
118,0,0.16067108511924744,-1.5561740398406982,0.24621562659740448,-1.687069058418274,-0.12480620294809341,-0.0442638173699379,0.16270127892494202,-1.5544276237487793,0.25007158517837524,-1.6894710063934326,-0.12634025514125824,-0.04461374506354332,0.0493178516626358,0.133487731218338,0.046932440251111984,-0.05346428602933884,-0.008671097457408905,-0.0016850847750902176,0.35875,-0.35604,0.45148568405566597,0.09779987999785805,0.2511953792321193,1.0626963790592157,-2.30002679620584,False
119,0,0.16270127892494202,-1.5544276237487793,0.25007158517837524,-1.6894710063934326,-0.12634025514125824,-0.04461374506354332,0.16362066566944122,-1.554499626159668,0.2519210875034332,-1.6904104948043823,-0.12723763287067413,-0.04483896121382713,0.04929501935839653,0.13389065861701965,0.0471666045486927,-0.05368896573781967,-0.008551865816116333,-0.0017075296491384506,0.35875,-0.35604,0.45148568405566597,0.09847369715767376,0.25149435369738593,1.0623502783190537,-2.3097984984811606,False
120,0,0.16362066566944122,-1.554499626159668,0.2519210875034332,-1.6904104948043823,-0.12723763287067413,-0.04483896121382713,0.16462743282318115,-1.5526726245880127,0.2528674006462097,-1.6912612915039062,-0.1276039183139801,-0.044961631298065186,0.04922034218907356,0.13404184579849243,0.04730350151658058,-0.05383043736219406,-0.008523814380168915,-0.0017220303416252136,0.35875,-0.35604,0.45148568405566597,0.10023993657875843,0.2519241664660697,1.0619892020420856,-2.319334560798323,False
121,0,0.16462743282318115,-1.5526726245880127,0.2528674006462097,-1.6912612915039062,-0.1276039183139801,-0.044961631298065186,0.1657189428806305,-1.554203987121582,0.25554049015045166,-1.69228994846344,-0.12906008958816528,-0.04535355046391487,0.04929972440004349,0.1341937631368637,0.04729774221777916,-0.053832992911338806,-0.008423544466495514,-0.0017228871583938599,0.35875,-0.35604,0.45148568405566597,0.10023993657875843,0.2519241664660697,1.0619892020420856,-2.3293345607983227,False
122,0,0.1657189428806305,-1.554203987121582,0.25554049015045166,-1.69228994846344,-0.12906008958816528,-0.04535355046391487,0.16859620809555054,-1.5519156455993652,0.260876327753067,-1.6955242156982422,-0.13115589320659637,-0.0459141805768013,0.049096155911684036,0.13434889912605286,0.047544341534376144,-0.054090626537799835,-0.00844002515077591,-0.0017503593116998672,0.35875,-0.35604,0.45148568405566597,0.10359615840922314,0.2530152968331049,1.0608695431257082,-2.3383546868021385,False
123,0,0.16859620809555054,-1.5519156455993652,0.260876327753067,-1.6955242156982422,-0.13115589320659637,-0.0459141805768013,0.1698363721370697,-1.5523165464401245,0.26298630237579346,-1.6964061260223389,-0.13258296251296997,-0.046315018087625504,0.04905396327376366,0.13489560782909393,0.04787256941199303,-0.05440465360879898,-0.008283190429210663,-0.001785794273018837,0.35875,-0.35604,0.45148568405566597,0.10396830171067563,0.2532422595902888,1.0606417922359919,-2.3482485237163235,False
124,0,0.1698363721370697,-1.5523165464401245,0.26298630237579346,-1.6964061260223389,-0.13258296251296997,-0.046315018087625504,0.1713842898607254,-1.5506492853164673,0.26560789346694946,-1.6981253623962402,-0.13358058035373688,-0.04656286537647247,0.048933662474155426,0.13503766059875488,0.04801866039633751,-0.05458175390958786,-0.008235692977905273,-0.001803901046514511,0.35875,-0.35604,0.45148568405566597,0.10620762323279398,0.25384496568606957,1.0600683822351404,-2.3576364126925,False
125,0,0.1713842898607254,-1.5506492853164673,0.26560789346694946,-1.6981253623962402,-0.13358058035373688,-0.04656286537647247,0.1730411946773529,-1.5515685081481934,0.2687106728553772,-1.6994266510009766,-0.13545455038547516,-0.047082118690013885,0.048970501869916916,0.13532352447509766,0.04816918447613716,-0.054701194167137146,-0.0080961212515831,-0.0018253792077302933,0.35875,-0.35604,0.45148568405566597,0.10620762323279398,0.25384496568606957,1.0600683822351404,-2.3676364126925,False
126,0,0.1730411946773529,-1.5515685081481934,0.2687106728553772,-1.6994266510009766,-0.13545455038547516,-0.047082118690013885,0.17363353073596954,-1.5502821207046509,0.26976990699768066,-1.7002795934677124,-0.13578055799007416,-0.04712466895580292,0.04878585413098335,0.13552698493003845,0.04841022565960884,-0.05496663600206375,-0.00804777443408966,-0.001855393871665001,0.35875,-0.35604,0.45148568405566597,0.10620762323279398,0.25384496568606957,1.0600683822351404,-2.3776364126924996,False
127,0,0.17363353073596954,-1.5502821207046509,0.26976990699768066,-1.7002795934677124,-0.13578055799007416,-0.04712466895580292,0.17539529502391815,-1.5509825944900513,0.2732239067554474,-1.7018307447433472,-0.1377246230840683,-0.047649916261434555,0.04884859547019005,0.13567118346691132,0.0484580434858799,-0.054991088807582855,-0.007965080440044403,-0.001861652359366417,0.35875,-0.35604,0.45148568405566597,0.10865528636879712,0.25474770594492724,1.0591576625916421,-2.386947825621602,False
128,0,0.17539529502391815,-1.5509825944900513,0.2732239067554474,-1.7018307447433472,-0.1377246230840683,-0.047649916261434555,0.17588144540786743,-1.5497034788131714,0.27423104643821716,-1.7026889324188232,-0.13791581988334656,-0.04764746502041817,0.04867276921868324,0.13591590523719788,0.048726145178079605,-0.05527237057685852,-0.007904164493083954,-0.0018947143107652664,0.35875,-0.35604,0.45148568405566597,0.10990115419633709,0.2551201531753397,1.0587698889464485,-2.396592387566347,False
129,0,0.17588144540786743,-1.5497034788131714,0.27423104643821716,-1.7026889324188232,-0.13791581988334656,-0.04764746502041817,0.17707134783267975,-1.5493838787078857,0.27670204639434814,-1.7040305137634277,-0.13908948004245758,-0.04792410880327225,0.04874208942055702,0.13606002926826477,0.048777420073747635,-0.05529153347015381,-0.007829852402210236,-0.001900913193821907,0.35875,-0.35604,0.45148568405566597,0.11101382029140555,0.2554877925266462,1.0583848103138709,-2.4062742077840804,False
130,0,0.17707134783267975,-1.5493838787078857,0.27670204639434814,-1.7040305137634277,-0.13908948004245758,-0.04792410880327225,0.17811976373195648,-1.5505458116531372,0.27911993861198425,-1.7049708366394043,-0.14058439433574677,-0.04829735681414604,0.048684488981962204,0.1362764984369278,0.04895705357193947,-0.05545838177204132,-0.0077568963170051575,-0.0019223950803279877,0.35875,-0.35604,0.45148568405566597,0.11101382029140555,0.2554877925266462,1.0583848103138709,-2.41627420778408,False
131,0,0.17811976373195648,-1.5505458116531372,0.27911993861198425,-1.7049708366394043,-0.14058439433574677,-0.04829735681414604,0.17951135337352753,-1.5483956336975098,0.280467689037323,-1.70602548122406,-0.1412954479455948,-0.048540882766246796,0.04851214587688446,0.13641992211341858,0.04916592314839363,-0.05568508058786392,-0.007745780050754547,-0.0019453708082437515,0.35875,-0.35604,0.45148568405566597,0.11101382029140555,0.2554877925266462,1.0583848103138709,-2.4262742077840804,False
132,0,0.17951135337352753,-1.5483956336975098,0.280467689037323,-1.70602548122406,-0.1412954479455948,-0.048540882766246796,0.18014317750930786,-1.54918372631073,0.2819159924983978,-1.7065659761428833,-0.14219346642494202,-0.048771440982818604,0.04860631003975868,0.13660526275634766,0.04917613044381142,-0.055697500705718994,-0.007586777210235596,-0.001954019069671631,0.35875,-0.35604,0.45148568405566597,0.11288404802128618,0.2562671776332097,1.057615980290311,-2.435771027509843,False
133,0,0.18014317750930786,-1.54918372631073,0.2819159924983978,-1.7065659761428833,-0.14219346642494202,-0.048771440982818604,0.1808927357196808,-1.5500431060791016,0.2837064266204834,-1.7072820663452148,-0.1432633399963379,-0.0490260049700737,0.04849617928266525,0.1366870403289795,0.04930360987782478,-0.05583665519952774,-0.007584497332572937,-0.001968223601579666,0.35875,-0.35604,0.45148568405566597,0.1128007769113878,0.25635621750854104,1.0574902053856128,-2.4457696576497434,False
134,0,0.1808927357196808,-1.5500431060791016,0.2837064266204834,-1.7072820663452148,-0.1432633399963379,-0.0490260049700737,0.18219897150993347,-1.5479241609573364,0.2852945327758789,-1.7085227966308594,-0.1438811719417572,-0.049213241785764694,0.048370618373155594,0.13679546117782593,0.049460332840681076,-0.056003816425800323,-0.007577963173389435,-0.0019849110394716263,0.35875,-0.35604,0.45148568405566597,0.11500772080569395,0.2569627144517411,1.0569458346916276,-2.4552131005296713,False
135,0,0.18219897150993347,-1.5479241609573364,0.2852945327758789,-1.7085227966308594,-0.1438811719417572,-0.049213241785764694,0.18323573470115662,-1.547709345817566,0.28747448325157166,-1.7096694707870483,-0.14502587914466858,-0.04947550967335701,0.048465728759765625,0.13700854778289795,0.0495053268969059,-0.056031934916973114,-0.007428944110870361,-0.0019961129873991013,0.35875,-0.35604,0.45148568405566597,0.11483484156209527,0.2570119315057495,1.056873448635004,-2.4652449289270035,False
136,0,0.18323573470115662,-1.547709345817566,0.28747448325157166,-1.7096694707870483,-0.14502587914466858,-0.04947550967335701,0.1841786652803421,-1.5487366914749146,0.2897162139415741,-1.7105615139007568,-0.14639286696910858,-0.04980489984154701,0.048406586050987244,0.1371939480304718,0.04966225102543831,-0.056184425950050354,-0.007363453507423401,-0.0020142197608947754,0.35875,-0.35604,0.45148568405566597,0.11483484156209527,0.2570119315057495,1.056873448635004,-2.4752449289270038,False
137,0,0.1841786652803421,-1.5487366914749146,0.2897162139415741,-1.7105615139007568,-0.14639286696910858,-0.04980489984154701,0.18546178936958313,-1.5465993881225586,0.2910524904727936,-1.7116585969924927,-0.14694160223007202,-0.04998674988746643,0.0482504740357399,0.13732939958572388,0.049857135862112045,-0.05639076232910156,-0.007353797554969788,-0.002035887911915779,0.35875,-0.35604,0.45148568405566597,0.11799216326249126,0.25800901000400067,1.0559052903748747,-2.4844192391964786,False
138,0,0.18546178936958313,-1.5465993881225586,0.2910524904727936,-1.7116585969924927,-0.14694160223007202,-0.04998674988746643,0.18715548515319824,-1.5472036600112915,0.2947714030742645,-1.713377594947815,-0.14906273782253265,-0.050492703914642334,0.04833994805812836,0.1375121772289276,0.04988429322838783,-0.056382231414318085,-0.007221385836601257,-0.0020524077117443085,0.35875,-0.35604,0.45148568405566597,0.11878232298044236,0.2584091939810693,1.055450048543321,-2.4941742234485105,False
139,0,0.18715548515319824,-1.5472036600112915,0.2947714030742645,-1.713377594947815,-0.14906273782253265,-0.050492703914642334,0.18927466869354248,-1.5461139678955078,0.2987448275089264,-1.7155671119689941,-0.15102532505989075,-0.051011573523283005,0.04814748093485832,0.13777334988117218,0.05018780007958412,-0.0566563680768013,-0.0071767643094062805,-0.0020966380834579468,0.35875,-0.35604,0.45148568405566597,0.12116778013315689,0.2590860193094189,1.0547890544879488,-2.5035562797559865,False
140,0,0.18927466869354248,-1.5461139678955078,0.2987448275089264,-1.7155671119689941,-0.15102532505989075,-0.051011573523283005,0.18941310048103333,-1.5454655885696411,0.29821133613586426,-1.715427041053772,-0.15084239840507507,-0.05097433179616928,0.04806673526763916,0.13812124729156494,0.05046594515442848,-0.05687028914690018,-0.007056564092636108,-0.002146095037460327,0.35875,-0.35604,0.45148568405566597,0.12116778013315689,0.2590860193094189,1.0547890544879488,-2.5135562797559867,False
141,0,0.18941310048103333,-1.5454655885696411,0.29821133613586426,-1.715427041053772,-0.15084239840507507,-0.05097433179616928,0.1910828799009323,-1.546067476272583,0.30105099081993103,-1.7166467905044556,-0.15280039608478546,-0.05146190896630287,0.04812268912792206,0.13810041546821594,0.05038655176758766,-0.05680549889802933,-0.007020309567451477,-0.00213833712041378,0.35875,-0.35604,0.45148568405566597,0.12116778013315689,0.2590860193094189,1.0547890544879488,-2.5235562797559865,False
142,0,0.1910828799009323,-1.546067476272583,0.30105099081993103,-1.7166467905044556,-0.15280039608478546,-0.05146190896630287,0.19226279854774475,-1.5455538034439087,0.3035268485546112,-1.7180023193359375,-0.15404365956783295,-0.051751844584941864,0.04794638976454735,0.13828164339065552,0.05059349164366722,-0.05702156573534012,-0.006967365741729736,-0.002170795574784279,0.35875,-0.35604,0.45148568405566597,0.12297649174785363,0.2600098605015442,1.0538602731958076,-2.5330870330746165,False
143,0,0.19226279854774475,-1.5455538034439087,0.3035268485546112,-1.7180023193359375,-0.15404365956783295,-0.051751844584941864,0.19409306347370148,-1.5440231561660767,0.3070725202560425,-1.7201341390609741,-0.1557803452014923,-0.0521271675825119,0.04788755252957344,0.13849517703056335,0.050775568932294846,-0.057164035737514496,-0.006901480257511139,-0.002200007438659668,0.35875,-0.35604,0.45148568405566597,0.12408335516481325,0.26042343942143514,1.0534293872721343,-2.5427903852693294,False
144,0,0.19409306347370148,-1.5440231561660767,0.3070725202560425,-1.7201341390609741,-0.1557803452014923,-0.0521271675825119,0.1952429711818695,-1.544084072113037,0.30853939056396484,-1.7207694053649902,-0.15700289607048035,-0.05244598165154457,0.047858696430921555,0.13883408904075623,0.051010143011808395,-0.05733403563499451,-0.0067669302225112915,-0.0022397246211767197,0.35875,-0.35604,0.45148568405566597,0.12543107933096392,0.26078338359845277,1.053066695953489,-2.5524413160794297,False
145,0,0.1952429711818695,-1.544084072113037,0.30853939056396484,-1.7207694053649902,-0.15700289607048035,-0.05244598165154457,0.19706061482429504,-1.5434658527374268,0.31118303537368774,-1.722149133682251,-0.15864072740077972,-0.05288620665669441,0.047772135585546494,0.1389288306236267,0.05109092965722084,-0.05743589252233505,-0.006711341440677643,-0.002255519852042198,0.35875,-0.35604,0.45148568405566597,0.12711086399958516,0.26159896324443316,1.0523148693276834,-2.562061333981986,False
146,0,0.19706061482429504,-1.5434658527374268,0.31118303537368774,-1.722149133682251,-0.15864072740077972,-0.05288620665669441,0.19816291332244873,-1.541930913925171,0.31341245770454407,-1.7236652374267578,-0.15940536558628082,-0.053045645356178284,0.04769125208258629,0.1391439139842987,0.05124889686703682,-0.05758298188447952,-0.006609782576560974,-0.002286849543452263,0.35875,-0.35604,0.45148568405566597,0.12911042833489636,0.2621860436587356,1.0517127605542724,-2.571545657289414,False
147,0,0.19816291332244873,-1.541930913925171,0.31341245770454407,-1.7236652374267578,-0.15940536558628082,-0.053045645356178284,0.19898469746112823,-1.5429075956344604,0.3150422275066376,-1.7241992950439453,-0.16066747903823853,-0.053352393209934235,0.04772555083036423,0.13938848674297333,0.05139513686299324,-0.05766119062900543,-0.006514206528663635,-0.0023132208734750748,0.35875,-0.35604,0.45148568405566597,0.1288592153289863,0.2622644207289814,1.0516110216213577,-2.58159624935183,False
148,0,0.19898469746112823,-1.5429075956344604,0.3150422275066376,-1.7241992950439453,-0.16066747903823853,-0.053352393209934235,0.20048891007900238,-1.5418564081192017,0.3166537880897522,-1.725148320198059,-0.16195560991764069,-0.053671710193157196,0.04757717251777649,0.13946419954299927,0.05153137072920799,-0.057815082371234894,-0.006510891020298004,-0.0023315846920013428,0.35875,-0.35604,0.45148568405566597,0.1296605743351735,0.26262804025397535,1.0512458483087344,-2.5913965251210898,False
149,0,0.20048891007900238,-1.5418564081192017,0.3166537880897522,-1.725148320198059,-0.16195560991764069,-0.053671710193157196,0.20169273018836975,-1.5430563688278198,0.3190982937812805,-1.7260230779647827,-0.1638491302728653,-0.05410254746675491,0.04755857586860657,0.1396128535270691,0.051581937819719315,-0.0578785166144371,-0.006392918527126312,-0.0023470744490623474,0.35875,-0.35604,0.45148568405566597,0.1296605743351735,0.26262804025397535,1.0512458483087344,-2.60139652512109,False
150,0,0.20169273018836975,-1.5430563688278198,0.3190982937812805,-1.7260230779647827,-0.1638491302728653,-0.05410254746675491,0.20400676131248474,-1.541571855545044,0.3236131966114044,-1.7285027503967285,-0.16612687706947327,-0.05473295971751213,0.04735603183507919,0.13973891735076904,0.051779959350824356,-0.05809961259365082,-0.006375402212142944,-0.002372974529862404,0.35875,-0.35604,0.45148568405566597,0.13272658346829408,0.26389084902344,1.0499718192594827,-2.6106347189141146,False
151,0,0.20400676131248474,-1.541571855545044,0.3236131966114044,-1.7285027503967285,-0.16612687706947327,-0.05473295971751213,0.2050369381904602,-1.5416277647018433,0.3249276876449585,-1.729076862335205,-0.1673157513141632,-0.05499893054366112,0.04728090390563011,0.14013969898223877,0.05209413543343544,-0.05833600461483002,-0.006231658160686493,-0.0024304240942001343,0.35875,-0.35604,0.45148568405566597,0.1330643657667478,0.2641341640159337,1.0497546081875226,-2.62057253257721,False
152,0,0.2050369381904602,-1.5416277647018433,0.3249276876449585,-1.729076862335205,-0.1673157513141632,-0.05499893054366112,0.20632703602313995,-1.5411282777786255,0.32759562134742737,-1.730506181716919,-0.16883285343647003,-0.05532532185316086,0.047200389206409454,0.14022399485111237,0.052161868661642075,-0.058429546654224396,-0.006175637245178223,-0.002442004159092903,0.35875,-0.35604,0.45148568405566597,0.1345878008807477,0.26456436186228977,1.049305356718208,-2.630185773975993,False
153,0,0.20632703602313995,-1.5411282777786255,0.32759562134742737,-1.730506181716919,-0.16883285343647003,-0.05532532185316086,0.20689645409584045,-1.539941668510437,0.3286835253238678,-1.7313371896743774,-0.16922087967395782,-0.05539701133966446,0.04712701216340065,0.14044827222824097,0.05235167220234871,-0.05858895182609558,-0.006097845733165741,-0.0024711396545171738,0.35875,-0.35604,0.45148568405566597,0.13437998494215433,0.2646264965774219,1.0492243944094488,-2.640227071402342,False
154,0,0.20689645409584045,-1.539941668510437,0.3286835253238678,-1.7313371896743774,-0.16922087967395782,-0.05539701133966446,0.20800791680812836,-1.5412640571594238,0.3308228850364685,-1.732032060623169,-0.17100173234939575,-0.055792760103940964,0.04717402905225754,0.1405848264694214,0.052409905940294266,-0.0586099699139595,-0.006029658019542694,-0.002483101561665535,0.35875,-0.35604,0.45148568405566597,0.13437998494215433,0.2646264965774219,1.0492243944094488,-2.6502270714023424,False
155,0,0.20800791680812836,-1.5412640571594238,0.3308228850364685,-1.732032060623169,-0.17100173234939575,-0.055792760103940964,0.20971068739891052,-1.539520025253296,0.3338727355003357,-1.733934760093689,-0.1725536435842514,-0.056138765066862106,0.04697657376527786,0.14068318903446198,0.05257916823029518,-0.058818019926548004,-0.0060185715556144714,-0.002507217228412628,0.35875,-0.35604,0.45148568405566597,0.1364666391022977,0.2655431592200458,1.0482625332046502,-2.659697816627359,False
156,0,0.20971068739891052,-1.539520025253296,0.3338727355003357,-1.733934760093689,-0.1725536435842514,-0.056138765066862106,0.2099744975566864,-1.5389277935028076,0.3333069980144501,-1.733781337738037,-0.17241086065769196,-0.05610032007098198,0.047011345624923706,0.14100337028503418,0.052735958248376846,-0.05896327644586563,-0.0058756545186042786,-0.002560017630457878,0.35875,-0.35604,0.45148568405566597,0.13794426243950764,0.2660185078865704,1.0478606113875144,-2.669392611774495,False
157,0,0.2099744975566864,-1.5389277935028076,0.3333069980144501,-1.733781337738037,-0.17241086065769196,-0.05610032007098198,0.21184206008911133,-1.5394383668899536,0.33686429262161255,-1.7353689670562744,-0.1748477965593338,-0.05663714185357094,0.047061800956726074,0.14097759127616882,0.052645232528448105,-0.058898039162158966,-0.005834333598613739,-0.002551611512899399,0.35875,-0.35604,0.45148568405566597,0.1388516045751991,0.2664372665722448,1.0474267345630406,-2.6791699946532317,False
158,0,0.21184206008911133,-1.5394383668899536,0.33686429262161255,-1.7353689670562744,-0.1748477965593338,-0.05663714185357094,0.21244265139102936,-1.5381805896759033,0.33782386779785156,-1.7360864877700806,-0.17527081072330475,-0.0567660853266716,0.04690079018473625,0.14123433828353882,0.05287700518965721,-0.05918125808238983,-0.005759112536907196,-0.0026104282587766647,0.35875,-0.35604,0.45148568405566597,0.13869788192411475,0.26650175281134025,1.0473369449491303,-2.6891929917485466,False
159,0,0.21244265139102936,-1.5381805896759033,0.33782386779785156,-1.7360864877700806,-0.17527081072330475,-0.0567660853266716,0.21416890621185303,-1.5379962921142578,0.3412511944770813,-1.7377922534942627,-0.17744815349578857,-0.05722856894135475,0.0469643771648407,0.14136219024658203,0.052907440811395645,-0.05919818580150604,-0.005685359239578247,-0.0026297718286514282,0.35875,-0.35604,0.45148568405566597,0.13869788192411475,0.26650175281134025,1.0473369449491303,-2.6991929917485464,False
160,0,0.21416890621185303,-1.5379962921142578,0.3412511944770813,-1.7377922534942627,-0.17744815349578857,-0.05722856894135475,0.21588674187660217,-1.5377503633499146,0.3445524573326111,-1.7393029928207397,-0.17955243587493896,-0.057836201041936874,0.04686476290225983,0.14164209365844727,0.053122710436582565,-0.0594421848654747,-0.00559137761592865,-0.0026861298829317093,0.35875,-0.35604,0.45148568405566597,0.14288746527207488,0.26800549197915463,1.0457615215272538,-2.708165454619453,False
161,0,0.21588674187660217,-1.5377503633499146,0.3445524573326111,-1.7393029928207397,-0.17955243587493896,-0.057836201041936874,0.21640434861183167,-1.536837100982666,0.3449871242046356,-1.7397336959838867,-0.17981721460819244,-0.057871799916028976,0.046770427376031876,0.1419023871421814,0.05333036556839943,-0.05967485159635544,-0.005506165325641632,-0.0027492791414260864,0.35875,-0.35604,0.45148568405566597,0.14345227753642423,0.26835521955749025,1.0454262737411424,-2.718049921801393,False
162,0,0.21640434861183167,-1.536837100982666,0.3449871242046356,-1.7397336959838867,-0.17981721460819244,-0.057871799916028976,0.21762706339359283,-1.536685824394226,0.34707143902778625,-1.7407488822937012,-0.1812295764684677,-0.058198414742946625,0.0468202605843544,0.14197507500648499,0.053317565470933914,-0.05966809391975403,-0.00544314831495285,-0.0027566105127334595,0.35875,-0.35604,0.45148568405566597,0.14423121024129612,0.2687493784150927,1.0450230815356982,-2.7278690968315624,False
163,0,0.21762706339359283,-1.536685824394226,0.34707143902778625,-1.7407488822937012,-0.1812295764684677,-0.058198414742946625,0.21815736591815948,-1.5372450351715088,0.34836265444755554,-1.74125337600708,-0.1821330189704895,-0.05837012827396393,0.04675769805908203,0.1421426236629486,0.053435515612363815,-0.05981515347957611,-0.005376122891902924,-0.0027925539761781693,0.35875,-0.35604,0.45148568405566597,0.14422565799121165,0.26883954014094863,1.0448969039786569,-2.737849553195969,False
164,0,0.21815736591815948,-1.5372450351715088,0.34836265444755554,-1.74125337600708,-0.1821330189704895,-0.05837012827396393,0.21979953348636627,-1.5368807315826416,0.3516083359718323,-1.7428946495056152,-0.18422125279903412,-0.05881217494606972,0.0466729961335659,0.14222165942192078,0.05353580787777901,-0.059934429824352264,-0.005368173122406006,-0.002811841666698456,0.35875,-0.35604,0.45148568405566597,0.14422565799121165,0.26883954014094863,1.0448969039786569,-2.7478495531959686,False
165,0,0.21979953348636627,-1.5368807315826416,0.3516083359718323,-1.7428946495056152,-0.18422125279903412,-0.05881217494606972,0.22147917747497559,-1.5359071493148804,0.3538380265235901,-1.7441508769989014,-0.18584254384040833,-0.05917872115969658,0.046591866761446,0.14249330759048462,0.05373286083340645,-0.06015919893980026,-0.00526939332485199,-0.0028653983026742935,0.35875,-0.35604,0.45148568405566597,0.147235219137268,0.2700013461940222,1.043745331718758,-2.7571768984585088,False
166,0,0.22147917747497559,-1.5359071493148804,0.3538380265235901,-1.7441508769989014,-0.18584254384040833,-0.05917872115969658,0.221944659948349,-1.5350971221923828,0.35432112216949463,-1.744567632675171,-0.18610525131225586,-0.059242792427539825,0.04657798260450363,0.14270316064357758,0.05381248518824577,-0.060284219682216644,-0.005143411457538605,-0.0029048826545476913,0.35875,-0.35604,0.45148568405566597,0.1477936565352148,0.2703447422732037,1.0433990924606076,-2.7670552661158205,False
167,0,0.221944659948349,-1.5350971221923828,0.35432112216949463,-1.744567632675171,-0.18610525131225586,-0.059242792427539825,0.22374728322029114,-1.5349980592727661,0.35750460624694824,-1.7460798025131226,-0.18846836686134338,-0.05973905324935913,0.04662042111158371,0.14277496933937073,0.05381200090050697,-0.06028510630130768,-0.005089744925498962,-0.0029144156724214554,0.35875,-0.35604,0.45148568405566597,0.14758536323079774,0.27053151619659865,1.0432040022129148,-2.777106563017324,False
168,0,0.22374728322029114,-1.5349980592727661,0.35750460624694824,-1.7460798025131226,-0.18846836686134338,-0.05973905324935913,0.2255728393793106,-1.534459114074707,0.36089834570884705,-1.7476454973220825,-0.19092874228954315,-0.06041594222187996,0.04651215672492981,0.1430240273475647,0.05398861691355705,-0.06052140146493912,-0.0049842968583106995,-0.0029667802155017853,0.35875,-0.35604,0.45148568405566597,0.1488983946359151,0.2709281162997687,1.042786263314015,-2.78679666863051,False
169,0,0.2255728393793106,-1.534459114074707,0.36089834570884705,-1.7476454973220825,-0.19092874228954315,-0.06041594222187996,0.22751058638095856,-1.5331016778945923,0.36514052748680115,-1.7500758171081543,-0.1931353062391281,-0.060862768441438675,0.046430423855781555,0.14329808950424194,0.05417788401246071,-0.060757704079151154,-0.004869230091571808,-0.0030318889766931534,0.35875,-0.35604,0.45148568405566597,0.15297596537981456,0.27257639208730655,1.0409845767315442,-2.795808163726959,False
170,0,0.22751058638095856,-1.5331016778945923,0.36514052748680115,-1.7500758171081543,-0.1931353062391281,-0.060862768441438675,0.2293885052204132,-1.5327335596084595,0.3687736690044403,-1.7516857385635376,-0.19589073956012726,-0.061606042087078094,0.04640476405620575,0.1437024474143982,0.05444406345486641,-0.06100685894489288,-0.004728525876998901,-0.0031013134866952896,0.35875,-0.35604,0.45148568405566597,0.15441154592387452,0.27309599035092613,1.040429471035255,-2.80547549497032,False
171,0,0.2293885052204132,-1.5327335596084595,0.3687736690044403,-1.7516857385635376,-0.19589073956012726,-0.061606042087078094,0.23082999885082245,-1.5326777696609497,0.3714663088321686,-1.7529438734054565,-0.1977698802947998,-0.06202637404203415,0.046300459653139114,0.14398536086082458,0.05465087667107582,-0.061272211372852325,-0.004612043499946594,-0.0031704548746347427,0.35875,-0.35604,0.45148568405566597,0.1553086306134202,0.27364318971936186,1.039853587925819,-2.8152750705116403,False
172,0,0.23082999885082245,-1.5326777696609497,0.3714663088321686,-1.7529438734054565,-0.1977698802947998,-0.06202637404203415,0.23125866055488586,-1.5317232608795166,0.3715251684188843,-1.7532403469085693,-0.19799117743968964,-0.06199277192354202,0.04620944336056709,0.14419478178024292,0.05481139197945595,-0.061471037566661835,-0.004533678293228149,-0.003215935081243515,0.35875,-0.35604,0.45148568405566597,0.15613207283425692,0.2740352841753622,1.039461983361466,-2.825105041600323,False
173,0,0.23125866055488586,-1.5317232608795166,0.3715251684188843,-1.7532403469085693,-0.19799117743968964,-0.06199277192354202,0.2327059954404831,-1.5330504179000854,0.3736814260482788,-1.75379478931427,-0.20044109225273132,-0.06254055351018906,0.04627151042222977,0.14424103498458862,0.054757650941610336,-0.06143903732299805,-0.004462718963623047,-0.003214241936802864,0.35875,-0.35604,0.45148568405566597,0.15613207283425692,0.2740352841753622,1.039461983361466,-2.8351050416003227,False
174,0,0.2327059954404831,-1.5330504179000854,0.3736814260482788,-1.75379478931427,-0.20044109225273132,-0.06254055351018906,0.2349780797958374,-1.5309841632843018,0.3783818483352661,-1.7564643621444702,-0.2031966745853424,-0.06318988651037216,0.04607188701629639,0.1443309783935547,0.05486804619431496,-0.06167210638523102,-0.004412539303302765,-0.0032505225390195847,0.35875,-0.35604,0.45148568405566597,0.15613207283425692,0.2740352841753622,1.039461983361466,-2.845105041600323,False
175,0,0.2349780797958374,-1.5309841632843018,0.3783818483352661,-1.7564643621444702,-0.2031966745853424,-0.06318988651037216,0.23583634197711945,-1.5312718152999878,0.3789655566215515,-1.7566897869110107,-0.20428839325904846,-0.06331434100866318,0.04607543349266052,0.14478814601898193,0.05513441935181618,-0.06193520128726959,-0.0042251646518707275,-0.0033358167856931686,0.35875,-0.35604,0.45148568405566597,0.15918104163617078,0.27549633067245266,1.0379375736020724,-2.854442145081388,False
176,0,0.23583634197711945,-1.5312718152999878,0.3789655566215515,-1.7566897869110107,-0.20428839325904846,-0.06331434100866318,0.236713245511055,-1.5307903289794922,0.38089004158973694,-1.7578240633010864,-0.20528151094913483,-0.06342866271734238,0.046005576848983765,0.14480862021446228,0.0551428385078907,-0.062001973390579224,-0.004197746515274048,-0.0033564865589141846,0.35875,-0.35604,0.45148568405566597,0.15983293968140325,0.2759871723182025,1.0374108631423111,-2.8642968394076105,False
177,0,0.236713245511055,-1.5307903289794922,0.38089004158973694,-1.7578240633010864,-0.20528151094913483,-0.06342866271734238,0.23911899328231812,-1.529770016670227,0.38518664240837097,-1.7599613666534424,-0.20835362374782562,-0.06418074667453766,0.04596688598394394,0.14497771859169006,0.05532471463084221,-0.062122687697410583,-0.004203811287879944,-0.003419056534767151,0.35875,-0.35604,0.45148568405566597,0.16142936319359857,0.27654989653963136,1.0367863458805395,-2.8739279746995567,False
178,0,0.23911899328231812,-1.529770016670227,0.38518664240837097,-1.7599613666534424,-0.20835362374782562,-0.06418074667453766,0.23989656567573547,-1.5297138690948486,0.3865315020084381,-1.7607076168060303,-0.20928582549095154,-0.06426043808460236,0.04584750533103943,0.1453128159046173,0.05569394305348396,-0.062414176762104034,-0.004203014075756073,-0.0035839881747961044,0.35875,-0.35604,0.45148568405566597,0.16142936319359857,0.27654989653963136,1.0367863458805395,-2.8839279746995565,False
179,0,0.23989656567573547,-1.5297138690948486,0.3865315020084381,-1.7607076168060303,-0.20928582549095154,-0.06426043808460236,0.24011582136154175,-1.528933048248291,0.38608473539352417,-1.7607712745666504,-0.2089742124080658,-0.06411230564117432,0.04579240083694458,0.1454174816608429,0.055809322744607925,-0.06251318007707596,-0.004201963543891907,-0.0036256033927202225,0.35875,-0.35604,0.45148568405566597,0.16283235520063652,0.27741607059595874,1.035978108464078,-2.8937014148135667,False
180,0,0.24011582136154175,-1.528933048248291,0.38608473539352417,-1.7607712745666504,-0.2089742124080658,-0.06411230564117432,0.24222108721733093,-1.5291136503219604,0.3902130424976349,-1.7626760005950928,-0.21232399344444275,-0.06470664590597153,0.045861802995204926,0.14542099833488464,0.05573335662484169,-0.06244368106126785,-0.00415656715631485,-0.0036143139004707336,0.35875,-0.35604,0.45148568405566597,0.16404660561583817,0.2781307956055185,1.035169201335908,-2.903411033276682,False
181,0,0.24222108721733093,-1.5291136503219604,0.3902130424976349,-1.7626760005950928,-0.21232399344444275,-0.06470664590597153,0.24404878914356232,-1.5278836488723755,0.39383214712142944,-1.7646336555480957,-0.21442650258541107,-0.06522423028945923,0.04566771537065506,0.14570657908916473,0.056086499243974686,-0.06278138607740402,-0.004174754023551941,-0.0037627220153808594,0.35875,-0.35604,0.45148568405566597,0.16610481488821688,0.2788317695067488,1.0344315030701634,-2.912976176631745,False
182,0,0.24404878914356232,-1.5278836488723755,0.39383214712142944,-1.7646336555480957,-0.21442650258541107,-0.06522423028945923,0.24496395885944366,-1.5278962850570679,0.3952144980430603,-1.765362024307251,-0.21565893292427063,-0.06534106284379959,0.04562583938241005,0.14602206647396088,0.05639355257153511,-0.06300575286149979,-0.00418698787689209,-0.003921801224350929,0.35875,-0.35604,0.45148568405566597,0.16610481488821688,0.2788317695067488,1.0344315030701634,-2.922976176631745,False
183,0,0.24496395885944366,-1.5278962850570679,0.3952144980430603,-1.765362024307251,-0.21565893292427063,-0.06534106284379959,0.24591290950775146,-1.5260071754455566,0.39613232016563416,-1.7663072347640991,-0.21608413755893707,-0.06539379805326462,0.04556267336010933,0.14612439274787903,0.0564902164041996,-0.06311769038438797,-0.004177391529083252,-0.003972964361310005,0.35875,-0.35604,0.45148568405566597,0.16825332645924018,0.2799663082240858,1.0332877791854782,-2.9325721589562987,False
184,0,0.24591290950775146,-1.5260071754455566,0.39613232016563416,-1.7663072347640991,-0.21608413755893707,-0.06539379805326462,0.24708381295204163,-1.5273364782333374,0.3986447751522064,-1.7672158479690552,-0.21840202808380127,-0.0656924769282341,0.04566587135195732,0.14627408981323242,0.056517478078603745,-0.06310738623142242,-0.004117242991924286,-0.004028704017400742,0.35875,-0.35604,0.45148568405566597,0.16803344981466534,0.2801390602360041,1.0330472536956734,-2.942585624304967,False
185,0,0.24708381295204163,-1.5273364782333374,0.3986447751522064,-1.7672158479690552,-0.21840202808380127,-0.0656924769282341,0.24813862144947052,-1.5250543355941772,0.3996119797229767,-1.7683051824569702,-0.21881286799907684,-0.06573516875505447,0.04545770585536957,0.14639991521835327,0.0567394457757473,-0.06336779147386551,-0.0041563063859939575,-0.004109781235456467,0.35875,-0.35604,0.45148568405566597,0.1700239508017331,0.2808861994371514,1.032349298684374,-2.9522369915041917,False
186,0,0.24813862144947052,-1.5250543355941772,0.3996119797229767,-1.7683051824569702,-0.21881286799907684,-0.06573516875505447,0.24953459203243256,-1.5252785682678223,0.40157896280288696,-1.7690907716751099,-0.22095295786857605,-0.06614448130130768,0.04558958485722542,0.146572083234787,0.05676080659031868,-0.06334447860717773,-0.0040829479694366455,-0.004171581938862801,0.35875,-0.35604,0.45148568405566597,0.1706093584308319,0.28124832730170624,1.0318575818963933,-2.962049881228846,False
187,0,0.24953459203243256,-1.5252785682678223,0.40157896280288696,-1.7690907716751099,-0.22095295786857605,-0.06614448130130768,0.2517774701118469,-1.5249409675598145,0.40639352798461914,-1.7713319063186646,-0.22466950118541718,-0.06691852957010269,0.04547359421849251,0.14668989181518555,0.05688893422484398,-0.06352221965789795,-0.004072889685630798,-0.00425572507083416,0.35875,-0.35604,0.45148568405566597,0.1706093584308319,0.28124832730170624,1.0318575818963933,-2.9720498812288456,False
188,0,0.2517774701118469,-1.5249409675598145,0.40639352798461914,-1.7713319063186646,-0.22466950118541718,-0.06691852957010269,0.25197142362594604,-1.5238735675811768,0.40542587637901306,-1.7712479829788208,-0.22415213286876678,-0.0666915625333786,0.045310236513614655,0.14704737067222595,0.057289425283670425,-0.06389763206243515,-0.0041002556681632996,-0.00445730984210968,0.35875,-0.35604,0.45148568405566597,0.17269893233284594,0.2823813043082633,1.0308215587817016,-2.981744906056684,False
189,0,0.25197142362594604,-1.5238735675811768,0.40542587637901306,-1.7712479829788208,-0.22415213286876678,-0.0666915625333786,0.25404709577560425,-1.52423095703125,0.40975114703178406,-1.773193597793579,-0.2277742326259613,-0.06728576123714447,0.04541485756635666,0.1470242440700531,0.057146523147821426,-0.06377821415662766,-0.004027441143989563,-0.004427822306752205,0.35875,-0.35604,0.45148568405566597,0.17384678531589076,0.28310599402005565,1.0299635898687982,-2.9914651790710294,False
190,0,0.25404709577560425,-1.52423095703125,0.40975114703178406,-1.773193597793579,-0.2277742326259613,-0.06728576123714447,0.2549753785133362,-1.5240415334701538,0.4108532965183258,-1.7738070487976074,-0.22881214320659637,-0.06738608330488205,0.045211706310510635,0.1473211944103241,0.05750197544693947,-0.06414617598056793,-0.004052408039569855,-0.004595465958118439,0.35875,-0.35604,0.45148568405566597,0.17409546776701978,0.2832457096010185,1.0299175317511717,-3.00148413686688,False
191,0,0.2549753785133362,-1.5240415334701538,0.4108532965183258,-1.7738070487976074,-0.22881214320659637,-0.06738608330488205,0.25652408599853516,-1.5239527225494385,0.4135034680366516,-1.7750091552734375,-0.23115167021751404,-0.06786103546619415,0.04516982287168503,0.14740729331970215,0.05756548419594765,-0.06422700732946396,-0.004031576216220856,-0.004639104008674622,0.35875,-0.35604,0.45148568405566597,0.17426144603310983,0.28341967488235364,1.0296791970125805,-3.0114192152913284,False
192,0,0.25652408599853516,-1.5239527225494385,0.4135034680366516,-1.7750091552734375,-0.23115167021751404,-0.06786103546619415,0.2578313648700714,-1.5232709646224976,0.41676050424575806,-1.776612401008606,-0.23323151469230652,-0.06837581843137741,0.04506094008684158,0.14759394526481628,0.057764749974012375,-0.06444115191698074,-0.00403246283531189,-0.004752319306135178,0.35875,-0.35604,0.45148568405566597,0.17426144603310983,0.28341967488235364,1.0296791970125805,-3.021419215291328,False
193,0,0.2578313648700714,-1.5232709646224976,0.41676050424575806,-1.776612401008606,-0.23323151469230652,-0.06837581843137741,0.2592652440071106,-1.5230058431625366,0.41854363679885864,-1.777424931526184,-0.2353290617465973,-0.06875050812959671,0.044996052980422974,0.14785847067832947,0.05805381014943123,-0.06466928124427795,-0.004060141742229462,-0.004892956465482712,0.35875,-0.35604,0.45148568405566597,0.17750625882620993,0.28519371508700836,1.027729676568056,-3.030758063692919,False
194,0,0.2592652440071106,-1.5230058431625366,0.41854363679885864,-1.777424931526184,-0.2353290617465973,-0.06875050812959671,0.2602616250514984,-1.5209722518920898,0.4198552370071411,-1.7786564826965332,-0.23615439236164093,-0.06882313638925552,0.044920891523361206,0.14798223972320557,0.058145228773355484,-0.06481588631868362,-0.004024937748908997,-0.004975421354174614,0.35875,-0.35604,0.45148568405566597,0.1794517548849074,0.28594435554109054,1.0269732109990264,-3.040412097991077,False
195,0,0.2602616250514984,-1.5209722518920898,0.4198552370071411,-1.7786564826965332,-0.23615439236164093,-0.06882313638925552,0.26095879077911377,-1.5216113328933716,0.4215869903564453,-1.7793067693710327,-0.2376646250486374,-0.06904260069131851,0.045026663690805435,0.14817467331886292,0.05819971486926079,-0.06483670324087143,-0.003959208726882935,-0.005047384649515152,0.35875,-0.35604,0.45148568405566597,0.17954348130129952,0.2861105960123012,1.0267331905586035,-3.0503578107318727,False
196,0,0.26095879077911377,-1.5216113328933716,0.4215869903564453,-1.7793067693710327,-0.2376646250486374,-0.06904260069131851,0.2615604102611542,-1.5220584869384766,0.4230814278125763,-1.7798702716827393,-0.23884139955043793,-0.06925053894519806,0.04490746930241585,0.14827191829681396,0.05835460498929024,-0.06500555574893951,-0.003984533250331879,-0.005107026547193527,0.35875,-0.35604,0.45148568405566597,0.17969706137177327,0.2862771248705245,1.026502934335227,-3.0602976330759826,False
197,0,0.2615604102611542,-1.5220584869384766,0.4230814278125763,-1.7798702716827393,-0.23884139955043793,-0.06925053894519806,0.2622120976448059,-1.5228086709976196,0.4236399829387665,-1.779871940612793,-0.2399575114250183,-0.06946885585784912,0.04481359198689461,0.1483590304851532,0.058493051677942276,-0.06514390558004379,-0.004009954631328583,-0.005160568282008171,0.35875,-0.35604,0.45148568405566597,0.17969706137177327,0.2862771248705245,1.026502934335227,-3.070297633075983,False
198,0,0.2622120976448059,-1.5228086709976196,0.4236399829387665,-1.779871940612793,-0.2399575114250183,-0.06946885585784912,0.2631705105304718,-1.5234663486480713,0.4253551959991455,-1.7803360223770142,-0.2416527271270752,-0.06991967558860779,0.04471300542354584,0.14835220575332642,0.05851507559418678,-0.06523045897483826,-0.004007458686828613,-0.005182450637221336,0.35875,-0.35604,0.45148568405566597,0.17969706137177327,0.2862771248705245,1.026502934335227,-3.0802976330759826,False
199,0,0.2631705105304718,-1.5234663486480713,0.4253551959991455,-1.7803360223770142,-0.2416527271270752,-0.06991967558860779,0.2639564275741577,-1.5223937034606934,0.42724981904029846,-1.7816210985183716,-0.24271441996097565,-0.06997960060834885,0.044581338763237,0.14842933416366577,0.058658625930547714,-0.06540130078792572,-0.004033870995044708,-0.005254579707980156,0.35875,-0.35604,0.45148568405566597,0.18071885743357466,0.28707324904121934,1.0256244485725448,-3.0900982788446356,False
200,0,0.2639564275741577,-1.5223937034606934,0.42724981904029846,-1.7816210985183716,-0.24271441996097565,-0.06997960060834885,0.264560341835022,-1.5217434167861938,0.4276149868965149,-1.7819530963897705,-0.24317951500415802,-0.07008148729801178,0.04460064321756363,0.1486286222934723,0.05880871042609215,-0.06550415605306625,-0.004017792642116547,-0.005331404507160187,0.35875,-0.35604,0.45148568405566597,0.18071885743357466,0.28707324904121934,1.0256244485725448,-3.100098278844636,False
