LaRojaPlamya162/UR5-Gazebo/log.csv
timestep,episode,s1,s2,s3,s4,s5,s6,next_s1,next_s2,next_s3,next_s4,next_s5,next_s6,a1,a2,a3,a4,a5,a6,ball_pos_x,ball_pos_y,ball_pos_z,wrist_3_x,wrist_3_y,wrist_3_z,reward,done
0,0,0.06589984893798828,-1.587063193321228,0.048893507570028305,-1.567323923110962,-0.06876520067453384,-0.03448463976383209,0.06589984893798828,-1.587063193321228,0.048893507570028305,-1.567323923110962,-0.06876520067453384,-0.03448463976383209,0.059220246970653534,0.10727282613515854,0.03881074860692024,-0.04000700265169144,-0.0063109248876571655,0.0010051988065242767,0.516793,0.311847,0.45148568405566597,0.0009612925148727381,0.23323416949301878,1.0788230941726287,-1.2567396035873908,False
1,0,0.06589984893798828,-1.587063193321228,0.048893507570028305,-1.567323923110962,-0.06876520067453384,-0.03448463976383209,0.06589984893798828,-1.587063193321228,0.048893507570028305,-1.567323923110962,-0.06876520067453384,-0.03448463976383209,0.059220246970653534,0.10727282613515854,0.03881074860692024,-0.04000700265169144,-0.0063109248876571655,0.0010051988065242767,0.516793,0.311847,0.45148568405566597,0.0009612925148727944,0.23323416949301876,1.0788230941726284,-1.2667396035873908,False
2,0,0.06589984893798828,-1.587063193321228,0.048893507570028305,-1.567323923110962,-0.06876520067453384,-0.03448463976383209,0.06589984893798828,-1.587063193321228,0.048893507570028305,-1.567323923110962,-0.06876520067453384,-0.03448463976383209,0.059220246970653534,0.10727282613515854,0.03881074860692024,-0.04000700265169144,-0.0063109248876571655,0.0010051988065242767,0.516793,0.311847,0.45148568405566597,0.0009612925148727944,0.23323416949301876,1.0788230941726284,-1.2767396035873908,False
3,0,0.06589984893798828,-1.587063193321228,0.048893507570028305,-1.567323923110962,-0.06876520067453384,-0.03448463976383209,0.06589984893798828,-1.587063193321228,0.048893507570028305,-1.567323923110962,-0.06876520067453384,-0.03448463976383209,0.059220246970653534,0.10727282613515854,0.03881074860692024,-0.04000700265169144,-0.0063109248876571655,0.0010051988065242767,0.516793,0.311847,0.45148568405566597,0.0009612925148727381,0.23323416949301878,1.0788230941726287,-1.2867396035873908,False
4,0,0.06589984893798828,-1.587063193321228,0.048893507570028305,-1.567323923110962,-0.06876520067453384,-0.03448463976383209,0.06589984893798828,-1.587063193321228,0.048893507570028305,-1.567323923110962,-0.06876520067453384,-0.03448463976383209,0.059220246970653534,0.10727282613515854,0.03881074860692024,-0.04000700265169144,-0.0063109248876571655,0.0010051988065242767,0.516793,0.311847,0.45148568405566597,0.0009612925148727381,0.23323416949301878,1.0788230941726287,-1.2967396035873908,False
5,0,0.06589984893798828,-1.587063193321228,0.048893507570028305,-1.567323923110962,-0.06876520067453384,-0.03448463976383209,0.06589984893798828,-1.587063193321228,0.048893507570028305,-1.567323923110962,-0.06876520067453384,-0.03448463976383209,0.059220246970653534,0.10727282613515854,0.03881074860692024,-0.04000700265169144,-0.0063109248876571655,0.0010051988065242767,0.516793,0.311847,0.45148568405566597,0.0009612925148731301,0.23323416949301876,1.0788230941726284,-1.3067396035873904,False
6,0,0.06589984893798828,-1.587063193321228,0.048893507570028305,-1.567323923110962,-0.06876520067453384,-0.03448463976383209,0.06589984893798828,-1.587063193321228,0.048893507570028305,-1.567323923110962,-0.06876520067453384,-0.03448463976383209,0.059220246970653534,0.10727282613515854,0.03881074860692024,-0.04000700265169144,-0.0063109248876571655,0.0010051988065242767,0.516793,0.311847,0.45148568405566597,0.0009612925148718161,0.2332341694930187,1.0788230941726284,-1.3167396035873913,False
7,0,0.06589984893798828,-1.587063193321228,0.048893507570028305,-1.567323923110962,-0.06876520067453384,-0.03448463976383209,0.06589984893798828,-1.587063193321228,0.048893507570028305,-1.567323923110962,-0.06876520067453384,-0.03448463976383209,0.059220246970653534,0.10727282613515854,0.03881074860692024,-0.04000700265169144,-0.0063109248876571655,0.0010051988065242767,0.516793,0.311847,0.45148568405566597,0.0009612925148715932,0.2332341694930187,1.0788230941726284,-1.3267396035873915,False
8,0,0.06589984893798828,-1.587063193321228,0.048893507570028305,-1.567323923110962,-0.06876520067453384,-0.03448463976383209,0.06589900702238083,-1.5870651006698608,0.04889770224690437,-1.567322015762329,-0.06876073777675629,-0.03448903188109398,0.059220246970653534,0.10727282613515854,0.03881074860692024,-0.04000700265169144,-0.0063109248876571655,0.0010051988065242767,0.516793,0.311847,0.45148568405566597,0.0009612925148715932,0.2332341694930187,1.0788230941726284,-1.3367396035873915,False
9,0,0.06589900702238083,-1.5870651006698608,0.04889770224690437,-1.567322015762329,-0.06876073777675629,-0.03448903188109398,0.06589732319116592,-1.587068796157837,0.04890609160065651,-1.567318320274353,-0.06875181943178177,-0.03449781611561775,0.059219636023044586,0.10727310925722122,0.03881140798330307,-0.04000741243362427,-0.006311625242233276,0.0010044127702713013,0.516793,0.311847,0.45148568405566597,0.0009619190943690355,0.2332342444845862,1.0788229521159156,-1.346739091044131,False
10,0,0.06589732319116592,-1.587068796157837,0.04890609160065651,-1.567318320274353,-0.06875181943178177,-0.03449781611561775,0.06654196232557297,-1.586004376411438,0.04931827262043953,-1.5677047967910767,-0.06887105107307434,-0.03451871499419212,0.05921841412782669,0.10727371275424957,0.038812730461359024,-0.04000822454690933,-0.0063129812479019165,0.0010028816759586334,0.516793,0.311847,0.45148568405566597,0.0019611035174864604,0.23331039221533464,1.078799161495989,-1.356082164897425,False
11,0,0.06654196232557297,-1.586004376411438,0.04931827262043953,-1.5677047967910767,-0.06887105107307434,-0.03451871499419212,0.06708642095327377,-1.585290551185608,0.04984349012374878,-1.568115234375,-0.06899285316467285,-0.03453340753912926,0.059280190616846085,0.10735862702131271,0.03877449035644531,-0.040020592510700226,-0.00621698796749115,0.0010407473891973495,0.516793,0.311847,0.45148568405566597,0.0027151617893829876,0.2333700136242637,1.0787771901056031,-1.3655835655054243,False
12,0,0.06708642095327377,-1.585290551185608,0.04984349012374878,-1.568115234375,-0.06899285316467285,-0.03453340753912926,0.06772996485233307,-1.584527850151062,0.05067675560712814,-1.5687240362167358,-0.06918010860681534,-0.03454847261309624,0.05930759012699127,0.10745390504598618,0.03875831887125969,-0.04005155712366104,-0.006143830716609955,0.0010578874498605728,0.516793,0.311847,0.45148568405566597,0.0026891664341078857,0.23336870391561307,1.078775555368245,-1.3755988341617922,False
13,0,0.06772996485233307,-1.584527850151062,0.05067675560712814,-1.5687240362167358,-0.06918010860681534,-0.03454847261309624,0.0679195374250412,-1.5849320888519287,0.051312826573848724,-1.5690008401870728,-0.06936679780483246,-0.03461061045527458,0.059319548308849335,0.10759682953357697,0.03875384107232094,-0.04011131078004837,-0.006058678030967712,0.00106760673224926,0.516793,0.311847,0.45148568405566597,0.0036289153291811224,0.23344259298128786,1.0787478550653096,-1.3849777854656464,False
14,0,0.0679195374250412,-1.5849320888519287,0.051312826573848724,-1.5690008401870728,-0.06936679780483246,-0.03461061045527458,0.06863649934530258,-1.5838793516159058,0.05208687111735344,-1.5696290731430054,-0.06954298168420792,-0.03461012244224548,0.059242408722639084,0.10767734050750732,0.03879449889063835,-0.04018772393465042,-0.006067425012588501,0.0010265950113534927,0.516793,0.311847,0.45148568405566597,0.0036289153291811224,0.23344259298128786,1.0787478550653096,-1.3949777854656467,False
15,0,0.06863649934530258,-1.5838793516159058,0.05208687111735344,-1.5696290731430054,-0.06954298168420792,-0.03461012244224548,0.06942543387413025,-1.5836701393127441,0.0538620688021183,-1.5707305669784546,-0.06987769901752472,-0.03463393822312355,0.059283364564180374,0.10781942307949066,0.038773778825998306,-0.0402330607175827,-0.005961723625659943,0.001052970066666603,0.516793,0.311847,0.45148568405566597,0.005552562619047883,0.23360227153824226,1.078671806900995,-1.403692705909497,False
16,0,0.06942543387413025,-1.5836701393127441,0.0538620688021183,-1.5707305669784546,-0.06987769901752472,-0.03463393822312355,0.07050421833992004,-1.5818225145339966,0.05502478778362274,-1.5717685222625732,-0.07003775238990784,-0.03457152470946312,0.05918911471962929,0.1080918237566948,0.03883650526404381,-0.04039958864450455,-0.005888603627681732,0.0010048653930425644,0.516793,0.311847,0.45148568405566597,0.007367911572462912,0.2337555960921971,1.0786025243713924,-1.4124839904710103,False
17,0,0.07050421833992004,-1.5818225145339966,0.05502478778362274,-1.5717685222625732,-0.07003775238990784,-0.03457152470946312,0.0711037889122963,-1.5818028450012207,0.056550364941358566,-1.5727224349975586,-0.07024571299552917,-0.03455403074622154,0.05927659943699837,0.10831869393587112,0.03879908099770546,-0.040455833077430725,-0.0057113394141197205,0.001057373359799385,0.516793,0.311847,0.45148568405566597,0.007919215005540185,0.2338077646584559,1.078567921435303,-1.4221063484744458,False
18,0,0.0711037889122963,-1.5818028450012207,0.056550364941358566,-1.5727224349975586,-0.07024571299552917,-0.03455403074622154,0.07232669740915298,-1.580217957496643,0.058688387274742126,-1.574364423751831,-0.07047557830810547,-0.03444983810186386,0.05918427184224129,0.10855362564325333,0.038863569498062134,-0.04060048609972,-0.005659528076648712,0.001008354127407074,0.516793,0.311847,0.45148568405566597,0.007919215005540185,0.2338077646584559,1.078567921435303,-1.4321063484744458,False
19,0,0.07232669740915298,-1.580217957496643,0.058688387274742126,-1.574364423751831,-0.07047557830810547,-0.03444983810186386,0.07254495471715927,-1.581041693687439,0.05990540608763695,-1.5749619007110596,-0.07068461179733276,-0.03448397293686867,0.059190865606069565,0.10892777889966965,0.038887884467840195,-0.04075505584478378,-0.005474813282489777,0.0010157469660043716,0.516793,0.311847,0.45148568405566597,0.007919215005540185,0.2338077646584559,1.078567921435303,-1.4421063484744459,False
20,0,0.07254495471715927,-1.581041693687439,0.05990540608763695,-1.5749619007110596,-0.07068461179733276,-0.03448397293686867,0.07340992987155914,-1.5803333520889282,0.061780307441949844,-1.5762654542922974,-0.07097575068473816,-0.03443596139550209,0.05904361233115196,0.1090904176235199,0.03897691145539284,-0.040896929800510406,-0.0054967403411865234,0.0009353179484605789,0.516793,0.311847,0.45148568405566597,0.009546380340045582,0.23396168322993882,1.0784637701709943,-1.4509913734251454,False
21,0,0.07340992987155914,-1.5803333520889282,0.061780307441949844,-1.5762654542922974,-0.07097575068473816,-0.03443596139550209,0.07464689761400223,-1.5791115760803223,0.06398049741983414,-1.5778411626815796,-0.07130695134401321,-0.034392349421978,0.058988627046346664,0.10939674824476242,0.03902659937739372,-0.04105573147535324,-0.00538499653339386,0.0009099114686250687,0.516793,0.311847,0.45148568405566597,0.012785562028195823,0.23425275048993177,1.0783151251406626,-1.4588241026025646,False
22,0,0.07464689761400223,-1.5791115760803223,0.06398049741983414,-1.5778411626815796,-0.07130695134401321,-0.034392349421978,0.0749339684844017,-1.5800141096115112,0.06540562212467194,-1.5785441398620605,-0.07158342748880386,-0.034439001232385635,0.058957796543836594,0.10976545512676239,0.03906378895044327,-0.04123052954673767,-0.005222588777542114,0.0008977539837360382,0.516793,0.311847,0.45148568405566597,0.01254957520150069,0.2342417720281559,1.0783011258952069,-1.4689615113693455,False
23,0,0.0749339684844017,-1.5800141096115112,0.06540562212467194,-1.5785441398620605,-0.07158342748880386,-0.034439001232385635,0.07644269615411758,-1.5781900882720947,0.06796838343143463,-1.5804702043533325,-0.07195424288511276,-0.03435809910297394,0.05878998339176178,0.10995613783597946,0.03916366398334503,-0.041395947337150574,-0.005243092775344849,0.0008072070777416229,0.516793,0.311847,0.45148568405566597,0.01254957520150069,0.2342417720281559,1.0783011258952069,-1.4789615113693455,False
24,0,0.07644269615411758,-1.5781900882720947,0.06796838343143463,-1.5804702043533325,-0.07195424288511276,-0.03435809910297394,0.07693194597959518,-1.5799015760421753,0.07059742510318756,-1.5817723274230957,-0.07243029028177261,-0.03443120792508125,0.05878949165344238,0.11039800941944122,0.039190977811813354,-0.04158710688352585,-0.005025506019592285,0.0008132662624120712,0.516793,0.311847,0.45148568405566597,0.01254957520150069,0.2342417720281559,1.0783011258952069,-1.4889615113693455,False
25,0,0.07693194597959518,-1.5799015760421753,0.07059742510318756,-1.5817723274230957,-0.07243029028177261,-0.03443120792508125,0.0776233822107315,-1.5788761377334595,0.07110226154327393,-1.58220374584198,-0.07259310781955719,-0.03447001427412033,0.05848248302936554,0.11074402928352356,0.039379168301820755,-0.04188922792673111,-0.0050718411803245544,0.000649062916636467,0.516793,0.311847,0.45148568405566597,0.015483928425682011,0.23454464621229767,1.078102036475798,-1.4969501476330578,False
26,0,0.0776233822107315,-1.5788761377334595,0.07110226154327393,-1.58220374584198,-0.07259310781955719,-0.03447001427412033,0.077834852039814,-1.5793474912643433,0.0726122036576271,-1.583125352859497,-0.07276125997304916,-0.03440319001674652,0.05853879824280739,0.11084003001451492,0.039344530552625656,-0.04191014915704727,-0.004976525902748108,0.0006832797080278397,0.516793,0.311847,0.45148568405566597,0.01566824735760284,0.23456493957072877,1.0780721928945594,-1.5068104004794085,False
27,0,0.077834852039814,-1.5793474912643433,0.0726122036576271,-1.583125352859497,-0.07276125997304916,-0.03440319001674652,0.0786215141415596,-1.5793555974960327,0.07436267286539078,-1.584160327911377,-0.07311219722032547,-0.03445715084671974,0.05843787267804146,0.11102935671806335,0.03943901136517525,-0.042048610746860504,-0.004991449415683746,0.0006427653133869171,0.516793,0.311847,0.45148568405566597,0.01626494227207493,0.2346361854647594,1.078017209492741,-1.5163899740546731,False
28,0,0.0786215141415596,-1.5793555974960327,0.07436267286539078,-1.584160327911377,-0.07311219722032547,-0.03445715084671974,0.07881122082471848,-1.5799589157104492,0.0752076581120491,-1.5845496654510498,-0.07330802828073502,-0.0345049649477005,0.05835868790745735,0.11125438660383224,0.0395062081515789,-0.04220219701528549,-0.004957742989063263,0.0006155092269182205,0.516793,0.311847,0.45148568405566597,0.016063953865587205,0.2346254779180197,1.0780095213887826,-1.5265099099199761,False
29,0,0.07881122082471848,-1.5799589157104492,0.0752076581120491,-1.5845496654510498,-0.07330802828073502,-0.0345049649477005,0.0795227512717247,-1.5794519186019897,0.07696262747049332,-1.5857677459716797,-0.07352477312088013,-0.034443218261003494,0.05827230215072632,0.1113412007689476,0.039565350860357285,-0.04229245334863663,-0.004989117383956909,0.0005776062607765198,0.516793,0.311847,0.45148568405566597,0.016063953865587205,0.2346254779180197,1.0780095213887826,-1.5365099099199762,False
30,0,0.0795227512717247,-1.5794519186019897,0.07696262747049332,-1.5857677459716797,-0.07352477312088013,-0.034443218261003494,0.07971064001321793,-1.5799777507781982,0.07768262922763824,-1.5860837697982788,-0.07372096925973892,-0.034499794244766235,0.05823777988553047,0.11159460246562958,0.03962158039212227,-0.042427800595760345,-0.004919625818729401,0.0005732029676437378,0.516793,0.311847,0.45148568405566597,0.016063953865587205,0.2346254779180197,1.0780095213887826,-1.5465099099199762,False
31,0,0.07971064001321793,-1.5799777507781982,0.07768262922763824,-1.5860837697982788,-0.07372096925973892,-0.034499794244766235,0.08045441657304764,-1.5791659355163574,0.07911437004804611,-1.58713698387146,-0.07390185445547104,-0.03445391356945038,0.058162249624729156,0.11166653037071228,0.039670493453741074,-0.042506247758865356,-0.004946470260620117,0.0005403477698564529,0.516793,0.311847,0.45148568405566597,0.018115177902761875,0.23484366763294953,1.0778566804390328,-1.5550968398258067,False
32,0,0.08045441657304764,-1.5791659355163574,0.07911437004804611,-1.58713698387146,-0.07390185445547104,-0.03445391356945038,0.08151312917470932,-1.578123927116394,0.08056890219449997,-1.588180661201477,-0.07411132007837296,-0.03447865694761276,0.05816559121012688,0.11188629269599915,0.0396968238055706,-0.04260692745447159,-0.004857510328292847,0.0005527865141630173,0.516793,0.311847,0.45148568405566597,0.019445613911614642,0.23499016846777887,1.0777699159733534,-1.564190997930643,False
33,0,0.08151312917470932,-1.578123927116394,0.08056890219449997,-1.588180661201477,-0.07411132007837296,-0.03447865694761276,0.08217544853687286,-1.5780394077301025,0.08192794024944305,-1.5889880657196045,-0.07441069185733795,-0.03453546017408371,0.05817496031522751,0.11208270490169525,0.039711859077215195,-0.04270391911268234,-0.004742547869682312,0.000546751543879509,0.516793,0.311847,0.45148568405566597,0.019217727731357416,0.2349778989810185,1.077761294306569,-1.5743265410532175,False
34,0,0.08217544853687286,-1.5780394077301025,0.08192794024944305,-1.5889880657196045,-0.07441069185733795,-0.03453546017408371,0.08237265795469284,-1.5784345865249634,0.08317449688911438,-1.5897353887557983,-0.07457432895898819,-0.03449419140815735,0.05810985341668129,0.11223296821117401,0.03976477310061455,-0.04282105714082718,-0.004706136882305145,0.0005057584494352341,0.516793,0.311847,0.45148568405566597,0.01998110959061817,0.23505769932374082,1.0777184165259004,-1.5838129975491062,False
35,0,0.08237265795469284,-1.5784345865249634,0.08317449688911438,-1.5897353887557983,-0.07457432895898819,-0.03449419140815735,0.08254578709602356,-1.578972339630127,0.08394535630941391,-1.5900943279266357,-0.07475101947784424,-0.03453566133975983,0.058018628507852554,0.11237043887376785,0.03984564542770386,-0.04293586313724518,-0.004716686904430389,0.0004566442221403122,0.516793,0.311847,0.45148568405566597,0.01998110959061817,0.23505769932374082,1.0777184165259004,-1.5938129975491062,False
36,0,0.08254578709602356,-1.578972339630127,0.08394535630941391,-1.5900943279266357,-0.07475101947784424,-0.03453566133975983,0.08267343789339066,-1.579390525817871,0.08450592309236526,-1.5903481245040894,-0.07488501816987991,-0.034569695591926575,0.05793754383921623,0.11244148761034012,0.039901312440633774,-0.043017469346523285,-0.004743471741676331,0.00041488930583000183,0.516793,0.311847,0.45148568405566597,0.01998110959061817,0.23505769932374082,1.0777184165259004,-1.603812997549106,False
37,0,0.08267343789339066,-1.579390525817871,0.08450592309236526,-1.5903481245040894,-0.07488501816987991,-0.034569695591926575,0.08267343789339066,-1.579390525817871,0.08450592309236526,-1.5903481245040894,-0.07488501816987991,-0.034569695591926575,0.05787638574838638,0.11249211430549622,0.039942432194948196,-0.043077729642391205,-0.004764772951602936,0.00038358569145202637,0.516793,0.311847,0.45148568405566597,0.01998110959061817,0.23505769932374082,1.0777184165259004,-1.6138129975491062,False
38,0,0.08267343789339066,-1.579390525817871,0.08450592309236526,-1.5903481245040894,-0.07488501816987991,-0.034569695591926575,0.08333688974380493,-1.5781259536743164,0.0854584351181984,-1.5911948680877686,-0.07498499751091003,-0.03450392559170723,0.05787638574838638,0.11249211430549622,0.039942432194948196,-0.043077729642391205,-0.004764772951602936,0.00038358569145202637,0.516793,0.311847,0.45148568405566597,0.01998110959061817,0.23505769932374082,1.0777184165259004,-1.623812997549106,False
39,0,0.08333688974380493,-1.5781259536743164,0.0854584351181984,-1.5911948680877686,-0.07498499751091003,-0.03450392559170723,0.08333688974380493,-1.5781259536743164,0.0854584351181984,-1.5911948680877686,-0.07498499751091003,-0.03450392559170723,0.057925280183553696,0.11263624578714371,0.03993675485253334,-0.043124668300151825,-0.004646502435207367,0.0003960113972425461,0.516793,0.311847,0.45148568405566597,0.01998110959061817,0.23505769932374082,1.0777184165259004,-1.6338129975491062,False
40,0,0.08333688974380493,-1.5781259536743164,0.0854584351181984,-1.5911948680877686,-0.07498499751091003,-0.03450392559170723,0.0834893137216568,-1.5786380767822266,0.08622710406780243,-1.5915677547454834,-0.075137659907341,-0.03453270345926285,0.057925280183553696,0.11263624578714371,0.03993675485253334,-0.043124668300151825,-0.004646502435207367,0.0003960113972425461,0.516793,0.311847,0.45148568405566597,0.02104375098129803,0.2351930926308269,1.0775867126458991,-1.6430402878029566,False
41,0,0.0834893137216568,-1.5786380767822266,0.08622710406780243,-1.5915677547454834,-0.075137659907341,-0.03453270345926285,0.08362897485494614,-1.5790555477142334,0.08681157976388931,-1.5918339490890503,-0.0752829983830452,-0.034569669514894485,0.05784698575735092,0.1127091571688652,0.03999290242791176,-0.04320446401834488,-0.004672162234783173,0.0003553014248609543,0.516793,0.311847,0.45148568405566597,0.02090381107309955,0.2351859608934553,1.0775806299292578,-1.6531227031847644,False
42,0,0.08362897485494614,-1.5790555477142334,0.08681157976388931,-1.5918339490890503,-0.0752829983830452,-0.034569669514894485,0.08372756838798523,-1.5793819427490234,0.08723220229148865,-1.5920201539993286,-0.07538874447345734,-0.03459809720516205,0.057784441858530045,0.11276219040155411,0.040034789592027664,-0.04326706379652023,-0.004692874848842621,0.00032330863177776337,0.516793,0.311847,0.45148568405566597,0.020780514052196056,0.23517882370215337,1.0775771733577764,-1.663196896455701,False
43,0,0.08372756838798523,-1.5793819427490234,0.08723220229148865,-1.5920201539993286,-0.07538874447345734,-0.03459809720516205,0.08439292758703232,-1.578169345855713,0.08816848695278168,-1.5928388833999634,-0.07549568265676498,-0.034545961767435074,0.05773747339844704,0.11279957741498947,0.040065836161375046,-0.04331280291080475,-0.0047096312046051025,0.00029939599335193634,0.516793,0.311847,0.45148568405566597,0.02211667041170023,0.23531806060387614,1.0774958825415961,-1.6722948610959179,False
44,0,0.08439292758703232,-1.578169345855713,0.08816848695278168,-1.5928388833999634,-0.07549568265676498,-0.034545961767435074,0.08454129099845886,-1.578629970550537,0.08880586922168732,-1.59312903881073,-0.07564739137887955,-0.034584835171699524,0.05778297781944275,0.11293943971395493,0.04006064310669899,-0.043360091745853424,-0.004595562815666199,0.0003100801259279251,0.516793,0.311847,0.45148568405566597,0.02211667041170023,0.23531806060387614,1.0774958825415961,-1.6822948610959179,False
45,0,0.08454129099845886,-1.578629970550537,0.08880586922168732,-1.59312903881073,-0.07564739137887955,-0.034584835171699524,0.08454129099845886,-1.578629970550537,0.08880586922168732,-1.59312903881073,-0.07564739137887955,-0.034584835171699524,0.057714495807886124,0.11299729347229004,0.04010685160756111,-0.04342822730541229,-0.004618756473064423,0.0002749226987361908,0.516793,0.311847,0.45148568405566597,0.02211667041170023,0.23531806060387614,1.0774958825415961,-1.6922948610959179,False
46,0,0.08454129099845886,-1.578629970550537,0.08880586922168732,-1.59312903881073,-0.07564739137887955,-0.034584835171699524,0.08454129099845886,-1.578629970550537,0.08880586922168732,-1.59312903881073,-0.07564739137887955,-0.034584835171699524,0.057714495807886124,0.11299729347229004,0.04010685160756111,-0.04342822730541229,-0.004618756473064423,0.0002749226987361908,0.516793,0.311847,0.45148568405566597,0.02195948127683532,0.23530983228294772,1.0774894215587123,-1.70238762234912,False
47,0,0.08454129099845886,-1.578629970550537,0.08880586922168732,-1.59312903881073,-0.07564739137887955,-0.034584835171699524,0.08454129099845886,-1.578629970550537,0.08880586922168732,-1.59312903881073,-0.07564739137887955,-0.034584835171699524,0.057714495807886124,0.11299729347229004,0.04010685160756111,-0.04342822730541229,-0.004618756473064423,0.0002749226987361908,0.516793,0.311847,0.45148568405566597,0.02195948127683532,0.23530983228294772,1.0774894215587123,-1.7123876223491201,False
48,0,0.08454129099845886,-1.578629970550537,0.08880586922168732,-1.59312903881073,-0.07564739137887955,-0.034584835171699524,0.08454129099845886,-1.578629970550537,0.08880586922168732,-1.59312903881073,-0.07564739137887955,-0.034584835171699524,0.057714495807886124,0.11299729347229004,0.04010685160756111,-0.04342822730541229,-0.004618756473064423,0.0002749226987361908,0.516793,0.311847,0.45148568405566597,0.02195948127683532,0.23530983228294772,1.0774894215587123,-1.7223876223491201,False
49,0,0.08454129099845886,-1.578629970550537,0.08880586922168732,-1.59312903881073,-0.07564739137887955,-0.034584835171699524,0.08454129099845886,-1.578629970550537,0.08880586922168732,-1.59312903881073,-0.07564739137887955,-0.034584835171699524,0.057714495807886124,0.11299729347229004,0.04010685160756111,-0.04342822730541229,-0.004618756473064423,0.0002749226987361908,0.516793,0.311847,0.45148568405566597,0.02195948127683532,0.23530983228294772,1.0774894215587123,-1.7323876223491201,False
50,0,0.08454129099845886,-1.578629970550537,0.08880586922168732,-1.59312903881073,-0.07564739137887955,-0.034584835171699524,0.08454129099845886,-1.578629970550537,0.08880586922168732,-1.59312903881073,-0.07564739137887955,-0.034584835171699524,0.057714495807886124,0.11299729347229004,0.04010685160756111,-0.04342822730541229,-0.004618756473064423,0.0002749226987361908,0.516793,0.311847,0.45148568405566597,0.02195948127683532,0.23530983228294772,1.0774894215587123,-1.7423876223491201,False
51,0,0.08454129099845886,-1.578629970550537,0.08880586922168732,-1.59312903881073,-0.07564739137887955,-0.034584835171699524,0.08516741544008255,-1.5779690742492676,0.08993217349052429,-1.5939433574676514,-0.0758366510272026,-0.03457610309123993,0.057714495807886124,0.11299729347229004,0.04010685160756111,-0.04342822730541229,-0.004618756473064423,0.0002749226987361908,0.516793,0.311847,0.45148568405566597,0.02195948127683532,0.23530983228294772,1.0774894215587123,-1.7523876223491202,False
52,0,0.08516741544008255,-1.5779690742492676,0.08993217349052429,-1.5939433574676514,-0.0758366510272026,-0.03457610309123993,0.08516741544008255,-1.5779690742492676,0.08993217349052429,-1.5939433574676514,-0.0758366510272026,-0.03457610309123993,0.057707276195287704,0.11314170062541962,0.04013065993785858,-0.043507955968379974,-0.0045437291264534,0.00026127882301807404,0.516793,0.311847,0.45148568405566597,0.02195948127683532,0.23530983228294772,1.0774894215587123,-1.7623876223491202,False
53,0,0.08516741544008255,-1.5779690742492676,0.08993217349052429,-1.5939433574676514,-0.0758366510272026,-0.03457610309123993,0.08516741544008255,-1.5779690742492676,0.08993217349052429,-1.5939433574676514,-0.0758366510272026,-0.03457610309123993,0.057707276195287704,0.11314170062541962,0.04013065993785858,-0.043507955968379974,-0.0045437291264534,0.00026127882301807404,0.516793,0.311847,0.45148568405566597,0.022902839388149868,0.23541522111126562,1.0774200515777073,-1.771741366704108,False
54,0,0.08516741544008255,-1.5779690742492676,0.08993217349052429,-1.5939433574676514,-0.0758366510272026,-0.03457610309123993,0.08516741544008255,-1.5779690742492676,0.08993217349052429,-1.5939433574676514,-0.0758366510272026,-0.03457610309123993,0.057707276195287704,0.11314170062541962,0.04013065993785858,-0.043507955968379974,-0.0045437291264534,0.00026127882301807404,0.516793,0.311847,0.45148568405566597,0.022902839388149868,0.23541522111126562,1.0774200515777073,-1.781741366704108,False
55,0,0.08516741544008255,-1.5779690742492676,0.08993217349052429,-1.5939433574676514,-0.0758366510272026,-0.03457610309123993,0.08586984872817993,-1.5772734880447388,0.0912349596619606,-1.5948667526245117,-0.07607492059469223,-0.03457421809434891,0.057707276195287704,0.11314170062541962,0.04013065993785858,-0.043507955968379974,-0.0045437291264534,0.00026127882301807404,0.516793,0.311847,0.45148568405566597,0.02393994923159195,0.23553295454255868,1.0773405226737611,-1.7910288578665725,False
56,0,0.08586984872817993,-1.5772734880447388,0.0912349596619606,-1.5948667526245117,-0.07607492059469223,-0.03457421809434891,0.08606418967247009,-1.5778024196624756,0.09206356853246689,-1.5952616930007935,-0.07626665383577347,-0.0346166267991066,0.0576929934322834,0.11330617964267731,0.04016057029366493,-0.043602727353572845,-0.004462607204914093,0.00024330243468284607,0.516793,0.311847,0.45148568405566597,0.02393994923159195,0.23553295454255868,1.0773405226737611,-1.8010288578665725,False
57,0,0.08606418967247009,-1.5778024196624756,0.09206356853246689,-1.5952616930007935,-0.07626665383577347,-0.0346166267991066,0.08619381487369537,-1.5780576467514038,0.09288014471530914,-1.5957510471343994,-0.07637492567300797,-0.03459040820598602,0.05760939046740532,0.11338382959365845,0.040218502283096313,-0.043689265847206116,-0.004487648606300354,0.00020008720457553864,0.516793,0.311847,0.45148568405566597,0.02389441341393955,0.23554107251345008,1.0773080092506993,-1.811030702089398,False
58,0,0.08619381487369537,-1.5780576467514038,0.09288014471530914,-1.5957510471343994,-0.07637492567300797,-0.03459040820598602,0.08619381487369537,-1.5780576467514038,0.09288014471530914,-1.5957510471343994,-0.07637492567300797,-0.03459040820598602,0.057549815624952316,0.11347391456365585,0.04027130827307701,-0.043764449656009674,-0.0044943541288375854,0.00016798637807369232,0.516793,0.311847,0.45148568405566597,0.02389441341393955,0.23554107251345008,1.0773080092506993,-1.821030702089398,False
59,0,0.08619381487369537,-1.5780576467514038,0.09288014471530914,-1.5957510471343994,-0.07637492567300797,-0.03459040820598602,0.08619381487369537,-1.5780576467514038,0.09288014471530914,-1.5957510471343994,-0.07637492567300797,-0.03459040820598602,0.057549815624952316,0.11347391456365585,0.04027130827307701,-0.043764449656009674,-0.0044943541288375854,0.00016798637807369232,0.516793,0.311847,0.45148568405566597,0.02389441341393955,0.23554107251345008,1.0773080092506993,-1.8310307020893979,False
60,0,0.08619381487369537,-1.5780576467514038,0.09288014471530914,-1.5957510471343994,-0.07637492567300797,-0.03459040820598602,0.08619381487369537,-1.5780576467514038,0.09288014471530914,-1.5957510471343994,-0.07637492567300797,-0.03459040820598602,0.057549815624952316,0.11347391456365585,0.04027130827307701,-0.043764449656009674,-0.0044943541288375854,0.00016798637807369232,0.516793,0.311847,0.45148568405566597,0.02389441341393955,0.23554107251345008,1.0773080092506993,-1.8410307020893981,False
61,0,0.08619381487369537,-1.5780576467514038,0.09288014471530914,-1.5957510471343994,-0.07637492567300797,-0.03459040820598602,0.08641465753316879,-1.5786830186843872,0.09375251084566116,-1.596142292022705,-0.07660530507564545,-0.034652531147003174,0.057549815624952316,0.11347391456365585,0.04027130827307701,-0.043764449656009674,-0.0044943541288375854,0.00016798637807369232,0.516793,0.311847,0.45148568405566597,0.023780293535835956,0.23553545096525635,1.0773022545843025,-1.8510970318464244,False
62,0,0.08641465753316879,-1.5786830186843872,0.09375251084566116,-1.596142292022705,-0.07660530507564545,-0.034652531147003174,0.08641465753316879,-1.5786830186843872,0.09375251084566116,-1.596142292022705,-0.07660530507564545,-0.034652531147003174,0.057455841451883316,0.11355222016572952,0.04033304378390312,-0.04385848343372345,-0.004525020718574524,0.00012002326548099518,0.516793,0.311847,0.45148568405566597,0.023682399406438275,0.23553072336096376,1.077298283832173,-1.8611546854263055,False
63,0,0.08641465753316879,-1.5786830186843872,0.09375251084566116,-1.596142292022705,-0.07660530507564545,-0.034652531147003174,0.08704469352960587,-1.5776478052139282,0.09458719193935394,-1.5968586206436157,-0.0766771137714386,-0.034617312252521515,0.057455841451883316,0.11355222016572952,0.04033304378390312,-0.04385848343372345,-0.004525020718574524,0.00012002326548099518,0.516793,0.311847,0.45148568405566597,0.02482108019460237,0.23565736464494774,1.0772217108204474,-1.8703816616597728,False
64,0,0.08704469352960587,-1.5776478052139282,0.09458719193935394,-1.5968586206436157,-0.0766771137714386,-0.034617312252521515,0.08720330148935318,-1.5780097246170044,0.09520679712295532,-1.5971585512161255,-0.07683384418487549,-0.03464983403682709,0.057493966072797775,0.11367511004209518,0.04032962769269943,-0.04390093684196472,-0.004426218569278717,0.00012692250311374664,0.516793,0.311847,0.45148568405566597,0.024742219740903487,0.2356564703974347,1.0772113803408385,-1.880422185390258,False
65,0,0.08720330148935318,-1.5780097246170044,0.09520679712295532,-1.5971585512161255,-0.07683384418487549,-0.03464983403682709,0.08863388746976852,-1.5760318040847778,0.0971762016415596,-1.598700761795044,-0.07718788832426071,-0.03466024994850159,0.05743362009525299,0.11373374611139297,0.0403708778321743,-0.043965309858322144,-0.004441834986209869,9.596534073352814e-05,0.516793,0.311847,0.45148568405566597,0.025773345371907647,0.23577949175036234,1.0771288373124366,-1.8897117580880938,False
66,0,0.08863388746976852,-1.5760318040847778,0.0971762016415596,-1.598700761795044,-0.07718788832426071,-0.03466024994850159,0.08948267996311188,-1.5757158994674683,0.09911874681711197,-1.5999561548233032,-0.07746356725692749,-0.03467118367552757,0.057482313364744186,0.11400322616100311,0.040374260395765305,-0.04408515244722366,-0.004243992269039154,9.649619460105896e-05,0.516793,0.311847,0.45148568405566597,0.025773345371907647,0.23577949175036234,1.0771288373124366,-1.899711758088094,False
67,0,0.08948267996311188,-1.5757158994674683,0.09911874681711197,-1.5999561548233032,-0.07746356725692749,-0.03467118367552757,0.08948267996311188,-1.5757158994674683,0.09911874681711197,-1.5999561548233032,-0.07746356725692749,-0.03467118367552757,0.05740942060947418,0.114231638610363,0.04045206680893898,-0.04424172639846802,-0.00418197363615036,4.453025758266449e-05,0.516793,0.311847,0.45148568405566597,0.025773345371907647,0.23577949175036234,1.0771288373124366,-1.9097117580880938,False
68,0,0.08948267996311188,-1.5757158994674683,0.09911874681711197,-1.5999561548233032,-0.07746356725692749,-0.03467118367552757,0.08991923183202744,-1.575701117515564,0.10067851096391678,-1.6009775400161743,-0.07764731347560883,-0.03461921215057373,0.05740942060947418,0.114231638610363,0.04045206680893898,-0.04424172639846802,-0.00418197363615036,4.453025758266449e-05,0.516793,0.311847,0.45148568405566597,0.028577035350203717,0.23611999243203924,1.0768767196076612,-1.9177614586890748,False
69,0,0.08991923183202744,-1.575701117515564,0.10067851096391678,-1.6009775400161743,-0.07764731347560883,-0.03461921215057373,0.0906435176730156,-1.5757060050964355,0.10196126252412796,-1.6016796827316284,-0.07801414281129837,-0.03473460674285889,0.057334478944540024,0.11441592872142792,0.04053119942545891,-0.04437177628278732,-0.004154272377490997,-1.7080456018447876e-06,0.516793,0.311847,0.45148568405566597,0.028993900375030576,0.23619121116770045,1.0768178405540771,-1.9274531861366602,False
70,0,0.0906435176730156,-1.5757060050964355,0.10196126252412796,-1.6016796827316284,-0.07801414281129837,-0.03473460674285889,0.0906435176730156,-1.5757060050964355,0.10196126252412796,-1.6016796827316284,-0.07801414281129837,-0.03473460674285889,0.05726415291428566,0.11454951763153076,0.0405782051384449,-0.044488079845905304,-0.004123702645301819,-4.4712796807289124e-05,0.516793,0.311847,0.45148568405566597,0.028993900375030576,0.23619121116770045,1.0768178405540771,-1.9374531861366604,False
71,0,0.0906435176730156,-1.5757060050964355,0.10196126252412796,-1.6016796827316284,-0.07801414281129837,-0.03473460674285889,0.0908726304769516,-1.5762676000595093,0.10272129625082016,-1.6019973754882812,-0.07825805991888046,-0.034811243414878845,0.05726415291428566,0.11454951763153076,0.0405782051384449,-0.044488079845905304,-0.004123702645301819,-4.4712796807289124e-05,0.516793,0.311847,0.45148568405566597,0.02879180753426517,0.2361824594278724,1.0768091584182025,-1.9475709576438947,False
72,0,0.0908726304769516,-1.5762676000595093,0.10272129625082016,-1.6019973754882812,-0.07825805991888046,-0.034811243414878845,0.09100798517465591,-1.576696515083313,0.10325942933559418,-1.6022292375564575,-0.07840576022863388,-0.03485288843512535,0.05717941001057625,0.11461470276117325,0.040629979223012924,-0.044572196900844574,-0.0041506364941596985,-8.735246956348419e-05,0.516793,0.311847,0.45148568405566597,0.02879180753426517,0.2361824594278724,1.0768091584182025,-1.9575709576438947,False
73,0,0.09100798517465591,-1.576696515083313,0.10325942933559418,-1.6022292375564575,-0.07840576022863388,-0.03485288843512535,0.09100798517465591,-1.576696515083313,0.10325942933559418,-1.6022292375564575,-0.07840576022863388,-0.03485288843512535,0.05711813643574715,0.11466159671545029,0.04066924750804901,-0.0446314737200737,-0.004172496497631073,-0.0001183338463306427,0.516793,0.311847,0.45148568405566597,0.028623301841570754,0.2361727379878175,1.0768047563603205,-1.9676716383956996,False
74,0,0.09100798517465591,-1.576696515083313,0.10325942933559418,-1.6022292375564575,-0.07840576022863388,-0.03485288843512535,0.09100798517465591,-1.576696515083313,0.10325942933559418,-1.6022292375564575,-0.07840576022863388,-0.03485288843512535,0.05711813643574715,0.11466159671545029,0.04066924750804901,-0.0446314737200737,-0.004172496497631073,-0.0001183338463306427,0.516793,0.311847,0.45148568405566597,0.028623301841570754,0.2361727379878175,1.0768047563603205,-1.9776716383956996,False
75,0,0.09100798517465591,-1.576696515083313,0.10325942933559418,-1.6022292375564575,-0.07840576022863388,-0.03485288843512535,0.09116905927658081,-1.5772136449813843,0.10401829332113266,-1.6025935411453247,-0.0785878375172615,-0.03488629683852196,0.05711813643574715,0.11466159671545029,0.04066924750804901,-0.0446314737200737,-0.004172496497631073,-0.0001183338463306427,0.516793,0.311847,0.45148568405566597,0.028623301841570754,0.2361727379878175,1.0768047563603205,-1.9876716383956996,False
76,0,0.09116905927658081,-1.5772136449813843,0.10401829332113266,-1.6025935411453247,-0.0785878375172615,-0.03488629683852196,0.0912659540772438,-1.5774086713790894,0.10425149649381638,-1.6026742458343506,-0.07870152592658997,-0.03492645546793938,0.05703933909535408,0.11473265290260315,0.04072358459234238,-0.04471180588006973,-0.004197411239147186,-0.0001582801342010498,0.516793,0.311847,0.45148568405566597,0.028623301841570754,0.2361727379878175,1.0768047563603205,-1.9976716383956996,False
77,0,0.0912659540772438,-1.5774086713790894,0.10425149649381638,-1.6026742458343506,-0.07870152592658997,-0.03492645546793938,0.0912659540772438,-1.5774086713790894,0.10425149649381638,-1.6026742458343506,-0.07870152592658997,-0.03492645546793938,0.05701052024960518,0.1147502139210701,0.04073804244399071,-0.044739730656147,-0.004206135869026184,-0.0001720879226922989,0.516793,0.311847,0.45148568405566597,0.028623301841570754,0.2361727379878175,1.0768047563603205,-2.0076716383956996,False
78,0,0.0912659540772438,-1.5774086713790894,0.10425149649381638,-1.6026742458343506,-0.07870152592658997,-0.03492645546793938,0.0912659540772438,-1.5774086713790894,0.10425149649381638,-1.6026742458343506,-0.07870152592658997,-0.03492645546793938,0.05701052024960518,0.1147502139210701,0.04073804244399071,-0.044739730656147,-0.004206135869026184,-0.0001720879226922989,0.516793,0.311847,0.45148568405566597,0.028623301841570754,0.2361727379878175,1.0768047563603205,-2.0176716383957,False
79,0,0.0912659540772438,-1.5774086713790894,0.10425149649381638,-1.6026742458343506,-0.07870152592658997,-0.03492645546793938,0.09134440124034882,-1.5775384902954102,0.1045224592089653,-1.6028114557266235,-0.07878601551055908,-0.03493958339095116,0.05701052024960518,0.1147502139210701,0.04073804244399071,-0.044739730656147,-0.004206135869026184,-0.0001720879226922989,0.516793,0.311847,0.45148568405566597,0.028623301841570754,0.2361727379878175,1.0768047563603205,-2.0276716383956996,False
80,0,0.09134440124034882,-1.5775384902954102,0.1045224592089653,-1.6028114557266235,-0.07878601551055908,-0.03493958339095116,0.09140034765005112,-1.5776442289352417,0.10470031201839447,-1.6028944253921509,-0.0788511112332344,-0.0349530391395092,0.05698592588305473,0.11477650701999664,0.04075421392917633,-0.044767752289772034,-0.004210084676742554,-0.00018421746790409088,0.516793,0.311847,0.45148568405566597,0.028623301841570754,0.2361727379878175,1.0768047563603205,-2.0376716383956994,False
81,0,0.09140034765005112,-1.5776442289352417,0.10470031201839447,-1.6028944253921509,-0.0788511112332344,-0.0349530391395092,0.09206028282642365,-1.5766936540603638,0.10560839623212814,-1.6036275625228882,-0.078974649310112,-0.03494739159941673,0.05696798488497734,0.11479271948337555,0.04076504707336426,-0.04478705674409866,-0.004213877022266388,-0.00019282475113868713,0.516793,0.311847,0.45148568405566597,0.02832831688785083,0.23616384693050432,1.0767805773587222,-2.0478342503774525,False
82,0,0.09206028282642365,-1.5766936540603638,0.10560839623212814,-1.6036275625228882,-0.078974649310112,-0.03494739159941673,0.09329143166542053,-1.5751895904541016,0.10760392248630524,-1.6051133871078491,-0.07933471351861954,-0.03496429696679115,0.05699513107538223,0.1149197667837143,0.04076676815748215,-0.044839851558208466,-0.0041202157735824585,-0.00019162707030773163,0.516793,0.311847,0.45148568405566597,0.030642909872118367,0.23644165248481694,1.0766032580845388,-2.056252182753422,False
83,0,0.09329143166542053,-1.5751895904541016,0.10760392248630524,-1.6051133871078491,-0.07933471351861954,-0.03496429696679115,0.09329143166542053,-1.5751895904541016,0.10760392248630524,-1.6051133871078491,-0.07933471351861954,-0.03496429696679115,0.05700703337788582,0.11518169939517975,0.04079411178827286,-0.04497430473566055,-0.003962293267250061,-0.00020698830485343933,0.516793,0.311847,0.45148568405566597,0.03137962391499226,0.23653851436882617,1.076528923218784,-2.065734536846431,False
84,0,0.09329143166542053,-1.5751895904541016,0.10760392248630524,-1.6051133871078491,-0.07933471351861954,-0.03496429696679115,0.09381746500730515,-1.575093150138855,0.10881046205759048,-1.6058655977249146,-0.07952694594860077,-0.03499075025320053,0.05700703337788582,0.11518169939517975,0.04079411178827286,-0.04497430473566055,-0.003962293267250061,-0.00020698830485343933,0.516793,0.311847,0.45148568405566597,0.03137962391499226,0.23653851436882617,1.076528923218784,-2.0757345368464306,False
85,0,0.09381746500730515,-1.575093150138855,0.10881046205759048,-1.6058655977249146,-0.07952694594860077,-0.03499075025320053,0.09447058290243149,-1.5739660263061523,0.10980049520730972,-1.606691837310791,-0.0796973928809166,-0.03496629372239113,0.05695383623242378,0.1153196468949318,0.04084521532058716,-0.045075058937072754,-0.003931276500225067,-0.00024306029081344604,0.516793,0.311847,0.45148568405566597,0.03137962391499226,0.23653851436882617,1.076528923218784,-2.085734536846431,False
86,0,0.09447058290243149,-1.5739660263061523,0.10980049520730972,-1.606691837310791,-0.0796973928809166,-0.03496629372239113,0.09470494836568832,-1.5746036767959595,0.11073915660381317,-1.6071202754974365,-0.07993574440479279,-0.03502928465604782,0.05700737610459328,0.1154596135020256,0.04085051640868187,-0.04511592537164688,-0.003837108612060547,-0.00022208690643310547,0.516793,0.311847,0.45148568405566597,0.03137962391499226,0.23653851436882617,1.076528923218784,-2.0957345368464306,False
87,0,0.09470494836568832,-1.5746036767959595,0.11073915660381317,-1.6071202754974365,-0.07993574440479279,-0.03502928465604782,0.09557056427001953,-1.5737614631652832,0.11241030693054199,-1.6082996129989624,-0.08025237917900085,-0.03503662720322609,0.05693139135837555,0.11554212123155594,0.04092465713620186,-0.04519522935152054,-0.003887943923473358,-0.0002478398382663727,0.516793,0.311847,0.45148568405566597,0.03280983335005264,0.2367535435781518,1.0763373713433069,-2.104690918397997,False
88,0,0.09557056427001953,-1.5737614631652832,0.11241030693054199,-1.6082996129989624,-0.08025237917900085,-0.03503662720322609,0.09692014753818512,-1.5724494457244873,0.11455123871564865,-1.609758973121643,-0.0807335302233696,-0.03510743007063866,0.056943416595458984,0.11574727296829224,0.04097945988178253,-0.04528678208589554,-0.003820948302745819,-0.00023188255727291107,0.516793,0.311847,0.45148568405566597,0.036074867974275775,0.23717959855244886,1.0760368748980533,-2.112427385919576,False
89,0,0.09692014753818512,-1.5724494457244873,0.11455123871564865,-1.609758973121643,-0.0807335302233696,-0.03510743007063866,0.09723450988531113,-1.5732288360595703,0.11582770943641663,-1.6103689670562744,-0.08104993402957916,-0.035174742341041565,0.05697000026702881,0.11600816249847412,0.04103602468967438,-0.04540569335222244,-0.003717198967933655,-0.00020493380725383759,0.516793,0.311847,0.45148568405566597,0.03588380324594855,0.23717700503614542,1.076013602028041,-2.12252530716211,False
90,0,0.09723450988531113,-1.5732288360595703,0.11582770943641663,-1.6103689670562744,-0.08104993402957916,-0.035174742341041565,0.09776606410741806,-1.572229266166687,0.1164451539516449,-1.610883116722107,-0.08124494552612305,-0.03520543500781059,0.056874457746744156,0.11612745374441147,0.04114113375544548,-0.04551676660776138,-0.003785066306591034,-0.00023351609706878662,0.516793,0.311847,0.45148568405566597,0.03588380324594855,0.23717700503614542,1.076013602028041,-2.13252530716211,False
91,0,0.09776606410741806,-1.572229266166687,0.1164451539516449,-1.610883116722107,-0.08124494552612305,-0.03520543500781059,0.09803769737482071,-1.5730262994766235,0.11759098619222641,-1.6114078760147095,-0.0815318152308464,-0.03527162969112396,0.05692656710743904,0.11621924489736557,0.04113628342747688,-0.04554354399442673,-0.0037116780877113342,-0.0002056267112493515,0.516793,0.311847,0.45148568405566597,0.03588380324594855,0.23717700503614542,1.076013602028041,-2.14252530716211,False
92,0,0.09803769737482071,-1.5730262994766235,0.11759098619222641,-1.6114078760147095,-0.0815318152308464,-0.03527162969112396,0.09869550168514252,-1.5719095468521118,0.11860820651054382,-1.6122190952301025,-0.08166840672492981,-0.035226669162511826,0.05683334171772003,0.11632304638624191,0.041233792901039124,-0.04564537853002548,-0.0037797465920448303,-0.00023438595235347748,0.516793,0.311847,0.45148568405566597,0.03588380324594855,0.23717700503614542,1.076013602028041,-2.15252530716211,False
93,0,0.09869550168514252,-1.5719095468521118,0.11860820651054382,-1.6122190952301025,-0.08166840672492981,-0.035226669162511826,0.09869550168514252,-1.5719095468521118,0.11860820651054382,-1.6122190952301025,-0.08166840672492981,-0.035226669162511826,0.05688682943582535,0.11646904051303864,0.041254132986068726,-0.045692332088947296,-0.0036998018622398376,-0.00020455755293369293,0.516793,0.311847,0.45148568405566597,0.03588380324594855,0.23717700503614542,1.076013602028041,-2.16252530716211,False
94,0,0.09869550168514252,-1.5719095468521118,0.11860820651054382,-1.6122190952301025,-0.08166840672492981,-0.035226669162511826,0.09961878508329391,-1.572100043296814,0.12084221094846725,-1.6135236024856567,-0.08221612125635147,-0.035312801599502563,0.05688682943582535,0.11646904051303864,0.041254132986068726,-0.045692332088947296,-0.0036998018622398376,-0.00020455755293369293,0.516793,0.311847,0.45148568405566597,0.03858632095336016,0.23757901580149776,1.0756791879774181,-2.170584531095452,False
95,0,0.09961878508329391,-1.572100043296814,0.12084221094846725,-1.6135236024856567,-0.08221612125635147,-0.035312801599502563,0.09961878508329391,-1.572100043296814,0.12084221094846725,-1.6135236024856567,-0.08221612125635147,-0.035312801599502563,0.056807827204465866,0.11671143025159836,0.041389644145965576,-0.04586213827133179,-0.003722749650478363,-0.0002173949033021927,0.516793,0.311847,0.45148568405566597,0.03858632095336016,0.23757901580149776,1.0756791879774181,-2.180584531095452,False
96,0,0.09961878508329391,-1.572100043296814,0.12084221094846725,-1.6135236024856567,-0.08221612125635147,-0.035312801599502563,0.10028382390737534,-1.5736054182052612,0.12322007864713669,-1.6146035194396973,-0.08293326199054718,-0.03549705818295479,0.056807827204465866,0.11671143025159836,0.041389644145965576,-0.04586213827133179,-0.003722749650478363,-0.0002173949033021927,0.516793,0.311847,0.45148568405566597,0.03836780204222416,0.2375753623793782,1.075662260627141,-2.190703823540325,False
97,0,0.10028382390737534,-1.5736054182052612,0.12322007864713669,-1.6146035194396973,-0.08293326199054718,-0.03549705818295479,0.10279393196105957,-1.5714222192764282,0.12832322716712952,-1.6181745529174805,-0.08390123397111893,-0.03548472374677658,0.0566205196082592,0.11692530661821365,0.04158000648021698,-0.04607521742582321,-0.003850378096103668,-0.0002713073045015335,0.516793,0.311847,0.45148568405566597,0.038180657220755636,0.23757378420718275,1.0756347407652533,-2.2007955881649846,False
98,0,0.10279393196105957,-1.5714222192764282,0.12832322716712952,-1.6181745529174805,-0.08390123397111893,-0.03548472374677658,0.10279393196105957,-1.5714222192764282,0.12832322716712952,-1.6181745529174805,-0.08390123397111893,-0.03548472374677658,0.05664427950978279,0.1175675094127655,0.041805997490882874,-0.04639687389135361,-0.0037071406841278076,-0.00022129341959953308,0.516793,0.311847,0.45148568405566597,0.038180657220755636,0.23757378420718275,1.0756347407652533,-2.2107955881649843,False
99,0,0.10279393196105957,-1.5714222192764282,0.12832322716712952,-1.6181745529174805,-0.08390123397111893,-0.03548472374677658,0.10287129878997803,-1.5707651376724243,0.12883208692073822,-1.6187363862991333,-0.08372405171394348,-0.03533228859305382,0.05664427950978279,0.1175675094127655,0.041805997490882874,-0.04639687389135361,-0.0037071406841278076,-0.00022129341959953308,0.516793,0.311847,0.45148568405566597,0.042541148159235584,0.2381788218593438,1.075148561409256,-2.2177193849766113,False
100,0,0.10287129878997803,-1.5707651376724243,0.12883208692073822,-1.6187363862991333,-0.08372405171394348,-0.03533228859305382,0.10287129878997803,-1.5707651376724243,0.12883208692073822,-1.6187363862991333,-0.08372405171394348,-0.03533228859305382,0.05669183284044266,0.11766117066144943,0.041830483824014664,-0.046408846974372864,-0.0036671310663223267,-0.00020401179790496826,0.516793,0.311847,0.45148568405566597,0.042541148159235584,0.2381788218593438,1.075148561409256,-2.2277193849766115,False
101,0,0.10287129878997803,-1.5707651376724243,0.12883208692073822,-1.6187363862991333,-0.08372405171394348,-0.03533228859305382,0.10287129878997803,-1.5707651376724243,0.12883208692073822,-1.6187363862991333,-0.08372405171394348,-0.03533228859305382,0.05669183284044266,0.11766117066144943,0.041830483824014664,-0.046408846974372864,-0.0036671310663223267,-0.00020401179790496826,0.516793,0.311847,0.45148568405566597,0.042541148159235584,0.2381788218593438,1.075148561409256,-2.2377193849766117,False
102,0,0.10287129878997803,-1.5707651376724243,0.12883208692073822,-1.6187363862991333,-0.08372405171394348,-0.03533228859305382,0.10364376753568649,-1.5722541809082031,0.13199038803577423,-1.6203672885894775,-0.08457385748624802,-0.03543496131896973,0.05669183284044266,0.11766117066144943,0.041830483824014664,-0.046408846974372864,-0.0036671310663223267,-0.00020401179790496826,0.516793,0.311847,0.45148568405566597,0.042541148159235584,0.2381788218593438,1.075148561409256,-2.2477193849766115,False
103,0,0.10364376753568649,-1.5722541809082031,0.13199038803577423,-1.6203672885894775,-0.08457385748624802,-0.03543496131896973,0.10364376753568649,-1.5722541809082031,0.13199038803577423,-1.6203672885894775,-0.08457385748624802,-0.03543496131896973,0.05648714303970337,0.11797210574150085,0.04207341745495796,-0.04667549580335617,-0.003798872232437134,-0.0002558548003435135,0.516793,0.311847,0.45148568405566597,0.042541148159235584,0.2381788218593438,1.075148561409256,-2.2577193849766113,False
104,0,0.10364376753568649,-1.5722541809082031,0.13199038803577423,-1.6203672885894775,-0.08457385748624802,-0.03543496131896973,0.10384543240070343,-1.572747826576233,0.13284289836883545,-1.620789885520935,-0.08479414880275726,-0.03546731919050217,0.05648714303970337,0.11797210574150085,0.04207341745495796,-0.04667549580335617,-0.003798872232437134,-0.0002558548003435135,0.516793,0.311847,0.45148568405566597,0.042359182622183356,0.2382163499342147,1.0750365699237847,-2.2677368082420193,False
105,0,0.10384543240070343,-1.572747826576233,0.13284289836883545,-1.620789885520935,-0.08479414880275726,-0.03546731919050217,0.1039489284157753,-1.5730162858963013,0.1335548311471939,-1.6212114095687866,-0.08490286767482758,-0.03544175252318382,0.05642548203468323,0.11805342882871628,0.042142368853092194,-0.04674916714429855,-0.0038412585854530334,-0.0002730563282966614,0.516793,0.311847,0.45148568405566597,0.04240551829856723,0.23822721612810988,1.0750123576224324,-2.277688673567906,False
106,0,0.1039489284157753,-1.5730162858963013,0.1335548311471939,-1.6212114095687866,-0.08490286767482758,-0.03544175252318382,0.1039489284157753,-1.5730162858963013,0.1335548311471939,-1.6212114095687866,-0.08490286767482758,-0.03544175252318382,0.056388307362794876,0.11813100427389145,0.0422002337872982,-0.04680449515581131,-0.003867894411087036,-0.0002827253192663193,0.516793,0.311847,0.45148568405566597,0.04240551829856723,0.23822721612810988,1.0750123576224324,-2.287688673567906,False
107,0,0.1039489284157753,-1.5730162858963013,0.1335548311471939,-1.6212114095687866,-0.08490286767482758,-0.03544175252318382,0.10404814779758453,-1.5732661485671997,0.13398562371730804,-1.6214289665222168,-0.08501232415437698,-0.03545469045639038,0.056388307362794876,0.11813100427389145,0.0422002337872982,-0.04680449515581131,-0.003867894411087036,-0.0002827253192663193,0.516793,0.311847,0.45148568405566597,0.04235351271351171,0.23822752962528804,1.0750025343865115,-2.2977122130717644,False
108,0,0.10404814779758453,-1.5732661485671997,0.13398562371730804,-1.6214289665222168,-0.08501232415437698,-0.03545469045639038,0.10411643981933594,-1.5734361410140991,0.134275883436203,-1.6215764284133911,-0.08508859574794769,-0.035462964326143265,0.05635738745331764,0.11817247420549393,0.04223516955971718,-0.04684159904718399,-0.0038890987634658813,-0.00029121898114681244,0.516793,0.311847,0.45148568405566597,0.04231676765163602,0.23822763289987808,1.0749960001529404,-2.3077291799697397,False
109,0,0.10411643981933594,-1.5734361410140991,0.134275883436203,-1.6215764284133911,-0.08508859574794769,-0.035462964326143265,0.10416169464588165,-1.5735520124435425,0.13447077572345734,-1.621677279472351,-0.08513974398374557,-0.03546685725450516,0.05633644387125969,0.11820047348737717,0.042258601635694504,-0.04686672240495682,-0.0039032623171806335,-0.00029683858156204224,0.516793,0.311847,0.45148568405566597,0.04231676765163602,0.23822763289987808,1.0749960001529404,-2.3177291799697395,False
110,0,0.10416169464588165,-1.5735520124435425,0.13447077572345734,-1.621677279472351,-0.08513974398374557,-0.03546685725450516,0.10416169464588165,-1.5735520124435425,0.13447077572345734,-1.621677279472351,-0.08513974398374557,-0.03546685725450516,0.056322358548641205,0.11821936815977097,0.04227433726191521,-0.04688360542058945,-0.00391271710395813,-0.00030055828392505646,0.516793,0.311847,0.45148568405566597,0.04229049110675457,0.23822749276673705,1.074991749042064,-2.327741667929917,False
111,0,0.10416169464588165,-1.5735520124435425,0.13447077572345734,-1.621677279472351,-0.08513974398374557,-0.03546685725450516,0.10416169464588165,-1.5735520124435425,0.13447077572345734,-1.621677279472351,-0.08513974398374557,-0.03546685725450516,0.056322358548641205,0.11821936815977097,0.04227433726191521,-0.04688360542058945,-0.00391271710395813,-0.00030055828392505646,0.516793,0.311847,0.45148568405566597,0.04229049110675457,0.23822749276673705,1.074991749042064,-2.3377416679299174,False
112,0,0.10416169464588165,-1.5735520124435425,0.13447077572345734,-1.621677279472351,-0.08513974398374557,-0.03546685725450516,0.10488749295473099,-1.5725479125976562,0.13551998138427734,-1.622491717338562,-0.08535142242908478,-0.03548441454768181,0.056322358548641205,0.11821936815977097,0.04227433726191521,-0.04688360542058945,-0.00391271710395813,-0.00030055828392505646,0.516793,0.311847,0.45148568405566597,0.04229049110675457,0.23822749276673705,1.074991749042064,-2.3477416679299177,False
113,0,0.10488749295473099,-1.5725479125976562,0.13551998138427734,-1.622491717338562,-0.08535142242908478,-0.03548441454768181,0.10488749295473099,-1.5725479125976562,0.13551998138427734,-1.622491717338562,-0.08535142242908478,-0.03548441454768181,0.05636714771389961,0.11836393922567368,0.042297009378671646,-0.046939246356487274,-0.00383961945772171,-0.0002745073288679123,0.516793,0.311847,0.45148568405566597,0.04229049110675457,0.23822749276673705,1.074991749042064,-2.3577416679299175,False
114,0,0.10488749295473099,-1.5725479125976562,0.13551998138427734,-1.622491717338562,-0.08535142242908478,-0.03548441454768181,0.1051221415400505,-1.573053002357483,0.13642895221710205,-1.6229431629180908,-0.08560796082019806,-0.03552321717143059,0.05636714771389961,0.11836393922567368,0.042297009378671646,-0.046939246356487274,-0.00383961945772171,-0.0002745073288679123,0.516793,0.311847,0.45148568405566597,0.04229049110675457,0.23822749276673705,1.074991749042064,-2.3677416679299172,False
115,0,0.1051221415400505,-1.573053002357483,0.13642895221710205,-1.6229431629180908,-0.08560796082019806,-0.03552321717143059,0.10518976300954819,-1.5731966495513916,0.13666675984859467,-1.6230579614639282,-0.08568255603313446,-0.03553624078631401,0.0563022755086422,0.11845052987337112,0.04236837103962898,-0.04701808840036392,-0.0038821473717689514,-0.0002916380763053894,0.516793,0.311847,0.45148568405566597,0.04229049110675457,0.23822749276673705,1.074991749042064,-2.3777416679299175,False
116,0,0.10518976300954819,-1.5731966495513916,0.13666675984859467,-1.6230579614639282,-0.08568255603313446,-0.03553624078631401,0.10523205250501633,-1.5732933282852173,0.1368267685174942,-1.6231387853622437,-0.0857287123799324,-0.03554175794124603,0.05628422275185585,0.11847256869077682,0.04238686338067055,-0.04703926295042038,-0.003893718123435974,-0.0002962760627269745,0.516793,0.311847,0.45148568405566597,0.04332732075098017,0.2384040359504071,1.0748321507679397,-2.386973900965768,False
117,0,0.10523205250501633,-1.5732933282852173,0.1368267685174942,-1.6231387853622437,-0.0857287123799324,-0.03554175794124603,0.10527893155813217,-1.5734007358551025,0.13701625168323517,-1.623242735862732,-0.08577890694141388,-0.03554197773337364,0.056272394955158234,0.11848782002925873,0.04239952936768532,-0.04705330729484558,-0.0039013922214508057,-0.0002993568778038025,0.516793,0.311847,0.45148568405566597,0.043305231067463076,0.23840448325826674,1.0748276840523039,-2.3969836207117456,False
118,0,0.10527893155813217,-1.5734007358551025,0.13701625168323517,-1.623242735862732,-0.08577890694141388,-0.03554197773337364,0.10527893155813217,-1.5734007358551025,0.13701625168323517,-1.623242735862732,-0.08577890694141388,-0.03554197773337364,0.05625937506556511,0.1185067668557167,0.04241447523236275,-0.04706960171461105,-0.00390961766242981,-0.0003024749457836151,0.516793,0.311847,0.45148568405566597,0.043305231067463076,0.23840448325826674,1.0748276840523039,-2.4069836207117454,False
119,0,0.10527893155813217,-1.5734007358551025,0.13701625168323517,-1.623242735862732,-0.08577890694141388,-0.03554197773337364,0.10528256744146347,-1.5734302997589111,0.1370680183172226,-1.6232781410217285,-0.08578095585107803,-0.035534847527742386,0.05625937506556511,0.1185067668557167,0.04241447523236275,-0.04706960171461105,-0.00390961766242981,-0.0003024749457836151,0.516793,0.311847,0.45148568405566597,0.043299357417516476,0.23840409394064746,1.0748266883626167,-2.416986404991539,False
120,0,0.10528256744146347,-1.5734302997589111,0.1370680183172226,-1.6232781410217285,-0.08578095585107803,-0.035534847527742386,0.10527990013360977,-1.573449730873108,0.13710710406303406,-1.6233094930648804,-0.08577518165111542,-0.03552524745464325,0.05625643953680992,0.11851277947425842,0.042419228702783585,-0.04707355797290802,-0.003911912441253662,-0.0003032498061656952,0.516793,0.311847,0.45148568405566597,0.04329766760265054,0.23840378198177153,1.0748258743455723,-2.426986806429716,False
121,0,0.10527990013360977,-1.573449730873108,0.13710710406303406,-1.6233094930648804,-0.08577518165111542,-0.03552524745464325,0.1052793636918068,-1.5734630823135376,0.1371454894542694,-1.6233409643173218,-0.08577101677656174,-0.035516075789928436,0.05625486001372337,0.11851794272661209,0.042423147708177567,-0.047076188027858734,-0.003913551568984985,-0.0003037545830011368,0.516793,0.311847,0.45148568405566597,0.043300825669319275,0.23840411490773847,1.0748246806485204,-2.4369839270148983,False
122,0,0.1052793636918068,-1.5734630823135376,0.1371454894542694,-1.6233409643173218,-0.08577101677656174,-0.035516075789928436,0.106153205037117,-1.5726720094680786,0.13864220678806305,-1.6243699789047241,-0.0861596018075943,-0.03556964173913002,0.056253623217344284,0.11852312088012695,0.042426664382219315,-0.04707873612642288,-0.003914646804332733,-0.00030401162803173065,0.516793,0.311847,0.45148568405566597,0.043300825669319275,0.23840411490773847,1.0748246806485204,-2.446983927014898,False
123,0,0.106153205037117,-1.5726720094680786,0.13864220678806305,-1.6243699789047241,-0.0861596018075943,-0.03556964173913002,0.106153205037117,-1.5726720094680786,0.13864220678806305,-1.6243699789047241,-0.0861596018075943,-0.03556964173913002,0.05626712366938591,0.11870907247066498,0.0424804724752903,-0.04717434197664261,-0.0038586854934692383,-0.0002846773713827133,0.516793,0.311847,0.45148568405566597,0.043300825669319275,0.23840411490773847,1.0748246806485204,-2.456983927014898,False
124,0,0.106153205037117,-1.5726720094680786,0.13864220678806305,-1.6243699789047241,-0.0861596018075943,-0.03556964173913002,0.10699767619371414,-1.5724711418151855,0.14036987721920013,-1.6254196166992188,-0.08661622554063797,-0.03565078228712082,0.05626712366938591,0.11870907247066498,0.0424804724752903,-0.04717434197664261,-0.0038586854934692383,-0.0002846773713827133,0.516793,0.311847,0.45148568405566597,0.04523264933771578,0.23872237854985545,1.074557544755674,-2.465580212757203,False
125,0,0.10699767619371414,-1.5724711418151855,0.14036987721920013,-1.6254196166992188,-0.08661622554063797,-0.03565078228712082,0.10842344909906387,-1.5710368156433105,0.1427236944437027,-1.627070665359497,-0.08722703903913498,-0.035732101649045944,0.05622962489724159,0.1189032569527626,0.04256932809948921,-0.04729980230331421,-0.003848731517791748,-0.00028416141867637634,0.516793,0.311847,0.45148568405566597,0.04621648089279929,0.23888248474907822,1.0744246757691012,-2.47486899069116,False
126,0,0.10842344909906387,-1.5710368156433105,0.1427236944437027,-1.627070665359497,-0.08722703903913498,-0.035732101649045944,0.10932554304599762,-1.5708470344543457,0.14466600120067596,-1.6282438039779663,-0.08773393929004669,-0.0358220674097538,0.05626470968127251,0.11920072138309479,0.042646441608667374,-0.04744622856378555,-0.0037460029125213623,-0.00024793483316898346,0.516793,0.311847,0.45148568405566597,0.04806220915333103,0.23918886832331873,1.0741676979204287,-2.48352974676442,False
127,0,0.10932554304599762,-1.5708470344543457,0.14466600120067596,-1.6282438039779663,-0.08773393929004669,-0.0358220674097538,0.11022248864173889,-1.5705517530441284,0.14675582945346832,-1.6295589208602905,-0.08823205530643463,-0.035872697830200195,0.0562199130654335,0.1194184198975563,0.04274945333600044,-0.04758778214454651,-0.0037396177649497986,-0.0002488698810338974,0.516793,0.311847,0.45148568405566597,0.04806220915333103,0.23918886832331873,1.0741676979204287,-2.4935297467644197,False
128,0,0.11022248864173889,-1.5705517530441284,0.14675582945346832,-1.6295589208602905,-0.08823205530643463,-0.035872697830200195,0.11164610087871552,-1.5693447589874268,0.14973366260528564,-1.6316169500350952,-0.08881758153438568,-0.035890210419893265,0.05618109181523323,0.11965984851121902,0.04286130145192146,-0.04773590713739395,-0.003727458417415619,-0.0002462118864059448,0.516793,0.311847,0.45148568405566597,0.04806220915333103,0.23918886832331873,1.0741676979204287,-2.5035297467644195,False
129,0,0.11164610087871552,-1.5693447589874268,0.14973366260528564,-1.6316169500350952,-0.08881758153438568,-0.035890210419893265,0.11267793923616409,-1.5693490505218506,0.15207207202911377,-1.6329718828201294,-0.089487724006176,-0.03601294383406639,0.05618906393647194,0.12003131955862045,0.04299663379788399,-0.04792620241641998,-0.003651931881904602,-0.00022011622786521912,0.516793,0.311847,0.45148568405566597,0.052084572869043666,0.23985203824495638,1.0735980022287228,-2.5106117369857315,False
130,0,0.11267793923616409,-1.5693490505218506,0.15207207202911377,-1.6329718828201294,-0.089487724006176,-0.03601294383406639,0.11325984448194504,-1.5683178901672363,0.15321755409240723,-1.6339083909988403,-0.08963608741760254,-0.035963356494903564,0.05611541122198105,0.1202847957611084,0.04312707856297493,-0.04810339957475662,-0.00366123765707016,-0.00022707879543304443,0.516793,0.311847,0.45148568405566597,0.053176878517634835,0.24004807864107602,1.073403308052941,-2.5197878008505734,False
131,0,0.11325984448194504,-1.5683178901672363,0.15321755409240723,-1.6339083909988403,-0.08963608741760254,-0.035963356494903564,0.11372550576925278,-1.569128155708313,0.15474490821361542,-1.6346219778060913,-0.0901605412364006,-0.036079373210668564,0.056102652102708817,0.12048553675413132,0.043136704713106155,-0.04812464863061905,-0.0036489591002464294,-0.0002265721559524536,0.516793,0.311847,0.45148568405566597,0.053051391516268795,0.2400665298825099,1.0733554315434717,-2.5298225705106225,False
132,0,0.11372550576925278,-1.569128155708313,0.15474490821361542,-1.6346219778060913,-0.0901605412364006,-0.036079373210668564,0.11469272524118423,-1.5689212083816528,0.15703622996807098,-1.6360232830047607,-0.09075392037630081,-0.03615671396255493,0.05594059079885483,0.12065494060516357,0.04322831705212593,-0.0482303649187088,-0.0037675797939300537,-0.000276738777756691,0.516793,0.311847,0.45148568405566597,0.0541879645112072,0.2402405667588645,1.073215465924418,-2.5390187001541786,False
133,0,0.11469272524118423,-1.5689212083816528,0.15703622996807098,-1.6360232830047607,-0.09075392037630081,-0.03615671396255493,0.11588148772716522,-1.5688366889953613,0.15943510830402374,-1.6373943090438843,-0.09151334315538406,-0.03632979840040207,0.05573328584432602,0.12099411338567734,0.04329122230410576,-0.048315517604351044,-0.00394701212644577,-0.00034789741039276123,0.516793,0.311847,0.45148568405566597,0.0541879645112072,0.2402405667588645,1.073215465924418,-2.549018700154179,False
134,0,0.11588148772716522,-1.5688366889953613,0.15943510830402374,-1.6373943090438843,-0.09151334315538406,-0.03632979840040207,0.11700756847858429,-1.568360447883606,0.16186067461967468,-1.6389005184173584,-0.09219836443662643,-0.03643500804901123,0.05550139769911766,0.12133503705263138,0.04335097596049309,-0.04841373860836029,-0.00413629412651062,-0.0004257131367921829,0.516793,0.311847,0.45148568405566597,0.056317394831509326,0.2406683663323479,1.0728140057330398,-2.557394296488681,False
135,0,0.11700756847858429,-1.568360447883606,0.16186067461967468,-1.6389005184173584,-0.09219836443662643,-0.03643500804901123,0.11807241290807724,-1.5669139623641968,0.16308684647083282,-1.6398627758026123,-0.09247013926506042,-0.03651085123419762,0.05528704449534416,0.12170343101024628,0.0434001125395298,-0.04849516600370407,-0.004319734871387482,-0.0004981644451618195,0.516793,0.311847,0.45148568405566597,0.057747678920545796,0.24095468902134073,1.0725660769112826,-2.5663223356951255,False
136,0,0.11807241290807724,-1.5669139623641968,0.16308684647083282,-1.6398627758026123,-0.09247013926506042,-0.03651085123419762,0.11899100244045258,-1.5668132305145264,0.16553010046482086,-1.6413450241088867,-0.09311774373054504,-0.03657788783311844,0.05520998314023018,0.12194317579269409,0.043352026492357254,-0.048482634127140045,-0.004383102059364319,-0.0005285348743200302,0.516793,0.311847,0.45148568405566597,0.057584844020857284,0.2409741382694081,1.0725194095109662,-2.5763795828957434,False
137,0,0.11899100244045258,-1.5668132305145264,0.16553010046482086,-1.6413450241088867,-0.09311774373054504,-0.03657788783311844,0.12047754228115082,-1.5672727823257446,0.16909965872764587,-1.6432738304138184,-0.09431716054677963,-0.036831893026828766,0.05498239025473595,0.12228260934352875,0.04342616721987724,-0.048584066331386566,-0.004547059535980225,-0.0006004069000482559,0.516793,0.311847,0.45148568405566597,0.05871335207821732,0.2411435317797463,1.0723723700575443,-2.5855786686409914,False
138,0,0.12047754228115082,-1.5672727823257446,0.16909965872764587,-1.6432738304138184,-0.09431716054677963,-0.036831893026828766,0.12123577296733856,-1.5655498504638672,0.16933442652225494,-1.6437114477157593,-0.09426276385784149,-0.03686869516968727,0.05461421236395836,0.12273577600717545,0.04354744777083397,-0.048764824867248535,-0.004797577857971191,-0.0007137097418308258,0.516793,0.311847,0.45148568405566597,0.06102563934461226,0.2416116550888529,1.0719662391804354,-2.5938452092936464,False
139,0,0.12123577296733856,-1.5655498504638672,0.16933442652225494,-1.6437114477157593,-0.09426276385784149,-0.03686869516968727,0.122273750603199,-1.565578579902649,0.1722191423177719,-1.6454228162765503,-0.09506142884492874,-0.036958929151296616,0.05463872104883194,0.1228460893034935,0.04345317557454109,-0.04869822412729263,-0.004773788154125214,-0.000711832195520401,0.516793,0.311847,0.45148568405566597,0.06085583485002354,0.24163758543101538,1.071907531946949,-2.6038958620149315,False
140,0,0.122273750603199,-1.565578579902649,0.1722191423177719,-1.6454228162765503,-0.09506142884492874,-0.036958929151296616,0.1233493760228157,-1.565286636352539,0.1745288372039795,-1.6467921733856201,-0.09580381959676743,-0.03710025176405907,0.05436483770608902,0.12323854118585587,0.04354839399456978,-0.04882556200027466,-0.004970520734786987,-0.0007975175976753235,0.516793,0.311847,0.45148568405566597,0.06185793564194822,0.24184009214874683,1.0716930194408656,-2.6131146739139393,False
141,0,0.1233493760228157,-1.565286636352539,0.1745288372039795,-1.6467921733856201,-0.09580381959676743,-0.03710025176405907,0.1238427609205246,-1.566141963005066,0.1759900003671646,-1.647424578666687,-0.09637980163097382,-0.037251099944114685,0.054146457463502884,0.12355995178222656,0.043596748262643814,-0.04891740530729294,-0.005117692053318024,-0.0008645784109830856,0.516793,0.311847,0.45148568405566597,0.06290734063627922,0.24206237014700868,1.071479551282166,-2.622305330597325,False
142,0,0.1238427609205246,-1.566141963005066,0.1759900003671646,-1.647424578666687,-0.09637980163097382,-0.037251099944114685,0.12481801956892014,-1.5654566287994385,0.17809711396694183,-1.6488029956817627,-0.09693502634763718,-0.03731739521026611,0.05397142469882965,0.12371084839105606,0.04367860034108162,-0.04902169853448868,-0.005236200988292694,-0.0009176246821880341,0.516793,0.311847,0.45148568405566597,0.06290734063627922,0.24206237014700868,1.071479551282166,-2.632305330597325,False
143,0,0.12481801956892014,-1.5654566287994385,0.17809711396694183,-1.6488029956817627,-0.09693502634763718,-0.03731739521026611,0.12620528042316437,-1.5644991397857666,0.1802581399679184,-1.650161623954773,-0.09763004630804062,-0.03751657158136368,0.05379205942153931,0.12402968108654022,0.04370824620127678,-0.04908452183008194,-0.005362480878829956,-0.0009745936840772629,0.516793,0.311847,0.45148568405566597,0.06290734063627922,0.24206237014700868,1.071479551282166,-2.642305330597325,False
144,0,0.12620528042316437,-1.5644991397857666,0.1802581399679184,-1.650161623954773,-0.09763004630804062,-0.03751657158136368,0.12735161185264587,-1.5637924671173096,0.18194353580474854,-1.6511883735656738,-0.09823618084192276,-0.03771361708641052,0.05360089987516403,0.12435709685087204,0.04370703920722008,-0.04914116859436035,-0.00548475980758667,-0.0010363124310970306,0.516793,0.311847,0.45148568405566597,0.066686282367205,0.2428379655546018,1.0707626225312297,-2.649440634205301,False
145,0,0.12735161185264587,-1.5637924671173096,0.18194353580474854,-1.6511883735656738,-0.09823618084192276,-0.03771361708641052,0.128318652510643,-1.5636664628982544,0.18452830612659454,-1.652742862701416,-0.0989304706454277,-0.03780239075422287,0.053465135395526886,0.12461499869823456,0.04372541978955269,-0.049203284084796906,-0.005587324500083923,-0.0010740328580141068,0.516793,0.311847,0.45148568405566597,0.06664119237826013,0.2428920609221625,1.0707125970568583,-2.65942188269431,False
146,0,0.128318652510643,-1.5636664628982544,0.18452830612659454,-1.652742862701416,-0.0989304706454277,-0.03780239075422287,0.128890261054039,-1.5645519495010376,0.1861528903245926,-1.6534453630447388,-0.09960773587226868,-0.0379800945520401,0.053277235478162766,0.12499179691076279,0.043874431401491165,-0.04934731870889664,-0.005780629813671112,-0.0011197999119758606,0.516793,0.311847,0.45148568405566597,0.067883276835205,0.24309844471746458,1.0705313716569185,-2.6685305024439665,False
147,0,0.128890261054039,-1.5645519495010376,0.1861528903245926,-1.6534453630447388,-0.09960773587226868,-0.0379800945520401,0.12916283309459686,-1.5650066137313843,0.18741749227046967,-1.6541322469711304,-0.09992203116416931,-0.03800193592905998,0.05310676619410515,0.1251659393310547,0.04399902746081352,-0.04947494715452194,-0.005917176604270935,-0.0011652745306491852,0.516793,0.311847,0.45148568405566597,0.067883276835205,0.24309844471746458,1.0705313716569185,-2.6785305024439667,False
148,0,0.12916283309459686,-1.5650066137313843,0.18741749227046967,-1.6541322469711304,-0.09992203116416931,-0.03800193592905998,0.12982848286628723,-1.563858985900879,0.18833237886428833,-1.654883861541748,-0.10013329982757568,-0.03803124278783798,0.052997808903455734,0.12532615661621094,0.044101860374212265,-0.049561046063899994,-0.006023682653903961,-0.0011954735964536667,0.516793,0.311847,0.45148568405566597,0.067883276835205,0.24309844471746458,1.0705313716569185,-2.6885305024439665,False
149,0,0.12982848286628723,-1.563858985900879,0.18833237886428833,-1.654883861541748,-0.10013329982757568,-0.03803124278783798,0.13057047128677368,-1.5650475025177002,0.1904609054327011,-1.6558059453964233,-0.10101635754108429,-0.03825864940881729,0.0529731810092926,0.12551522254943848,0.04409973695874214,-0.04957430809736252,-0.006068386137485504,-0.0011956263333559036,0.516793,0.311847,0.45148568405566597,0.06884156324464666,0.24342752211638194,1.0701372681497174,-2.6976231988523898,False
150,0,0.13057047128677368,-1.5650475025177002,0.1904609054327011,-1.6558059453964233,-0.10101635754108429,-0.03825864940881729,0.13072410225868225,-1.5653018951416016,0.19112226366996765,-1.6561610698699951,-0.10119694471359253,-0.0382726676762104,0.05274900421500206,0.12574265897274017,0.04426433518528938,-0.049742162227630615,-0.0062476471066474915,-0.0012554507702589035,0.516793,0.311847,0.45148568405566597,0.06887514127460283,0.24344559675067087,1.070103642217918,-2.707574844937098,False
151,0,0.13072410225868225,-1.5653018951416016,0.19112226366996765,-1.6561610698699951,-0.10119694471359253,-0.0382726676762104,0.13156713545322418,-1.5644288063049316,0.19261275231838226,-1.6571836471557617,-0.10163247585296631,-0.03835108503699303,0.052690498530864716,0.1258251667022705,0.044317517429590225,-0.049787938594818115,-0.006302788853645325,-0.0012712609022855759,0.516793,0.311847,0.45148568405566597,0.0701120048953834,0.24368998226160624,1.0698860981058045,-2.7166555682615665,False
152,0,0.13156713545322418,-1.5644288063049316,0.19261275231838226,-1.6571836471557617,-0.10163247585296631,-0.03835108503699303,0.13239412009716034,-1.563879132270813,0.19417719542980194,-1.6581631898880005,-0.10217281430959702,-0.038462430238723755,0.05261027812957764,0.12607985734939575,0.04435845836997032,-0.04984638839960098,-0.006394550204277039,-0.0012873560190200806,0.516793,0.311847,0.45148568405566597,0.07111110159463531,0.24390225144897526,1.0696895482944322,-2.7258956170724153,False
153,0,0.13239412009716034,-1.563879132270813,0.19417719542980194,-1.6581631898880005,-0.10217281430959702,-0.038462430238723755,0.13363084197044373,-1.5639071464538574,0.19703231751918793,-1.6597554683685303,-0.10317401587963104,-0.03867630660533905,0.052515700459480286,0.1263270378112793,0.044407498091459274,-0.04993068426847458,-0.006492435932159424,-0.001315070316195488,0.516793,0.311847,0.45148568405566597,0.07111110159463531,0.24390225144897526,1.0696895482944322,-2.7358956170724156,False
154,0,0.13363084197044373,-1.5639071464538574,0.19703231751918793,-1.6597554683685303,-0.10317401587963104,-0.03867630660533905,0.13517999649047852,-1.562965750694275,0.19955995678901672,-1.6612820625305176,-0.10409145057201385,-0.03894168138504028,0.052302926778793335,0.12672582268714905,0.04454774037003517,-0.05011875182390213,-0.006694406270980835,-0.0013821106404066086,0.516793,0.311847,0.45148568405566597,0.07370977537124147,0.24452545512364893,1.0690951580627241,-2.7438484795323723,False
155,0,0.13517999649047852,-1.562965750694275,0.19955995678901672,-1.6612820625305176,-0.10409145057201385,-0.03894168138504028,0.13582859933376312,-1.5615835189819336,0.2000216543674469,-1.6618027687072754,-0.10416486859321594,-0.03898495063185692,0.052143510431051254,0.12712210416793823,0.04461400583386421,-0.05025442689657211,-0.0068534985184669495,-0.0014305990189313889,0.516793,0.311847,0.45148568405566597,0.07496972300572069,0.24476632033280374,1.0689106542659064,-2.7529468808642026,False
156,0,0.13582859933376312,-1.5615835189819336,0.2000216543674469,-1.6618027687072754,-0.10416486859321594,-0.03898495063185692,0.13741301000118256,-1.5622594356536865,0.2040843963623047,-1.6639236211776733,-0.1056620180606842,-0.03931208699941635,0.0521622933447361,0.12725946307182312,0.044567305594682693,-0.05023650825023651,-0.0068600475788116455,-0.0014226678758859634,0.516793,0.311847,0.45148568405566597,0.07605845032342734,0.24502347660008547,1.0686382883697905,-2.762072863856598,False
157,0,0.13741301000118256,-1.5622594356536865,0.2040843963623047,-1.6639236211776733,-0.1056620180606842,-0.03931208699941635,0.1385025829076767,-1.5619124174118042,0.20639359951019287,-1.6652638912200928,-0.10651139914989471,-0.03949428349733353,0.051832981407642365,0.12779070436954498,0.044796671718358994,-0.05052760988473892,-0.007159501314163208,-0.0015274714678525925,0.516793,0.311847,0.45148568405566597,0.07605845032342734,0.24502347660008547,1.0686382883697905,-2.7720728638565983,False
158,0,0.1385025829076767,-1.5619124174118042,0.20639359951019287,-1.6652638912200928,-0.10651139914989471,-0.03949428349733353,0.139623761177063,-1.5616542100906372,0.20889624953269958,-1.6667020320892334,-0.10742151737213135,-0.03968505188822746,0.05167412757873535,0.128129243850708,0.04489106312394142,-0.05066925287246704,-0.0073130205273628235,-0.0015753153711557388,0.516793,0.311847,0.45148568405566597,0.0780518310168815,0.24557827084066222,1.068052746617948,-2.780396687373393,False
159,0,0.139623761177063,-1.5616542100906372,0.20889624953269958,-1.6667020320892334,-0.10742151737213135,-0.03968505188822746,0.14059799909591675,-1.5613800287246704,0.21123917400836945,-1.6680972576141357,-0.10814253240823746,-0.03981439769268036,0.051498811691999435,0.12849107384681702,0.04500105604529381,-0.05082649737596512,-0.007482551038265228,-0.0016287583857774734,0.516793,0.311847,0.45148568405566597,0.07928213770708285,0.2458106913392929,1.0678410277959913,-2.7894945028157787,False
160,0,0.14059799909591675,-1.5613800287246704,0.21123917400836945,-1.6680972576141357,-0.10814253240823746,-0.03981439769268036,0.14162421226501465,-1.5597723722457886,0.21187908947467804,-1.6686594486236572,-0.10852383822202682,-0.039999134838581085,0.051342226564884186,0.12883809208869934,0.04511087015271187,-0.05096854269504547,-0.0076452940702438354,-0.0016785822808742523,0.516793,0.311847,0.45148568405566597,0.08058509686779886,0.24615322223867114,1.0675472896660843,-2.798475306844795,False
161,0,0.14162421226501465,-1.5597723722457886,0.21187908947467804,-1.6686594486236572,-0.10852383822202682,-0.039999134838581085,0.14251916110515594,-1.5612494945526123,0.21439406275749207,-1.6697028875350952,-0.10961885750293732,-0.04029567167162895,0.05135167017579079,0.12899746000766754,0.04504698887467384,-0.05096563696861267,-0.007644481956958771,-0.001663312315940857,0.516793,0.311847,0.45148568405566597,0.08038588742610228,0.24617705069861887,1.0674897240548158,-2.8085411459966965,False
162,0,0.14251916110515594,-1.5612494945526123,0.21439406275749207,-1.6697028875350952,-0.10961885750293732,-0.04029567167162895,0.14357972145080566,-1.5608115196228027,0.21630041301250458,-1.670804738998413,-0.11037808656692505,-0.04049401357769966,0.05115354061126709,0.1292603611946106,0.04525378718972206,-0.05120304971933365,-0.007801540195941925,-0.0016898661851882935,0.516793,0.311847,0.45148568405566597,0.08038588742610228,0.24617705069861887,1.0674897240548158,-2.8185411459966967,False
163,0,0.14357972145080566,-1.5608115196228027,0.21630041301250458,-1.670804738998413,-0.11037808656692505,-0.04049401357769966,0.14454470574855804,-1.5606153011322021,0.21814531087875366,-1.6718227863311768,-0.11112932860851288,-0.04069465026259422,0.0510682538151741,0.12954121828079224,0.04533800110220909,-0.051330581307411194,-0.007886387407779694,-0.001683862879872322,0.516793,0.311847,0.45148568405566597,0.08038588742610228,0.24617705069861887,1.0674897240548158,-2.828541145996697,False
164,0,0.14454470574855804,-1.5606153011322021,0.21814531087875366,-1.6718227863311768,-0.11112932860851288,-0.04069465026259422,0.14578308165073395,-1.5586414337158203,0.22008979320526123,-1.673298716545105,-0.1117509976029396,-0.04080551862716675,0.05097624659538269,0.1298006922006607,0.04543038085103035,-0.0514620766043663,-0.007973730564117432,-0.0016819611191749573,0.516793,0.311847,0.45148568405566597,0.08433985567951337,0.24715222789439514,1.066563914152573,-2.8354320555348336,False
165,0,0.14578308165073395,-1.5586414337158203,0.22008979320526123,-1.673298716545105,-0.1117509976029396,-0.04080551862716675,0.14637424051761627,-1.5594823360443115,0.2216041535139084,-1.6739075183868408,-0.11248903721570969,-0.04101306200027466,0.0509597584605217,0.1301725208759308,0.04545775428414345,-0.051538579165935516,-0.008031494915485382,-0.0016504060477018356,0.516793,0.311847,0.45148568405566597,0.08417363830969121,0.24719076670911735,1.0664962150241037,-2.8454688451040084,False
166,0,0.14637424051761627,-1.5594823360443115,0.2216041535139084,-1.6739075183868408,-0.11248903721570969,-0.04101306200027466,0.1473686397075653,-1.5589606761932373,0.22337447106838226,-1.6749582290649414,-0.11317750811576843,-0.04119032993912697,0.05083945021033287,0.13032889366149902,0.045575711876153946,-0.05168274790048599,-0.008121609687805176,-0.0016647037118673325,0.516793,0.311847,0.45148568405566597,0.08519953883010661,0.24745532629985725,1.0662464032972672,-2.854654876101918,False
167,0,0.1473686397075653,-1.5589606761932373,0.22337447106838226,-1.6749582290649414,-0.11317750811576843,-0.04119032993912697,0.14877605438232422,-1.5587185621261597,0.2254473865032196,-1.6759650707244873,-0.1143808662891388,-0.041580699384212494,0.0507657453417778,0.13059639930725098,0.04564986005425453,-0.05179702490568161,-0.008198633790016174,-0.0016573462635278702,0.516793,0.311847,0.45148568405566597,0.08519953883010661,0.24745532629985725,1.0662464032972672,-2.864654876101918,False
168,0,0.14877605438232422,-1.5587185621261597,0.2254473865032196,-1.6759650707244873,-0.1143808662891388,-0.041580699384212494,0.1493995487689972,-1.559686303138733,0.22709670662879944,-1.6766365766525269,-0.11516285687685013,-0.04179029539227486,0.050647057592868805,0.13086886703968048,0.04572756960988045,-0.05195636302232742,-0.008280977606773376,-0.001651747152209282,0.516793,0.311847,0.45148568405566597,0.08519953883010661,0.24745532629985725,1.0662464032972672,-2.8746548761019177,False
169,0,0.1493995487689972,-1.559686303138733,0.22709670662879944,-1.6766365766525269,-0.11516285687685013,-0.04179029539227486,0.15073347091674805,-1.5575512647628784,0.22881093621253967,-1.6779769659042358,-0.11573431640863419,-0.04194030910730362,0.050509802997112274,0.1310366690158844,0.04586014524102211,-0.05211781710386276,-0.008381478488445282,-0.0016643460839986801,0.516793,0.311847,0.45148568405566597,0.08815833411829095,0.24828712694902488,1.0654769665075083,-2.882265385352289,False
170,0,0.15073347091674805,-1.5575512647628784,0.22881093621253967,-1.6779769659042358,-0.11573431640863419,-0.04194030910730362,0.15166889131069183,-1.5574136972427368,0.23091436922550201,-1.6791428327560425,-0.1165974959731102,-0.042127903550863266,0.05051084980368614,0.13138270378112793,0.045858193188905716,-0.052170999348163605,-0.008422255516052246,-0.0016332697123289108,0.516793,0.311847,0.45148568405566597,0.0890155883709159,0.2485259320477277,1.0652262579501766,-2.891551629869671,False
171,0,0.15166889131069183,-1.5574136972427368,0.23091436922550201,-1.6791428327560425,-0.1165974959731102,-0.042127903550863266,0.15273986756801605,-1.55692458152771,0.23307915031909943,-1.6804028749465942,-0.11747842282056808,-0.04232645034790039,0.05038844421505928,0.13166214525699615,0.04600023850798607,-0.05234505981206894,-0.008504152297973633,-0.0016374271363019943,0.516793,0.311847,0.45148568405566597,0.09017337845109571,0.24882996737774904,1.0649234769610778,-2.900619234938836,False
172,0,0.15273986756801605,-1.55692458152771,0.23307915031909943,-1.6804028749465942,-0.11747842282056808,-0.04232645034790039,0.15324550867080688,-1.5576846599578857,0.23432700335979462,-1.6808795928955078,-0.11812297254800797,-0.04251132160425186,0.05027720704674721,0.13196390867233276,0.0461418516933918,-0.052516572177410126,-0.008568212389945984,-0.0016469303518533707,0.516793,0.311847,0.45148568405566597,0.09017337845109571,0.24882996737774904,1.0649234769610778,-2.910619234938836,False
173,0,0.15324550867080688,-1.5576846599578857,0.23432700335979462,-1.6808795928955078,-0.11812297254800797,-0.04251132160425186,0.15510335564613342,-1.5567702054977417,0.23764003813266754,-1.6828111410140991,-0.11950281262397766,-0.04286809265613556,0.0501522496342659,0.13207587599754333,0.04625735059380531,-0.05264873802661896,-0.008625246584415436,-0.001658942550420761,0.516793,0.311847,0.45148568405566597,0.09017337845109571,0.24882996737774904,1.0649234769610778,-2.9206192349388362,False
174,0,0.15510335564613342,-1.5567702054977417,0.23764003813266754,-1.6828111410140991,-0.11950281262397766,-0.04286809265613556,0.15684819221496582,-1.5555158853530884,0.2408391237258911,-1.6847506761550903,-0.12085217982530594,-0.0431906059384346,0.049942128360271454,0.1325344741344452,0.04645311459898949,-0.05285094678401947,-0.00867597758769989,-0.0016639884561300278,0.516793,0.311847,0.45148568405566597,0.09397649455728652,0.2499211257483234,1.0638497959158908,-2.9274901279225745,False
175,0,0.15684819221496582,-1.5555158853530884,0.2408391237258911,-1.6847506761550903,-0.12085217982530594,-0.0431906059384346,0.15826140344142914,-1.5558310747146606,0.24256722629070282,-1.685360312461853,-0.1222010999917984,-0.04368440434336662,0.0497603714466095,0.13299603760242462,0.046631913632154465,-0.05303485691547394,-0.008714944124221802,-0.0016656387597322464,0.516793,0.311847,0.45148568405566597,0.09423009119926463,0.250134046247207,1.063671129407362,-2.937182389973926,False
176,0,0.15826140344142914,-1.5558310747146606,0.24256722629070282,-1.685360312461853,-0.1222010999917984,-0.04368440434336662,0.15884143114089966,-1.5549192428588867,0.2433081716299057,-1.6859394311904907,-0.12247077375650406,-0.04374663904309273,0.04957878962159157,0.1331586241722107,0.04672158136963844,-0.05317427217960358,-0.008725292980670929,-0.001673361286520958,0.516793,0.311847,0.45148568405566597,0.09423009119926463,0.250134046247207,1.063671129407362,-2.947182389973926,False
177,0,0.15884143114089966,-1.5549192428588867,0.2433081716299057,-1.6859394311904907,-0.12247077375650406,-0.04374663904309273,0.15997517108917236,-1.5545690059661865,0.2458726018667221,-1.6873983144760132,-0.12350369989871979,-0.04396585375070572,0.04956577718257904,0.13329936563968658,0.04673638567328453,-0.0531926304101944,-0.008715592324733734,-0.0016692634671926498,0.516793,0.311847,0.45148568405566597,0.09423009119926463,0.250134046247207,1.063671129407362,-2.9571823899739256,False
178,0,0.15997517108917236,-1.5545690059661865,0.2458726018667221,-1.6873983144760132,-0.12350369989871979,-0.04396585375070572,0.1610608547925949,-1.554153561592102,0.24815265834331512,-1.6886926889419556,-0.12445397675037384,-0.04418829083442688,0.04947595298290253,0.13355931639671326,0.04692215099930763,-0.053369879722595215,-0.008697129786014557,-0.001683620736002922,0.516793,0.311847,0.45148568405566597,0.0975471837591591,0.251021641570697,1.0627879545206764,-2.9645104164828036,False
179,0,0.1610608547925949,-1.554153561592102,0.24815265834331512,-1.6886926889419556,-0.12445397675037384,-0.04418829083442688,0.1610608547925949,-1.554153561592102,0.24815265834331512,-1.6886926889419556,-0.12445397675037384,-0.04418829083442688,0.04942241683602333,0.13377198576927185,0.047082845121622086,-0.05352526158094406,-0.008652634918689728,-0.0016995389014482498,0.516793,0.311847,0.45148568405566597,0.0975471837591591,0.251021641570697,1.0627879545206764,-2.974510416482804,False
180,0,0.1610608547925949,-1.554153561592102,0.24815265834331512,-1.6886926889419556,-0.12445397675037384,-0.04418829083442688,0.16229160130023956,-1.5558786392211914,0.2511630654335022,-1.6898607015609741,-0.12607575953006744,-0.044626303017139435,0.04942241683602333,0.13377198576927185,0.047082845121622086,-0.05352526158094406,-0.008652634918689728,-0.0016995389014482498,0.516793,0.311847,0.45148568405566597,0.09724404517475964,0.2510887516962884,1.0626731971909145,-2.9845815542957057,False
181,0,0.16229160130023956,-1.5558786392211914,0.2511630654335022,-1.6898607015609741,-0.12607575953006744,-0.044626303017139435,0.1635049283504486,-1.5534547567367554,0.2526565194129944,-1.6911431550979614,-0.1265478879213333,-0.04474503546953201,0.04919392615556717,0.1339477002620697,0.047361064702272415,-0.053814999759197235,-0.008672043681144714,-0.0017305966466665268,0.516793,0.311847,0.45148568405566597,0.09963704584345803,0.2516788919187274,1.0621387235100286,-2.9927464188463118,False
182,0,0.1635049283504486,-1.5534547567367554,0.2526565194129944,-1.6911431550979614,-0.1265478879213333,-0.04474503546953201,0.16501747071743011,-1.5540984869003296,0.2562689185142517,-1.6929032802581787,-0.1282282918691635,-0.04514862596988678,0.04929709434509277,0.1341751217842102,0.04738489165902138,-0.05383682996034622,-0.008549444377422333,-0.001732848584651947,0.516793,0.311847,0.45148568405566597,0.09963704584345803,0.2516788919187274,1.0621387235100286,-3.002746418846312,False
183,0,0.16501747071743011,-1.5540984869003296,0.2562689185142517,-1.6929032802581787,-0.1282282918691635,-0.04514862596988678,0.1655673384666443,-1.5528374910354614,0.25721660256385803,-1.6937026977539062,-0.12847746908664703,-0.045169468969106674,0.049124546349048615,0.1344546377658844,0.04768199101090431,-0.054131895303726196,-0.008528023958206177,-0.0017631184309720993,0.516793,0.311847,0.45148568405566597,0.09963704584345803,0.2516788919187274,1.0621387235100286,-3.0127464188463122,False
184,0,0.1655673384666443,-1.5528374910354614,0.25721660256385803,-1.6937026977539062,-0.12847746908664703,-0.045169468969106674,0.16667965054512024,-1.552524447441101,0.25973156094551086,-1.695116639137268,-0.12950365245342255,-0.04539674520492554,0.04917720705270767,0.1345931887626648,0.047715846449136734,-0.05415654927492142,-0.008469946682453156,-0.0017643086612224579,0.516793,0.311847,0.45148568405566597,0.10288316362226169,0.25263646725607364,1.0611265955773606,-3.020014133133796,False
185,0,0.16667965054512024,-1.552524447441101,0.25973156094551086,-1.695116639137268,-0.12950365245342255,-0.04539674520492554,0.16832275688648224,-1.5528769493103027,0.2634980082511902,-1.697004795074463,-0.13124266266822815,-0.045820049941539764,0.049110762774944305,0.13482385873794556,0.04790159687399864,-0.054333291947841644,-0.008430227637290955,-0.001782165840268135,0.516793,0.311847,0.45148568405566597,0.10407356964721179,0.252977993382726,1.0607684020237995,-3.0290253325016665,False
186,0,0.16832275688648224,-1.5528769493103027,0.2634980082511902,-1.697004795074463,-0.13124266266822815,-0.045820049941539764,0.16964639723300934,-1.5523064136505127,0.2671612799167633,-1.6991360187530518,-0.13257859647274017,-0.04605835676193237,0.04896429553627968,0.13512346148490906,0.04820633307099342,-0.05462075024843216,-0.008372142910957336,-0.0018170606344938278,0.516793,0.311847,0.45148568405566597,0.10560627151950813,0.25341644065323127,1.0602773144880153,-3.03772897824354,False
187,0,0.16964639723300934,-1.5523064136505127,0.2671612799167633,-1.6991360187530518,-0.13257859647274017,-0.04605835676193237,0.1701684147119522,-1.5516825914382935,0.2673707902431488,-1.699310541152954,-0.1327919214963913,-0.04616662859916687,0.04890787973999977,0.1354658007621765,0.04850271716713905,-0.05485983192920685,-0.008288607001304626,-0.0018491744995117188,0.516793,0.311847,0.45148568405566597,0.10560627151950813,0.25341644065323127,1.0602773144880153,-3.0477289782435397,False
188,0,0.1701684147119522,-1.5516825914382935,0.2673707902431488,-1.699310541152954,-0.1327919214963913,-0.04616662859916687,0.17131854593753815,-1.551225185394287,0.2699524760246277,-1.7007744312286377,-0.13389505445957184,-0.04640568420290947,0.04893386363983154,0.13549897074699402,0.04847976937890053,-0.054850198328495026,-0.008236952126026154,-0.0018504466861486435,0.516793,0.311847,0.45148568405566597,0.10560627151950813,0.25341644065323127,1.0602773144880153,-3.0577289782435395,False
189,0,0.17131854593753815,-1.551225185394287,0.2699524760246277,-1.7007744312286377,-0.13389505445957184,-0.04640568420290947,0.17131854593753815,-1.551225185394287,0.2699524760246277,-1.7007744312286377,-0.13389505445957184,-0.04640568420290947,0.04888857901096344,0.13573512434959412,0.048672210425138474,-0.055018097162246704,-0.00816238671541214,-0.001872766762971878,0.516793,0.311847,0.45148568405566597,0.10560627151950813,0.25341644065323127,1.0602773144880153,-3.0677289782435397,False
190,0,0.17131854593753815,-1.551225185394287,0.2699524760246277,-1.7007744312286377,-0.13389505445957184,-0.04640568420290947,0.17131854593753815,-1.551225185394287,0.2699524760246277,-1.7007744312286377,-0.13389505445957184,-0.04640568420290947,0.04888857901096344,0.13573512434959412,0.048672210425138474,-0.055018097162246704,-0.00816238671541214,-0.001872766762971878,0.516793,0.311847,0.45148568405566597,0.10560627151950813,0.25341644065323127,1.0602773144880153,-3.07772897824354,False
191,0,0.17131854593753815,-1.551225185394287,0.2699524760246277,-1.7007744312286377,-0.13389505445957184,-0.04640568420290947,0.17131854593753815,-1.551225185394287,0.2699524760246277,-1.7007744312286377,-0.13389505445957184,-0.04640568420290947,0.04888857901096344,0.13573512434959412,0.048672210425138474,-0.055018097162246704,-0.00816238671541214,-0.001872766762971878,0.516793,0.311847,0.45148568405566597,0.10560627151950813,0.25341644065323127,1.0602773144880153,-3.0877289782435398,False
192,0,0.17131854593753815,-1.551225185394287,0.2699524760246277,-1.7007744312286377,-0.13389505445957184,-0.04640568420290947,0.17186909914016724,-1.5519719123840332,0.271292120218277,-1.7012853622436523,-0.13465328514575958,-0.046605195850133896,0.04888857901096344,0.13573512434959412,0.048672210425138474,-0.055018097162246704,-0.00816238671541214,-0.001872766762971878,0.516793,0.311847,0.45148568405566597,0.10736630861531563,0.2541044157979233,1.0595420315377224,-3.0960859798188562,False
193,0,0.17186909914016724,-1.5519719123840332,0.271292120218277,-1.7012853622436523,-0.13465328514575958,-0.046605195850133896,0.17298023402690887,-1.551547884941101,0.2735602557659149,-1.702541470527649,-0.13570724427700043,-0.046859260648489,0.048788443207740784,0.1358121931552887,0.048794809728860855,-0.05514610558748245,-0.008165530860424042,-0.0018866267055273056,0.516793,0.311847,0.45148568405566597,0.10849744548505733,0.25445618155931343,1.05917669312812,-3.1051268511234458,False
194,0,0.17298023402690887,-1.551547884941101,0.2735602557659149,-1.702541470527649,-0.13570724427700043,-0.046859260648489,0.17464885115623474,-1.5506036281585693,0.2763884663581848,-1.7041845321655273,-0.13709834218025208,-0.047204092144966125,0.048745255917310715,0.1360161304473877,0.04895632341504097,-0.05529376119375229,-0.008093029260635376,-0.00190645270049572,0.516793,0.311847,0.45148568405566597,0.11020051822790118,0.2549931798403836,1.0586541530636686,-3.1137065753372557,False
195,0,0.17464885115623474,-1.5506036281585693,0.2763884663581848,-1.7041845321655273,-0.13709834218025208,-0.047204092144966125,0.1765488237142563,-1.5501883029937744,0.28002798557281494,-1.7060892581939697,-0.13888049125671387,-0.047676343470811844,0.048714205622673035,0.1362837255001068,0.04913068190217018,-0.05546116828918457,-0.007969632744789124,-0.0019293949007987976,0.516793,0.311847,0.45148568405566597,0.11020051822790118,0.2549931798403836,1.0586541530636686,-3.123706575337256,False
196,0,0.1765488237142563,-1.5501883029937744,0.28002798557281494,-1.7060892581939697,-0.13888049125671387,-0.047676343470811844,0.17838247120380402,-1.5496151447296143,0.2833757698535919,-1.7078845500946045,-0.1405491828918457,-0.04811286926269531,0.04861924797296524,0.13659358024597168,0.049389321357011795,-0.055708788335323334,-0.007859930396080017,-0.001962771639227867,0.516793,0.311847,0.45148568405566597,0.11334463233458873,0.25609319354976234,1.057535037747441,-3.1309532575170556,False
197,0,0.17838247120380402,-1.5496151447296143,0.2833757698535919,-1.7078845500946045,-0.1405491828918457,-0.04811286926269531,0.18021659553050995,-1.549039602279663,0.2868209481239319,-1.7097320556640625,-0.14224673807621002,-0.048552025109529495,0.048543624579906464,0.13688576221466064,0.049616847187280655,-0.055929236114025116,-0.007745228707790375,-0.001992383971810341,0.516793,0.311847,0.45148568405566597,0.11496604459286314,0.25665745369270754,1.0569593990113677,-3.139537397676828,False
198,0,0.18021659553050995,-1.549039602279663,0.2868209481239319,-1.7097320556640625,-0.14224673807621002,-0.048552025109529495,0.1813649982213974,-1.547532081604004,0.2887677848339081,-1.711066722869873,-0.14297205209732056,-0.048728108406066895,0.0484662801027298,0.1371867060661316,0.04985449090600014,-0.05615677684545517,-0.007630497217178345,-0.0020229537039995193,0.516793,0.311847,0.45148568405566597,0.11572153390034119,0.2568688766198715,1.0567801779478292,-3.1489561420127963,False
199,0,0.1813649982213974,-1.547532081604004,0.2887677848339081,-1.711066722869873,-0.14297205209732056,-0.048728108406066895,0.18226714432239532,-1.5476690530776978,0.28992849588394165,-1.7115612030029297,-0.14386050403118134,-0.04897927865386009,0.048513807356357574,0.13741043210029602,0.049959804862737656,-0.056235380470752716,-0.0075148120522499084,-0.002038305625319481,0.516793,0.311847,0.45148568405566597,0.11572153390034119,0.2568688766198715,1.0567801779478292,-3.158956142012796,False
