LaRojaPlamya162/UR5-Gazebo/log.csv
timestep,episode,s1,s2,s3,s4,s5,s6,next_s1,next_s2,next_s3,next_s4,next_s5,next_s6,a1,a2,a3,a4,a5,a6,ball_pos_x,ball_pos_y,ball_pos_z,wrist_3_x,wrist_3_y,wrist_3_z,reward,done
0,0,0.06587469577789307,-1.5871000289916992,0.04897676780819893,-1.56730055809021,-0.06867818534374237,-0.0345546193420887,0.06587469577789307,-1.5871000289916992,0.04897676780819893,-1.56730055809021,-0.06867818534374237,-0.0345546193420887,0.05920854210853577,0.10727990418672562,0.03882376477122307,-0.04001488536596298,-0.006323300302028656,0.0009911339730024338,0.415077,0.131945,0.45148568405566597,0.0009680557576331539,0.2332348007558339,1.0788218274255388,-2.0987580111590303,False
1,0,0.06587469577789307,-1.5871000289916992,0.04897676780819893,-1.56730055809021,-0.06867818534374237,-0.0345546193420887,0.06587469577789307,-1.5871000289916992,0.04897676780819893,-1.56730055809021,-0.06867818534374237,-0.0345546193420887,0.05920854210853577,0.10727990418672562,0.03882376477122307,-0.04001488536596298,-0.006323300302028656,0.0009911339730024338,0.415077,0.131945,0.45148568405566597,0.0009680557576331539,0.2332348007558339,1.0788218274255388,-2.10875801115903,False
2,0,0.06587469577789307,-1.5871000289916992,0.04897676780819893,-1.56730055809021,-0.06867818534374237,-0.0345546193420887,0.06587384641170502,-1.5871018171310425,0.048980969935655594,-1.5672987699508667,-0.06867372989654541,-0.03455900400876999,0.05920854210853577,0.10727990418672562,0.03882376477122307,-0.04001488536596298,-0.006323300302028656,0.0009911339730024338,0.415077,0.131945,0.45148568405566597,0.0009680557576331539,0.2332348007558339,1.0788218274255388,-2.1187580111590303,False
3,0,0.06587384641170502,-1.5871018171310425,0.048980969935655594,-1.5672987699508667,-0.06867372989654541,-0.03455900400876999,0.06648925691843033,-1.5860373973846436,0.049382299184799194,-1.5676904916763306,-0.06875962764024734,-0.034566108137369156,0.05920793116092682,0.1072802022099495,0.0388244166970253,-0.04001530259847641,-0.006324000656604767,0.0009903330355882645,0.415077,0.131945,0.45148568405566597,0.0009680557576331539,0.2332348007558339,1.0788218274255388,-2.12875801115903,False
4,0,0.06648925691843033,-1.5860373973846436,0.049382299184799194,-1.5676904916763306,-0.06875962764024734,-0.034566108137369156,0.06649094820022583,-1.586043119430542,0.04938703402876854,-1.5676870346069336,-0.06875791400671005,-0.03457196056842804,0.05927214398980141,0.10736556351184845,0.03878740593791008,-0.040024615824222565,-0.006229065358638763,0.0010281875729560852,0.415077,0.131945,0.45148568405566597,0.001961390685127881,0.23331052287181697,1.0787980621400515,-2.138206590306514,False
5,0,0.06649094820022583,-1.586043119430542,0.04938703402876854,-1.5676870346069336,-0.06875791400671005,-0.03457196056842804,0.0664924904704094,-1.5860484838485718,0.0493917316198349,-1.5676836967468262,-0.06875600665807724,-0.03457767143845558,0.059271153062582016,0.10736571252346039,0.038788046687841415,-0.040025241672992706,-0.0062299370765686035,0.0010271910578012466,0.415077,0.131945,0.45148568405566597,0.0019585177631838164,0.23331037163346605,1.078798016139019,-2.148208097915572,False
6,0,0.0664924904704094,-1.5860484838485718,0.0493917316198349,-1.5676836967468262,-0.06875600665807724,-0.03457767143845558,0.06719765067100525,-1.585077166557312,0.050143931061029434,-1.5682791471481323,-0.06892713904380798,-0.03458482027053833,0.05927020311355591,0.10736584663391113,0.03878866136074066,-0.040025852620601654,-0.006230749189853668,0.0010262280702590942,0.415077,0.131945,0.45148568405566597,0.003008798604756319,0.23339227459817652,1.0787678372964036,-2.157622114537875,False
7,0,0.06719765067100525,-1.585077166557312,0.050143931061029434,-1.5682791471481323,-0.06892713904380798,-0.03458482027053833,0.06724909693002701,-1.5852301120758057,0.050373468548059464,-1.5683841705322266,-0.06897473335266113,-0.03459961339831352,0.05930543318390846,0.10750219225883484,0.03877006471157074,-0.040071479976177216,-0.006131261587142944,0.0010490305721759796,0.415077,0.131945,0.45148568405566597,0.0029637575685877845,0.2333898768443752,1.0787659500174835,-2.1676447377704173,False
8,0,0.06724909693002701,-1.5852301120758057,0.050373468548059464,-1.5683841705322266,-0.06897473335266113,-0.03459961339831352,0.06727820634841919,-1.5853493213653564,0.05054360628128052,-1.5684641599655151,-0.06899983435869217,-0.0346071682870388,0.05927742272615433,0.10753203183412552,0.038786254823207855,-0.04009854048490524,-0.006135404109954834,0.001033661887049675,0.415077,0.131945,0.45148568405566597,0.0029637575685877845,0.2333898768443752,1.0787659500174835,-2.1776447377704176,False
9,0,0.06727820634841919,-1.5853493213653564,0.05054360628128052,-1.5684641599655151,-0.06899983435869217,-0.0346071682870388,0.06731370091438293,-1.5854029655456543,0.05070844665169716,-1.5685526132583618,-0.06903381645679474,-0.03461388871073723,0.05925640091300011,0.10755451023578644,0.03879909962415695,-0.04011838883161545,-0.0061391666531562805,0.0010218489915132523,0.415077,0.131945,0.45148568405566597,0.0029259324443019234,0.2333876994366848,1.078764712368985,-2.1876640038269666,False
10,0,0.06731370091438293,-1.5854029655456543,0.05070844665169716,-1.5685526132583618,-0.06903381645679474,-0.03461388871073723,0.06796374917030334,-1.5845317840576172,0.05133983492851257,-1.569058895111084,-0.06915265321731567,-0.034618280827999115,0.05924114212393761,0.10757754743099213,0.03880885988473892,-0.0401361808180809,-0.006138741970062256,0.0010136179625988007,0.415077,0.131945,0.45148568405566597,0.002944009899468314,0.2333893463310344,1.0787624356672338,-2.1976525016754174,False
11,0,0.06796374917030334,-1.5845317840576172,0.05133983492851257,-1.569058895111084,-0.06915265321731567,-0.034618280827999115,0.06806270778179169,-1.5847454071044922,0.05167407914996147,-1.5692044496536255,-0.06925078481435776,-0.03465058282017708,0.059275999665260315,0.10769407451152802,0.03878990188241005,-0.04017195850610733,-0.006049662828445435,0.0010348279029130936,0.415077,0.131945,0.45148568405566597,0.002944009899468314,0.2333893463310344,1.0787624356672338,-2.207652501675417,False
12,0,0.06806270778179169,-1.5847454071044922,0.05167407914996147,-1.5692044496536255,-0.06925078481435776,-0.03465058282017708,0.0681128054857254,-1.5849124193191528,0.051899004727602005,-1.5693027973175049,-0.0693001002073288,-0.03466779738664627,0.059235382825136185,0.10773641616106033,0.03881135582923889,-0.040212132036685944,-0.006054334342479706,0.0010132361203432083,0.415077,0.131945,0.45148568405566597,0.002944009899468314,0.2333893463310344,1.0787624356672338,-2.2176525016754174,False
13,0,0.0681128054857254,-1.5849124193191528,0.051899004727602005,-1.5693027973175049,-0.0693001002073288,-0.03466779738664627,0.0681128054857254,-1.5849124193191528,0.051899004727602005,-1.5693027973175049,-0.0693001002073288,-0.03466779738664627,0.059206414967775345,0.10776505619287491,0.03882773593068123,-0.04023925960063934,-0.006059542298316956,0.0009973365813493729,0.415077,0.131945,0.45148568405566597,0.002944009899468314,0.2333893463310344,1.0787624356672338,-2.227652501675417,False
14,0,0.0681128054857254,-1.5849124193191528,0.051899004727602005,-1.5693027973175049,-0.0693001002073288,-0.03466779738664627,0.0681871548295021,-1.585106611251831,0.052250009030103683,-1.569474458694458,-0.0693734735250473,-0.03468601778149605,0.059206414967775345,0.10776505619287491,0.03882773593068123,-0.04023925960063934,-0.006059542298316956,0.0009973365813493729,0.415077,0.131945,0.45148568405566597,0.002944009899468314,0.2333893463310344,1.0787624356672338,-2.2376525016754174,False
15,0,0.0681871548295021,-1.585106611251831,0.052250009030103683,-1.569474458694458,-0.0693734735250473,-0.03468601778149605,0.06820947676897049,-1.5851901769638062,0.05235804617404938,-1.5695198774337769,-0.06939680874347687,-0.03469560295343399,0.05916709080338478,0.10781195759773254,0.038851287215948105,-0.04027950018644333,-0.006063453853130341,0.0009759813547134399,0.415077,0.131945,0.45148568405566597,0.003678278710922249,0.23345382790912597,1.0787256821046487,-2.247231382610161,False
16,0,0.06820947676897049,-1.5851901769638062,0.05235804617404938,-1.5695198774337769,-0.06939680874347687,-0.03469560295343399,0.0682297945022583,-1.585256576538086,0.05243483930826187,-1.5695472955703735,-0.0694185197353363,-0.0347067192196846,0.05915284901857376,0.10782549530267715,0.03885938227176666,-0.040292613208293915,-0.006066374480724335,0.0009680129587650299,0.415077,0.131945,0.45148568405566597,0.003649964847649367,0.23345214161128758,1.0787252180232056,-2.2572461606290983,False
17,0,0.0682297945022583,-1.585256576538086,0.05243483930826187,-1.5695472955703735,-0.0694185197353363,-0.0347067192196846,0.06824856996536255,-1.5852962732315063,0.05251229554414749,-1.5695828199386597,-0.06943751871585846,-0.034713756293058395,0.05914190411567688,0.10783454775810242,0.038865089416503906,-0.040302373468875885,-0.0060689374804496765,0.0009619519114494324,0.415077,0.131945,0.45148568405566597,0.0036456053266017982,0.233452080177256,1.0787243139058964,-2.267247772710752,False
18,0,0.06824856996536255,-1.5852962732315063,0.05251229554414749,-1.5695828199386597,-0.06943751871585846,-0.034713756293058395,0.06905008852481842,-1.5845338106155396,0.05361908674240112,-1.570338249206543,-0.06970013678073883,-0.034754205495119095,0.05913332477211952,0.10784465819597244,0.038870036602020264,-0.04031127691268921,-0.006069742143154144,0.0009572971612215042,0.415077,0.131945,0.45148568405566597,0.004703093598178533,0.23353786475140362,1.0786900317656187,-2.276656614669576,False
19,0,0.06905008852481842,-1.5845338106155396,0.05361908674240112,-1.570338249206543,-0.06970013678073883,-0.034754205495119095,0.06954023987054825,-1.5836596488952637,0.054246626794338226,-1.5708950757980347,-0.06974823027849197,-0.0347062423825264,0.05912728235125542,0.10802673548460007,0.03887440636754036,-0.040398649871349335,-0.005974829196929932,0.0009575765579938889,0.415077,0.131945,0.45148568405566597,0.004649092161654872,0.23353544691916459,1.0786871833231426,-2.2866832278248745,False
20,0,0.06954023987054825,-1.5836596488952637,0.054246626794338226,-1.5708950757980347,-0.06974823027849197,-0.0347062423825264,0.0696890652179718,-1.5839492082595825,0.05470247566699982,-1.5710890293121338,-0.06989778578281403,-0.03475611284375191,0.059164855629205704,0.10814816504716873,0.03886313736438751,-0.04043128341436386,-0.005890093743801117,0.000979522243142128,0.415077,0.131945,0.45148568405566597,0.004649092161654872,0.23353544691916459,1.0786871833231426,-2.2966832278248748,False
21,0,0.0696890652179718,-1.5839492082595825,0.05470247566699982,-1.5710890293121338,-0.06989778578281403,-0.03475611284375191,0.06976369768381119,-1.5841829776763916,0.05500856414437294,-1.5712202787399292,-0.06997182220220566,-0.034781280905008316,0.05910930782556534,0.10820519924163818,0.038891296833753586,-0.04048662632703781,-0.005895838141441345,0.0009504538029432297,0.415077,0.131945,0.45148568405566597,0.004649092161654872,0.23353544691916459,1.0786871833231426,-2.3066832278248746,False
22,0,0.06976369768381119,-1.5841829776763916,0.05500856414437294,-1.5712202787399292,-0.06997182220220566,-0.034781280905008316,0.0705040991306305,-1.5832797288894653,0.05607106536626816,-1.5720137357711792,-0.07016561925411224,-0.034773487597703934,0.059069231152534485,0.10824372619390488,0.03891333192586899,-0.0405239537358284,-0.005902975797653198,0.0009286161512136459,0.415077,0.131945,0.45148568405566597,0.006537272641551538,0.23369603827281013,1.0786091246372551,-2.3156171690509546,False
23,0,0.0705040991306305,-1.5832797288894653,0.05607106536626816,-1.5720137357711792,-0.07016561925411224,-0.034773487597703934,0.0706123635172844,-1.5836009979248047,0.05651107057929039,-1.5722072124481201,-0.07027237117290497,-0.0348067544400692,0.05908014997839928,0.10842747986316681,0.03891422599554062,-0.04060043394565582,-0.0058005452156066895,0.0009378585964441299,0.415077,0.131945,0.45148568405566597,0.0064254245121198195,0.23368987539781635,1.078605754757743,-2.3256740421597195,False
24,0,0.0706123635172844,-1.5836009979248047,0.05651107057929039,-1.5722072124481201,-0.07027237117290497,-0.0348067544400692,0.07068990170955658,-1.583842396736145,0.05684215575456619,-1.5723543167114258,-0.07034880667924881,-0.03483042120933533,0.059023868292570114,0.1084834411740303,0.03894530609250069,-0.04065364599227905,-0.0058096423745155334,0.0009074639528989792,0.415077,0.131945,0.45148568405566597,0.006341935966073624,0.23368520801068463,1.0786032123851585,-2.3357164714820513,False
25,0,0.07068990170955658,-1.583842396736145,0.05684215575456619,-1.5723543167114258,-0.07034880667924881,-0.03483042120933533,0.07154562324285507,-1.583107829093933,0.05817877873778343,-1.5732558965682983,-0.0706629529595375,-0.034864313900470734,0.05898164585232735,0.10852574557065964,0.03896893188357353,-0.04069356620311737,-0.005816623568534851,0.0008845292031764984,0.415077,0.131945,0.45148568405566597,0.0075363934764554295,0.23378598051911964,1.0785604784494105,-2.3450489589059966,False
26,0,0.07154562324285507,-1.583107829093933,0.05817877873778343,-1.5732558965682983,-0.0706629529595375,-0.034864313900470734,0.07154562324285507,-1.583107829093933,0.05817877873778343,-1.5732558965682983,-0.0706629529595375,-0.034864313900470734,0.0589589849114418,0.10874245315790176,0.03898464888334274,-0.040804266929626465,-0.00571635365486145,0.0008769240230321884,0.415077,0.131945,0.45148568405566597,0.0074098446468070685,0.23377920587849915,1.0785562381945402,-2.3551128600127997,False
27,0,0.07154562324285507,-1.583107829093933,0.05817877873778343,-1.5732558965682983,-0.0706629529595375,-0.034864313900470734,0.07166030257940292,-1.5832843780517578,0.05870905518531799,-1.5735539197921753,-0.0707659125328064,-0.03486816585063934,0.0589589849114418,0.10874245315790176,0.03898464888334274,-0.040804266929626465,-0.00571635365486145,0.0008769240230321884,0.415077,0.131945,0.45148568405566597,0.0074098446468070685,0.23377920587849915,1.0785562381945402,-2.3651128600128,False
28,0,0.07166030257940292,-1.5832843780517578,0.05870905518531799,-1.5735539197921753,-0.0707659125328064,-0.03486816585063934,0.07245383411645889,-1.5824394226074219,0.059814807027578354,-1.5743393898010254,-0.07101944088935852,-0.03489251062273979,0.0589103065431118,0.10881809890270233,0.03901594877243042,-0.04086107760667801,-0.005713425576686859,0.0008514281362295151,0.415077,0.131945,0.45148568405566597,0.0074098446468070685,0.23377920587849915,1.0785562381945402,-2.3751128600128,False
29,0,0.07245383411645889,-1.5824394226074219,0.059814807027578354,-1.5743393898010254,-0.07101944088935852,-0.03489251062273979,0.07271826267242432,-1.5830435752868652,0.06084340810775757,-1.5748291015625,-0.07127738744020462,-0.03495468571782112,0.05891217663884163,0.1090037003159523,0.03901785984635353,-0.04094553738832474,-0.0056128427386283875,0.0008564013987779617,0.415077,0.131945,0.45148568405566597,0.0074098446468070685,0.23377920587849915,1.0785562381945402,-2.3851128600128,False
30,0,0.07271826267242432,-1.5830435752868652,0.06084340810775757,-1.5748291015625,-0.07127738744020462,-0.03495468571782112,0.07342511415481567,-1.5819345712661743,0.061577990651130676,-1.5754460096359253,-0.0714464783668518,-0.03495649993419647,0.05879344791173935,0.10913901031017303,0.039084527641534805,-0.041065774857997894,-0.005623526871204376,0.0007934756577014923,0.415077,0.131945,0.45148568405566597,0.00956799107709829,0.23397823303658852,1.078444874076875,-2.3938837598439813,False
31,0,0.07342511415481567,-1.5819345712661743,0.061577990651130676,-1.5754460096359253,-0.0714464783668518,-0.03495649993419647,0.07408919185400009,-1.5814037322998047,0.0628938153386116,-1.5763494968414307,-0.07166584581136703,-0.034944649785757065,0.058842018246650696,0.10927675664424896,0.03906020149588585,-0.04110579937696457,-0.0055158138275146484,0.0008236393332481384,0.415077,0.131945,0.45148568405566597,0.010474094685690136,0.23406175776685448,1.0783980771285304,-2.4033689461939267,False
32,0,0.07408919185400009,-1.5814037322998047,0.0628938153386116,-1.5763494968414307,-0.07166584581136703,-0.034944649785757065,0.07444165647029877,-1.5821025371551514,0.06424135714769363,-1.5770108699798584,-0.07201916724443436,-0.035021208226680756,0.05880584940314293,0.10949096083641052,0.03909160941839218,-0.041217051446437836,-0.005434371531009674,0.000806683674454689,0.415077,0.131945,0.45148568405566597,0.010349233678197532,0.2340571101796608,1.078390103915561,-2.4134287688394385,False
33,0,0.07444165647029877,-1.5821025371551514,0.06424135714769363,-1.5770108699798584,-0.07201916724443436,-0.035021208226680756,0.075113944709301,-1.5812249183654785,0.06476114690303802,-1.5774258375167847,-0.07216085493564606,-0.03506195545196533,0.058658093214035034,0.1096704825758934,0.03917495533823967,-0.041372381150722504,-0.005442075431346893,0.000729316845536232,0.415077,0.131945,0.45148568405566597,0.010382749827443924,0.2340622422089625,1.0783799518080128,-2.423403003874403,False
34,0,0.075113944709301,-1.5812249183654785,0.06476114690303802,-1.5774258375167847,-0.07216085493564606,-0.03506195545196533,0.07527851313352585,-1.5815231800079346,0.06553628295660019,-1.5778520107269287,-0.07232275605201721,-0.03507254272699356,0.058699674904346466,0.10976734012365341,0.03914780542254448,-0.041399091482162476,-0.0053553506731987,0.0007538571953773499,0.415077,0.131945,0.45148568405566597,0.010382749827443924,0.2340622422089625,1.0783799518080128,-2.433403003874403,False
35,0,0.07527851313352585,-1.5815231800079346,0.06553628295660019,-1.5778520107269287,-0.07232275605201721,-0.03507254272699356,0.07605164498090744,-1.5807181596755981,0.06689555197954178,-1.5788325071334839,-0.0725412368774414,-0.03505139425396919,0.05862491950392723,0.10987639427185059,0.03919469192624092,-0.041483715176582336,-0.0053536370396614075,0.0007148180156946182,0.415077,0.131945,0.45148568405566597,0.010382749827443924,0.2340622422089625,1.0783799518080128,-2.443403003874403,False
36,0,0.07605164498090744,-1.5807181596755981,0.06689555197954178,-1.5788325071334839,-0.0725412368774414,-0.03505139425396919,0.07620292156934738,-1.581190824508667,0.0676305890083313,-1.5791912078857422,-0.07268720865249634,-0.0350787490606308,0.05861004441976547,0.11010491102933884,0.039215315133333206,-0.04159083217382431,-0.005250170826911926,0.0007097721099853516,0.415077,0.131945,0.45148568405566597,0.0123124795100817,0.23425415462123905,1.0782627655194774,-2.4522962310387784,False
37,0,0.07620292156934738,-1.581190824508667,0.0676305890083313,-1.5791912078857422,-0.07268720865249634,-0.0350787490606308,0.07694648951292038,-1.580539584159851,0.06894204020500183,-1.580115556716919,-0.07286936789751053,-0.035059962421655655,0.058522772043943405,0.11020281910896301,0.03926686942577362,-0.04167649894952774,-0.0052612051367759705,0.000662660226225853,0.415077,0.131945,0.45148568405566597,0.012233813846116987,0.23425126958515005,1.0782556397721905,-2.462332034283927,False
38,0,0.07694648951292038,-1.580539584159851,0.06894204020500183,-1.580115556716919,-0.07286936789751053,-0.035059962421655655,0.07712243497371674,-1.580851674079895,0.06975387036800385,-1.580560564994812,-0.07304325699806213,-0.03507266193628311,0.05849835276603699,0.11042098701000214,0.0392921008169651,-0.04178253561258316,-0.005169324576854706,0.0006510186940431595,0.415077,0.131945,0.45148568405566597,0.0133455352769299,0.2343592634580942,1.0781927649154586,-2.471699391611032,False
39,0,0.07712243497371674,-1.580851674079895,0.06975387036800385,-1.580560564994812,-0.07304325699806213,-0.03507266193628311,0.07732051610946655,-1.5815285444259644,0.07070014625787735,-1.5810017585754395,-0.07324576377868652,-0.03511996567249298,0.05841996520757675,0.11053502559661865,0.03934092819690704,-0.04187130928039551,-0.005167350172996521,0.0006101951003074646,0.415077,0.131945,0.45148568405566597,0.013120685629628523,0.23434660029343507,1.0781845547961506,-2.481811054352862,False
40,0,0.07732051610946655,-1.5815285444259644,0.07070014625787735,-1.5810017585754395,-0.07324576377868652,-0.03511996567249298,0.07795839011669159,-1.5805144309997559,0.07151812314987183,-1.5816988945007324,-0.07332227379083633,-0.03507755324244499,0.05831757187843323,0.11063970625400543,0.03940847888588905,-0.04197511821985245,-0.005198545753955841,0.0005617532879114151,0.415077,0.131945,0.45148568405566597,0.013120685629628523,0.23434660029343507,1.0781845547961506,-2.491811054352862,False
41,0,0.07795839011669159,-1.5805144309997559,0.07151812314987183,-1.5816988945007324,-0.07332227379083633,-0.03507755324244499,0.07876172661781311,-1.580411434173584,0.07351057231426239,-1.5829347372055054,-0.07368291169404984,-0.0350961796939373,0.0583638958632946,0.11078493297100067,0.03939761966466904,-0.0420176163315773,-0.005102671682834625,0.0005916096270084381,0.415077,0.131945,0.45148568405566597,0.013120685629628523,0.23434660029343507,1.0781845547961506,-2.501811054352862,False
42,0,0.07876172661781311,-1.580411434173584,0.07351057231426239,-1.5829347372055054,-0.07368291169404984,-0.0350961796939373,0.07933799922466278,-1.579355239868164,0.0742301493883133,-1.5835747718811035,-0.07379386574029922,-0.03506056219339371,0.058283716440200806,0.11104881018400192,0.03947474807500839,-0.04218808561563492,-0.0050585269927978516,0.0005658678710460663,0.415077,0.131945,0.45148568405566597,0.016158035668641463,0.23464764701396185,1.0780113623387069,-2.5100873761014504,False
43,0,0.07933799922466278,-1.579355239868164,0.0742301493883133,-1.5835747718811035,-0.07379386574029922,-0.03506056219339371,0.08008681982755661,-1.5788878202438354,0.07585780322551727,-1.5846633911132812,-0.0740765705704689,-0.0350535623729229,0.05833585187792778,0.11118143796920776,0.039457663893699646,-0.04222320765256882,-0.004961922764778137,0.0005992911756038666,0.415077,0.131945,0.45148568405566597,0.017125154187508096,0.23474931601811608,1.077943986999162,-2.5195309004134483,False
44,0,0.08008681982755661,-1.5788878202438354,0.07585780322551727,-1.5846633911132812,-0.0740765705704689,-0.0350535623729229,0.08028477430343628,-1.5794717073440552,0.07676954567432404,-1.5851047039031982,-0.07426928728818893,-0.03509199991822243,0.05830109491944313,0.11141163110733032,0.03950440511107445,-0.04235232621431351,-0.004895724356174469,0.0005944836884737015,0.415077,0.131945,0.45148568405566597,0.016967144080489965,0.23474230014211858,1.0779335947686015,-2.529605185654738,False
45,0,0.08028477430343628,-1.5794717073440552,0.07676954567432404,-1.5851047039031982,-0.07426928728818893,-0.03509199991822243,0.08045478165149689,-1.579911708831787,0.07750947773456573,-1.585469365119934,-0.074433833360672,-0.03512180969119072,0.05821365863084793,0.11150869727134705,0.03956667706370354,-0.04244726896286011,-0.0049250200390815735,0.000556478276848793,0.415077,0.131945,0.45148568405566597,0.016867815099000663,0.23473916886820986,1.0779238557583206,-2.5396493917822314,False
46,0,0.08045478165149689,-1.579911708831787,0.07750947773456573,-1.585469365119934,-0.074433833360672,-0.03512180969119072,0.08056361973285675,-1.580267310142517,0.07800071686506271,-1.5856952667236328,-0.07454695552587509,-0.035149455070495605,0.058145150542259216,0.11158864200115204,0.03961540386080742,-0.04252377897500992,-0.004945829510688782,0.0005272179841995239,0.415077,0.131945,0.45148568405566597,0.016746820531411376,0.23473245604337223,1.0779193617242535,-2.549709016783825,False
47,0,0.08056361973285675,-1.580267310142517,0.07800071686506271,-1.5856952667236328,-0.07454695552587509,-0.035149455070495605,0.08064418286085129,-1.5805461406707764,0.07835210114717484,-1.5858492851257324,-0.07463375478982925,-0.03517380356788635,0.058094605803489685,0.11163897067308426,0.03965001925826073,-0.04257636517286301,-0.004964463412761688,0.0005050003528594971,0.415077,0.131945,0.45148568405566597,0.016746820531411376,0.23473245604337223,1.0779193617242535,-2.5597090167838252,False
48,0,0.08064418286085129,-1.5805461406707764,0.07835210114717484,-1.5858492851257324,-0.07463375478982925,-0.03517380356788635,0.08131122589111328,-1.5793737173080444,0.07926318794488907,-1.586639165878296,-0.07474429905414581,-0.035125527530908585,0.05805633217096329,0.1116737499833107,0.039675336331129074,-0.04261481761932373,-0.004979431629180908,0.0004880707710981369,0.415077,0.131945,0.45148568405566597,0.016746820531411376,0.23473245604337223,1.0779193617242535,-2.569709016783825,False
49,0,0.08131122589111328,-1.5793737173080444,0.07926318794488907,-1.586639165878296,-0.07474429905414581,-0.035125527530908585,0.08143793046474457,-1.5797884464263916,0.07983705401420593,-1.5869032144546509,-0.07487214356660843,-0.0351572223007679,0.05811045691370964,0.11183702945709229,0.03966270014643669,-0.042662300169467926,-0.0048709288239479065,0.0005232114344835281,0.415077,0.131945,0.45148568405566597,0.016746820531411376,0.23473245604337223,1.0779193617242535,-2.5797090167838252,False
50,0,0.08143793046474457,-1.5797884464263916,0.07983705401420593,-1.5869032144546509,-0.07487214356660843,-0.0351572223007679,0.08286836743354797,-1.5779972076416016,0.08203193545341492,-1.588573932647705,-0.07519715279340744,-0.035128314048051834,0.058050401508808136,0.11189301311969757,0.03970394283533096,-0.04272342473268509,-0.004892431199550629,0.0004946552217006683,0.415077,0.131945,0.45148568405566597,0.020026643849017645,0.23508292474602369,1.0777024970166909,-2.5878375139418095,False
51,0,0.08286836743354797,-1.5779972076416016,0.08203193545341492,-1.588573932647705,-0.07519715279340744,-0.035128314048051834,0.08286836743354797,-1.5779972076416016,0.08203193545341492,-1.588573932647705,-0.07519715279340744,-0.035128314048051834,0.05807533860206604,0.11218669265508652,0.03972822055220604,-0.04286403954029083,-0.004704691469669342,0.0004832856357097626,0.415077,0.131945,0.45148568405566597,0.020026643849017645,0.23508292474602369,1.0777024970166909,-2.5978375139418093,False
52,0,0.08286836743354797,-1.5779972076416016,0.08203193545341492,-1.588573932647705,-0.07519715279340744,-0.035128314048051834,0.08317171782255173,-1.5785753726959229,0.08293969929218292,-1.5889623165130615,-0.0755109190940857,-0.035225704312324524,0.05807533860206604,0.11218669265508652,0.03972822055220604,-0.04286403954029083,-0.004704691469669342,0.0004832856357097626,0.415077,0.131945,0.45148568405566597,0.019864265535773334,0.2350790364309575,1.0776899705139327,-2.6079123073435677,False
53,0,0.08317171782255173,-1.5785753726959229,0.08293969929218292,-1.5889623165130615,-0.0755109190940857,-0.035225704312324524,0.08346639573574066,-1.5793542861938477,0.0841519683599472,-1.5895360708236694,-0.075807124376297,-0.035292014479637146,0.0579802505671978,0.11226589232683182,0.039785366505384445,-0.04296308010816574,-0.004729479551315308,0.0004353281110525131,0.415077,0.131945,0.45148568405566597,0.019864265535773334,0.2350790364309575,1.0776899705139327,-2.617912307343568,False
54,0,0.08346639573574066,-1.5793542861938477,0.0841519683599472,-1.5895360708236694,-0.075807124376297,-0.035292014479637146,0.08578367531299591,-1.5768975019454956,0.08732647448778152,-1.5918089151382446,-0.07650568336248398,-0.03539412096142769,0.05785716325044632,0.11237887293100357,0.039869312196969986,-0.043090417981147766,-0.004765838384628296,0.00037215836346149445,0.415077,0.131945,0.45148568405566597,0.019768548842760445,0.235076718145809,1.077679443565961,-2.6279537727986395,False
55,0,0.08578367531299591,-1.5768975019454956,0.08732647448778152,-1.5918089151382446,-0.07650568336248398,-0.03539412096142769,0.08620350062847137,-1.575918436050415,0.08782562613487244,-1.59232759475708,-0.07649936527013779,-0.03533802554011345,0.05787528306245804,0.11278444528579712,0.039893560111522675,-0.04330669343471527,-0.004497706890106201,0.00034819915890693665,0.415077,0.131945,0.45148568405566597,0.02372526683197755,0.2355259338361957,1.077402061516513,-2.635698705339254,False
56,0,0.08620350062847137,-1.575918436050415,0.08782562613487244,-1.59232759475708,-0.07649936527013779,-0.03533802554011345,0.08777308464050293,-1.5749585628509521,0.09042046964168549,-1.5940089225769043,-0.07703564316034317,-0.035439856350421906,0.05792694166302681,0.11287037283182144,0.039879921823740005,-0.04332105815410614,-0.004411786794662476,0.0003644358366727829,0.415077,0.131945,0.45148568405566597,0.024670789858888542,0.23565197128152596,1.0773063710836053,-2.6451398717191963,False
57,0,0.08777308464050293,-1.5749585628509521,0.09042046964168549,-1.5940089225769043,-0.07703564316034317,-0.035439856350421906,0.0880613625049591,-1.5755088329315186,0.0921998918056488,-1.5950751304626465,-0.07727895677089691,-0.03538379445672035,0.05786440894007683,0.1131768748164177,0.039946116507053375,-0.043523095548152924,-0.0042772963643074036,0.0003104656934738159,0.415077,0.131945,0.45148568405566597,0.025383867687038625,0.2357372597074256,1.077257135946914,-2.6547368731333005,False
58,0,0.0880613625049591,-1.5755088329315186,0.0921998918056488,-1.5950751304626465,-0.07727895677089691,-0.03538379445672035,0.08893779665231705,-1.5749307870864868,0.09414652734994888,-1.5963947772979736,-0.07758696377277374,-0.03536626696586609,0.057734858244657516,0.11337307095527649,0.04006050154566765,-0.04368705302476883,-0.0042910948395729065,0.00024084746837615967,0.415077,0.131945,0.45148568405566597,0.025383867687038625,0.2357372597074256,1.077257135946914,-2.6647368731333003,False
59,0,0.08893779665231705,-1.5749307870864868,0.09414652734994888,-1.5963947772979736,-0.07758696377277374,-0.03536626696586609,0.08922518044710159,-1.5757644176483154,0.09535744041204453,-1.5969536304473877,-0.0778811126947403,-0.03543832153081894,0.05768060311675072,0.11361005902290344,0.04012753441929817,-0.043838344514369965,-0.004207439720630646,0.00019950978457927704,0.415077,0.131945,0.45148568405566597,0.025383867687038625,0.2357372597074256,1.077257135946914,-2.6747368731333,False
60,0,0.08922518044710159,-1.5757644176483154,0.09535744041204453,-1.5969536304473877,-0.0778811126947403,-0.03543832153081894,0.08944272249937057,-1.5764098167419434,0.09624117612838745,-1.5973490476608276,-0.07811006158590317,-0.03549917787313461,0.05755342170596123,0.11372105032205582,0.04021355137228966,-0.04396691173315048,-0.004248261451721191,0.0001342128962278366,0.415077,0.131945,0.45148568405566597,0.026284421695907712,0.23588705217584513,1.0770815291355884,-2.6841390874085347,False
61,0,0.08944272249937057,-1.5764098167419434,0.09624117612838745,-1.5973490476608276,-0.07811006158590317,-0.03549917787313461,0.08960120379924774,-1.5769110918045044,0.09687362611293793,-1.5976217985153198,-0.07828237861394882,-0.03554798290133476,0.05745742842555046,0.1138002946972847,0.04027684032917023,-0.04406227916479111,-0.004280351102352142,8.529052138328552e-05,0.415077,0.131945,0.45148568405566597,0.02608900660686122,0.23587567067760773,1.0770765304230059,-2.6942354494663157,False
62,0,0.08960120379924774,-1.5769110918045044,0.09687362611293793,-1.5976217985153198,-0.07828237861394882,-0.03554798290133476,0.08978630602359772,-1.5775134563446045,0.0977669283747673,-1.598052740097046,-0.07849017530679703,-0.03558569774031639,0.057385560125112534,0.11385548859834671,0.04032299667596817,-0.04413183778524399,-0.004305921494960785,4.8959627747535706e-05,0.415077,0.131945,0.45148568405566597,0.02598941807160972,0.23587026356033694,1.077070516658933,-2.7042817134107224,False
63,0,0.08978630602359772,-1.5775134563446045,0.0977669283747673,-1.598052740097046,-0.07849017530679703,-0.03558569774031639,0.08978630602359772,-1.5775134563446045,0.0977669283747673,-1.598052740097046,-0.07849017530679703,-0.03558569774031639,0.05729345604777336,0.11393951624631882,0.0403871163725853,-0.044225968420505524,-0.0043351054191589355,2.0619481801986694e-06,0.415077,0.131945,0.45148568405566597,0.025910491319909794,0.23586672815927961,1.0770651883712885,-2.7143180184348497,False
64,0,0.08978630602359772,-1.5775134563446045,0.0977669283747673,-1.598052740097046,-0.07849017530679703,-0.03558569774031639,0.08978630602359772,-1.5775134563446045,0.0977669283747673,-1.598052740097046,-0.07849017530679703,-0.03558569774031639,0.05729345604777336,0.11393951624631882,0.0403871163725853,-0.044225968420505524,-0.0043351054191589355,2.0619481801986694e-06,0.415077,0.131945,0.45148568405566597,0.025910491319909794,0.23586672815927961,1.0770651883712885,-2.72431801843485,False
65,0,0.08978630602359772,-1.5775134563446045,0.0977669283747673,-1.598052740097046,-0.07849017530679703,-0.03558569774031639,0.08978630602359772,-1.5775134563446045,0.0977669283747673,-1.598052740097046,-0.07849017530679703,-0.03558569774031639,0.05729345604777336,0.11393951624631882,0.0403871163725853,-0.044225968420505524,-0.0043351054191589355,2.0619481801986694e-06,0.415077,0.131945,0.45148568405566597,0.025910491319909794,0.23586672815927961,1.0770651883712885,-2.7343180184348497,False
66,0,0.08978630602359772,-1.5775134563446045,0.0977669283747673,-1.598052740097046,-0.07849017530679703,-0.03558569774031639,0.09180120378732681,-1.575487732887268,0.10047700256109238,-1.5999609231948853,-0.0791308656334877,-0.03572671115398407,0.05729345604777336,0.11393951624631882,0.0403871163725853,-0.044225968420505524,-0.0043351054191589355,2.0619481801986694e-06,0.415077,0.131945,0.45148568405566597,0.027047412092907445,0.2360057850176859,1.0769677598222183,-2.743661464212983,False
67,0,0.09180120378732681,-1.575487732887268,0.10047700256109238,-1.5999609231948853,-0.0791308656334877,-0.03572671115398407,0.09250850975513458,-1.5750434398651123,0.102397121489048,-1.601277232170105,-0.07938075065612793,-0.03567567095160484,0.05730323866009712,0.1142808347940445,0.040408454835414886,-0.04441491514444351,-0.004112161695957184,-2.275221049785614e-05,0.415077,0.131945,0.45148568405566597,0.029544352434873973,0.23632606504512377,1.076746344301863,-2.752219554754626,False
68,0,0.09250850975513458,-1.5750434398651123,0.102397121489048,-1.601277232170105,-0.07938075065612793,-0.03567567095160484,0.09387630224227905,-1.573582649230957,0.10324966907501221,-1.6018378734588623,-0.07991647720336914,-0.035929735749959946,0.05724220350384712,0.11451622098684311,0.04048576205968857,-0.044565342366695404,-0.00404338538646698,-6.672926247119904e-05,0.415077,0.131945,0.45148568405566597,0.030963886072336043,0.2365260806360234,1.07662910604042,-2.761412223980157,False
69,0,0.09387630224227905,-1.573582649230957,0.10324966907501221,-1.6018378734588623,-0.07991647720336914,-0.035929735749959946,0.09452832490205765,-1.5733455419540405,0.10527149587869644,-1.603192687034607,-0.08016727864742279,-0.03586714342236519,0.05729615315794945,0.11461970210075378,0.04043122008442879,-0.044617898762226105,-0.003895573318004608,-5.3804367780685425e-05,0.415077,0.131945,0.45148568405566597,0.031901325375938545,0.23664771505967266,1.0765243110167142,-2.7708555434642634,False
70,0,0.09452832490205765,-1.5733455419540405,0.10527149587869644,-1.603192687034607,-0.08016727864742279,-0.03586714342236519,0.0955701693892479,-1.5736027956008911,0.10865014791488647,-1.6052918434143066,-0.08067214488983154,-0.03582631051540375,0.057214971631765366,0.11486302316188812,0.04052352160215378,-0.04478154331445694,-0.003841787576675415,-0.00010693259537220001,0.415077,0.131945,0.45148568405566597,0.0327197668574435,0.23676651940608212,1.0764254361531502,-2.7803657366118673,False
71,0,0.0955701693892479,-1.5736027956008911,0.10865014791488647,-1.6052918434143066,-0.08067214488983154,-0.03582631051540375,0.0963040366768837,-1.5726966857910156,0.10916373878717422,-1.605639934539795,-0.08100470155477524,-0.03596888482570648,0.05702105164527893,0.11524629592895508,0.04070040583610535,-0.04507594555616379,-0.003804408013820648,-0.0002053864300251007,0.415077,0.131945,0.45148568405566597,0.0327197668574435,0.23676651940608212,1.0764254361531502,-2.790365736611867,False
72,0,0.0963040366768837,-1.5726966857910156,0.10916373878717422,-1.605639934539795,-0.08100470155477524,-0.03596888482570648,0.09725917130708694,-1.5723912715911865,0.11141970753669739,-1.6070421934127808,-0.08151062577962875,-0.036030806601047516,0.0570509098470211,0.11531010270118713,0.04067122936248779,-0.04510822892189026,-0.003719896078109741,-0.00018910318613052368,0.415077,0.131945,0.45148568405566597,0.0327197668574435,0.23676651940608212,1.0764254361531502,-2.800365736611867,False
73,0,0.09725917130708694,-1.5723912715911865,0.11141970753669739,-1.6070421934127808,-0.08151062577962875,-0.036030806601047516,0.09751537442207336,-1.573193073272705,0.11254887282848358,-1.6075623035430908,-0.08178243041038513,-0.0360909067094326,0.05699719116091728,0.11556167155504227,0.04077614098787308,-0.045258767902851105,-0.0036934837698936462,-0.00019678287208080292,0.415077,0.131945,0.45148568405566597,0.03460406975323121,0.23706243838035354,1.0761568940950235,-2.8092089937736286,False
74,0,0.09751537442207336,-1.573193073272705,0.11254887282848358,-1.6075623035430908,-0.08178243041038513,-0.0360909067094326,0.09790527820587158,-1.5742301940917969,0.1140480488538742,-1.6082398891448975,-0.08220794796943665,-0.03619807958602905,0.056902896612882614,0.11566134542226791,0.040867798030376434,-0.045354537665843964,-0.0037574544548988342,-0.00022693350911140442,0.415077,0.131945,0.45148568405566597,0.03436447294820484,0.23704934861869875,1.0761491932654432,-2.819324018733533,False
75,0,0.09790527820587158,-1.5742301940917969,0.1140480488538742,-1.6082398891448975,-0.08220794796943665,-0.03619807958602905,0.09854330122470856,-1.57295823097229,0.11493799835443497,-1.6090490818023682,-0.08228512108325958,-0.036152433604002,0.05677744373679161,0.11579158902168274,0.04098508134484291,-0.045483969151973724,-0.003838971257209778,-0.00026541203260421753,0.415077,0.131945,0.45148568405566597,0.035639234014675156,0.23722019401386008,1.0760213290622986,-2.8285843231257752,False
76,0,0.09854330122470856,-1.57295823097229,0.11493799835443497,-1.6090490818023682,-0.08228512108325958,-0.036152433604002,0.09933746606111526,-1.5720670223236084,0.11555422842502594,-1.6094878911972046,-0.08262301981449127,-0.03631455823779106,0.056847505271434784,0.11592637747526169,0.040983911603689194,-0.045510031282901764,-0.0037385448813438416,-0.0002333223819732666,0.415077,0.131945,0.45148568405566597,0.03655088144093976,0.23735527421581867,1.0759357553536382,-2.8380630724745313,False
77,0,0.09933746606111526,-1.5720670223236084,0.11555422842502594,-1.6094878911972046,-0.08262301981449127,-0.03631455823779106,0.10000237077474594,-1.5732898712158203,0.1174938753247261,-1.610316276550293,-0.08332531899213791,-0.036522381007671356,0.05688761919736862,0.11600463837385178,0.04096890613436699,-0.045545779168605804,-0.0036652088165283203,-0.00021018460392951965,0.415077,0.131945,0.45148568405566597,0.03655088144093976,0.23735527421581867,1.0759357553536382,-2.8480630724745315,False
78,0,0.10000237077474594,-1.5732898712158203,0.1174938753247261,-1.610316276550293,-0.08332531899213791,-0.036522381007671356,0.10087486356496811,-1.5730724334716797,0.12001194059848785,-1.6119846105575562,-0.08369063585996628,-0.03646744415163994,0.05672961845993996,0.11617178469896317,0.04111575707793236,-0.045724041759967804,-0.003765113651752472,-0.0002533029764890671,0.415077,0.131945,0.45148568405566597,0.03655088144093976,0.23735527421581867,1.0759357553536382,-2.8580630724745317,False
79,0,0.10087486356496811,-1.5730724334716797,0.12001194059848785,-1.6119846105575562,-0.08369063585996628,-0.03646744415163994,0.101462721824646,-1.5724128484725952,0.12093272060155869,-1.612667441368103,-0.08387064933776855,-0.03647603839635849,0.05668400600552559,0.11647353321313858,0.04126942530274391,-0.04589608311653137,-0.003764890134334564,-0.0002549830824136734,0.415077,0.131945,0.45148568405566597,0.038156445162876015,0.2376368648140897,1.0756666304234754,-2.8670529372071476,False
80,0,0.101462721824646,-1.5724128484725952,0.12093272060155869,-1.612667441368103,-0.08387064933776855,-0.03647603839635849,0.10224132239818573,-1.5722664594650269,0.12265561521053314,-1.6137384176254272,-0.08422712236642838,-0.03651891276240349,0.056707531213760376,0.11659517139196396,0.04129753261804581,-0.0459490641951561,-0.003716498613357544,-0.00023826397955417633,0.415077,0.131945,0.45148568405566597,0.03887108624949157,0.23775581132548004,1.075563187813554,-2.8766170047986455,False
81,0,0.10224132239818573,-1.5722664594650269,0.12265561521053314,-1.6137384176254272,-0.08422712236642838,-0.03651891276240349,0.10306831449270248,-1.5720058679580688,0.12429620325565338,-1.6147503852844238,-0.08464796841144562,-0.03659223020076752,0.05667037144303322,0.11679226905107498,0.04139329865574837,-0.04607149213552475,-0.003712385892868042,-0.00024034269154071808,0.415077,0.131945,0.45148568405566597,0.03964996768021789,0.23788522440805043,1.0754547884017875,-2.8861460694969385,False
82,0,0.10306831449270248,-1.5720058679580688,0.12429620325565338,-1.6147503852844238,-0.08464796841144562,-0.03659223020076752,0.10389494895935059,-1.5715875625610352,0.12626473605632782,-1.616050124168396,-0.08506499975919724,-0.036597032099962234,0.05664042383432388,0.1169789507985115,0.04147515073418617,-0.04618873447179794,-0.003697305917739868,-0.00023791566491127014,0.415077,0.131945,0.45148568405566597,0.03964996768021789,0.23788522440805043,1.0754547884017875,-2.8961460694969388,False
83,0,0.10389494895935059,-1.5715875625610352,0.12626473605632782,-1.616050124168396,-0.08506499975919724,-0.036597032099962234,0.10416768491268158,-1.5722382068634033,0.1274230033159256,-1.6166304349899292,-0.08535937964916229,-0.036636535078287125,0.05661707744002342,0.11721459031105042,0.041578229516744614,-0.046323008835315704,-0.0036751553416252136,-0.00023039057850837708,0.415077,0.131945,0.45148568405566597,0.03964996768021789,0.23788522440805043,1.0754547884017875,-2.9061460694969385,False
84,0,0.10416768491268158,-1.5722382068634033,0.1274230033159256,-1.6166304349899292,-0.08535937964916229,-0.036636535078287125,0.10534725338220596,-1.572386622428894,0.13030847907066345,-1.6183069944381714,-0.0861658826470375,-0.0367596261203289,0.05653493478894234,0.11732600629329681,0.04167148843407631,-0.046422429382801056,-0.003731280565261841,-0.00025307200849056244,0.415077,0.131945,0.45148568405566597,0.041584039438883655,0.2382109151410249,1.0751491149937085,-2.9149487448683447,False
85,0,0.10534725338220596,-1.572386622428894,0.13030847907066345,-1.6183069944381714,-0.0861658826470375,-0.0367596261203289,0.10586658865213394,-1.5713937282562256,0.13109946250915527,-1.6190086603164673,-0.08624932914972305,-0.03671756759285927,0.056435514241456985,0.11763835698366165,0.041840244084596634,-0.04664289206266403,-0.003753870725631714,-0.00026478804647922516,0.415077,0.131945,0.45148568405566597,0.04258043342250771,0.2383637111281778,1.075022315398714,-2.924357124027577,False
86,0,0.10586658865213394,-1.5713937282562256,0.13109946250915527,-1.6190086603164673,-0.08624932914972305,-0.03671756759285927,0.10672244429588318,-1.571029782295227,0.13303224742412567,-1.6202502250671387,-0.08670242875814438,-0.036755453795194626,0.05649058148264885,0.11775966733694077,0.041853465139865875,-0.04667668044567108,-0.003682054579257965,-0.00023749656975269318,0.415077,0.131945,0.45148568405566597,0.04246391621315339,0.23836442723765372,1.0750011057628819,-2.934398345092268,False
87,0,0.10672244429588318,-1.571029782295227,0.13303224742412567,-1.6202502250671387,-0.08670242875814438,-0.036755453795194626,0.10701727122068405,-1.5716192722320557,0.13405223190784454,-1.6207293272018433,-0.08702713996171951,-0.03682367131114006,0.056462064385414124,0.11798630654811859,0.04195338115096092,-0.04681145399808884,-0.003662995994091034,-0.00023192912340164185,0.415077,0.131945,0.45148568405566597,0.04344096855587594,0.23852772185559906,1.074858284701727,-2.943805241845501,False
88,0,0.10701727122068405,-1.5716192722320557,0.13405223190784454,-1.6207293272018433,-0.08702713996171951,-0.03682367131114006,0.10818653553724289,-1.5715266466140747,0.136450856924057,-1.622127652168274,-0.08773575723171234,-0.0369671955704689,0.05638550594449043,0.11807992309331894,0.04203194007277489,-0.046901971101760864,-0.003712102770805359,-0.00025210902094841003,0.415077,0.131945,0.45148568405566597,0.04344096855587594,0.23852772185559906,1.074858284701727,-2.953805241845501,False
89,0,0.10818653553724289,-1.5715266466140747,0.136450856924057,-1.622127652168274,-0.08773575723171234,-0.0369671955704689,0.11017770320177078,-1.5700266361236572,0.1397015005350113,-1.6242918968200684,-0.08853756636381149,-0.037127334624528885,0.056316494941711426,0.11834069341421127,0.04215827211737633,-0.0470828041434288,-0.0037108510732650757,-0.0002561751753091812,0.415077,0.131945,0.45148568405566597,0.046856951373355264,0.23908271761273403,1.0744329490804023,-2.9617992919737346,False
90,0,0.11017770320177078,-1.5700266361236572,0.1397015005350113,-1.6242918968200684,-0.08853756636381149,-0.037127334624528885,0.11098089814186096,-1.570037603378296,0.14186212420463562,-1.6255927085876465,-0.08912532031536102,-0.037181634455919266,0.05633005127310753,0.11873528361320496,0.042280737310647964,-0.047294385731220245,-0.0036042481660842896,-0.00022401288151741028,0.415077,0.131945,0.45148568405566597,0.047564182410240054,0.23921791518678598,1.0742959652704795,-2.9713466762481713,False
91,0,0.11098089814186096,-1.570037603378296,0.14186212420463562,-1.6255927085876465,-0.08912532031536102,-0.037181634455919266,0.11216485500335693,-1.568479299545288,0.14319060742855072,-1.626641035079956,-0.08938400447368622,-0.0372539758682251,0.056264255195856094,0.11897542327642441,0.042407017201185226,-0.047456227242946625,-0.0036155804991722107,-0.0002285148948431015,0.415077,0.131945,0.45148568405566597,0.04862871170360882,0.2394072725607975,1.0741197926109003,-2.9806897596781283,False
92,0,0.11216485500335693,-1.568479299545288,0.14319060742855072,-1.626641035079956,-0.08938400447368622,-0.0372539758682251,0.11292736977338791,-1.5699352025985718,0.1456940472126007,-1.6277893781661987,-0.09024161100387573,-0.037449054419994354,0.05634165182709694,0.11916171759366989,0.042419154196977615,-0.047521546483039856,-0.003497011959552765,-0.00018954835832118988,0.415077,0.131945,0.45148568405566597,0.04862871170360882,0.2394072725607975,1.0741197926109003,-2.990689759678128,False
93,0,0.11292736977338791,-1.5699352025985718,0.1456940472126007,-1.6277893781661987,-0.09024161100387573,-0.037449054419994354,0.11365003138780594,-1.5687334537506104,0.14676254987716675,-1.6286736726760864,-0.09045444428920746,-0.0374378003180027,0.05615019425749779,0.11938772350549698,0.042608875781297684,-0.04774624854326248,-0.0036170482635498047,-0.0002389606088399887,0.415077,0.131945,0.45148568405566597,0.04862871170360882,0.2394072725607975,1.0741197926109003,-3.0006897596781283,False
94,0,0.11365003138780594,-1.5687334537506104,0.14676254987716675,-1.6286736726760864,-0.09045444428920746,-0.0374378003180027,0.1140102744102478,-1.5694093704223633,0.1479310691356659,-1.6292089223861694,-0.0908605232834816,-0.03753013163805008,0.056209925562143326,0.11954238265752792,0.04262680187821388,-0.04779864102602005,-0.003529183566570282,-0.00020566023886203766,0.415077,0.131945,0.45148568405566597,0.050036737526870684,0.2397379145056049,1.0738034200275128,-3.009763224818735,False
95,0,0.1140102744102478,-1.5694093704223633,0.1479310691356659,-1.6292089223861694,-0.0908605232834816,-0.03753013163805008,0.11424295604228973,-1.569862961769104,0.14870481193065643,-1.6295663118362427,-0.09112319350242615,-0.03758782148361206,0.05612058937549591,0.11964771896600723,0.04271486774086952,-0.047903649508953094,-0.003584742546081543,-0.00022851862013339996,0.415077,0.131945,0.45148568405566597,0.049935254662808834,0.23974191465732847,1.073783246993351,-3.0197973957053765,False
96,0,0.11424295604228973,-1.569862961769104,0.14870481193065643,-1.6295663118362427,-0.09112319350242615,-0.03758782148361206,0.1151893138885498,-1.569405198097229,0.15039871633052826,-1.630628228187561,-0.09159484505653381,-0.037682779133319855,0.05606137588620186,0.1197177916765213,0.04277375712990761,-0.047973066568374634,-0.003621987998485565,-0.00024378858506679535,0.415077,0.131945,0.45148568405566597,0.050883732408295156,0.23992074280697964,1.0736322696034943,-3.029220725759239,False
97,0,0.1151893138885498,-1.569405198097229,0.15039871633052826,-1.630628228187561,-0.09159484505653381,-0.037682779133319855,0.11590445786714554,-1.5687949657440186,0.15183934569358826,-1.63162100315094,-0.0919269323348999,-0.037702422589063644,0.05604267120361328,0.11991321295499802,0.04284827038645744,-0.04809177666902542,-0.003590695559978485,-0.00023552775382995605,0.415077,0.131945,0.45148568405566597,0.05189575509347327,0.24009182285539882,1.0734869912806553,-3.0386169376468493,False
98,0,0.11590445786714554,-1.5687949657440186,0.15183934569358826,-1.63162100315094,-0.0919269323348999,-0.037702422589063644,0.11611557751893997,-1.5692626237869263,0.1526443511247635,-1.632008671760559,-0.09216150641441345,-0.037743955850601196,0.05598567798733711,0.12012848258018494,0.04288342967629433,-0.04814816266298294,-0.00360773503780365,-0.0002476256340742111,0.415077,0.131945,0.45148568405566597,0.05189575509347327,0.24009182285539882,1.0734869912806553,-3.0486169376468495,False
99,0,0.11611557751893997,-1.5692626237869263,0.1526443511247635,-1.632008671760559,-0.09216150641441345,-0.037743955850601196,0.11696227639913559,-1.5689491033554077,0.15411528944969177,-1.6328908205032349,-0.09261845052242279,-0.03785814344882965,0.05590314045548439,0.12021735310554504,0.04293693229556084,-0.04820490628480911,-0.003668561577796936,-0.00027362629771232605,0.415077,0.131945,0.45148568405566597,0.05189575509347327,0.24009182285539882,1.0734869912806553,-3.0586169376468497,False
100,0,0.11696227639913559,-1.5689491033554077,0.15411528944969177,-1.6328908205032349,-0.09261845052242279,-0.03785814344882965,0.11770357191562653,-1.5682955980300903,0.1555839478969574,-1.6339054107666016,-0.09296459704637527,-0.03788142278790474,0.055811718106269836,0.12042119354009628,0.04297279193997383,-0.04827152192592621,-0.003709450364112854,-0.0002982094883918762,0.415077,0.131945,0.45148568405566597,0.05189575509347327,0.24009182285539882,1.0734869912806553,-3.0686169376468495,False
101,0,0.11770357191562653,-1.5682955980300903,0.1555839478969574,-1.6339054107666016,-0.09296459704637527,-0.03788142278790474,0.11852744221687317,-1.5677857398986816,0.1572643667459488,-1.635000467300415,-0.09340463578701019,-0.03793608769774437,0.05570357292890549,0.12066356092691422,0.042988065630197525,-0.048305705189704895,-0.0038027316331863403,-0.00033506937325000763,0.415077,0.131945,0.45148568405566597,0.05461166512852948,0.24061184542628145,1.0730205881640813,-3.076945061282256,False
102,0,0.11852744221687317,-1.5677857398986816,0.1572643667459488,-1.635000467300415,-0.09340463578701019,-0.03793608769774437,0.11935944110155106,-1.567502737045288,0.15877439081668854,-1.6359089612960815,-0.09385500848293304,-0.03804139420390129,0.05556201562285423,0.12092981487512589,0.043013107031583786,-0.048353053629398346,-0.003926590085029602,-0.00038374215364456177,0.415077,0.131945,0.45148568405566597,0.05449461748021393,0.24061968081729648,1.0729936282691837,-3.0869812443346003,False
103,0,0.11935944110155106,-1.567502737045288,0.15877439081668854,-1.6359089612960815,-0.09385500848293304,-0.03804139420390129,0.11965513974428177,-1.5680432319641113,0.15972717106342316,-1.6363459825515747,-0.09419138729572296,-0.038117606192827225,0.05542311072349548,0.12115656584501266,0.04303782060742378,-0.048403896391391754,-0.004042103886604309,-0.0004316195845603943,0.415077,0.131945,0.45148568405566597,0.055351001155515014,0.24076565426257238,1.0728863634110555,-3.0964867689366766,False
104,0,0.11965513974428177,-1.5680432319641113,0.15972717106342316,-1.6363459825515747,-0.09419138729572296,-0.038117606192827225,0.11965513974428177,-1.5680432319641113,0.15972717106342316,-1.6363459825515747,-0.09419138729572296,-0.038117606192827225,0.05531329661607742,0.12126316130161285,0.04309343174099922,-0.04846856743097305,-0.004127807915210724,-0.00046678073704242706,0.415077,0.131945,0.45148568405566597,0.055241074526900594,0.24077418603152173,1.072858175868242,-3.1065183879731615,False
105,0,0.11965513974428177,-1.5680432319641113,0.15972717106342316,-1.6363459825515747,-0.09419138729572296,-0.038117606192827225,0.1199880912899971,-1.5686707496643066,0.16080404818058014,-1.6368428468704224,-0.09457098692655563,-0.03819986432790756,0.05531329661607742,0.12126316130161285,0.04309343174099922,-0.04846856743097305,-0.004127807915210724,-0.00046678073704242706,0.415077,0.131945,0.45148568405566597,0.055241074526900594,0.24077418603152173,1.072858175868242,-3.1165183879731613,False
106,0,0.1199880912899971,-1.5686707496643066,0.16080404818058014,-1.6368428468704224,-0.09457098692655563,-0.03819986432790756,0.12013214826583862,-1.5689537525177002,0.161279559135437,-1.6370712518692017,-0.0947365090250969,-0.0382283553481102,0.05518878996372223,0.12138340622186661,0.04315691068768501,-0.04854222387075424,-0.004224710166454315,-0.0005063973367214203,0.415077,0.131945,0.45148568405566597,0.055241074526900594,0.24077418603152173,1.072858175868242,-3.1265183879731615,False
107,0,0.12013214826583862,-1.5689537525177002,0.161279559135437,-1.6370712518692017,-0.0947365090250969,-0.0382283553481102,0.12156729400157928,-1.5670685768127441,0.1631505787372589,-1.6384930610656738,-0.09519948810338974,-0.038330648094415665,0.05513406917452812,0.1214371994137764,0.04318513348698616,-0.04857476055622101,-0.004267103970050812,-0.0005234461277723312,0.415077,0.131945,0.45148568405566597,0.05625424353132147,0.2409916062524427,1.0726515161757468,-3.135872632223527,False
108,0,0.12156729400157928,-1.5670685768127441,0.1631505787372589,-1.6384930610656738,-0.09519948810338974,-0.038330648094415665,0.12187076359987259,-1.5674524307250977,0.16416314244270325,-1.6390084028244019,-0.09555016458034515,-0.038387153297662735,0.05500560626387596,0.12177582830190659,0.043130774050951004,-0.048574887216091156,-0.004348307847976685,-0.0005672331899404526,0.415077,0.131945,0.45148568405566597,0.05725236845425895,0.24119476566058096,1.0724751079789339,-3.1452590293842957,False
109,0,0.12187076359987259,-1.5674524307250977,0.16416314244270325,-1.6390084028244019,-0.09555016458034515,-0.038387153297662735,0.12281052023172379,-1.5668342113494873,0.16568009555339813,-1.6399704217910767,-0.09604549407958984,-0.038505032658576965,0.05489541217684746,0.12189406901597977,0.043181050568819046,-0.0486372634768486,-0.00442495197057724,-0.0006000231951475143,0.415077,0.131945,0.45148568405566597,0.057165146468751135,0.2411991963877407,1.0724579312571545,-3.155288038586874,False
110,0,0.12281052023172379,-1.5668342113494873,0.16568009555339813,-1.6399704217910767,-0.09604549407958984,-0.038505032658576965,0.12306893616914749,-1.5672937631607056,0.16645336151123047,-1.6403119564056396,-0.09634165465831757,-0.038577742874622345,0.05476056784391403,0.12212301790714264,0.04318318888545036,-0.048679277300834656,-0.004510253667831421,-0.0006420016288757324,0.415077,0.131945,0.45148568405566597,0.05815997089662222,0.2414035978117184,1.0722835069589225,-3.1646788150233003,False
111,0,0.12306893616914749,-1.5672937631607056,0.16645336151123047,-1.6403119564056396,-0.09634165465831757,-0.038577742874622345,0.123990498483181,-1.5666080713272095,0.1679282933473587,-1.6412668228149414,-0.09682254493236542,-0.03868705779314041,0.05466819927096367,0.12220348417758942,0.04322699084877968,-0.048734284937381744,-0.004573024809360504,-0.0006700027734041214,0.415077,0.131945,0.45148568405566597,0.05815997089662222,0.2414035978117184,1.0722835069589225,-3.1746788150233005,False
112,0,0.123990498483181,-1.5666080713272095,0.1679282933473587,-1.6412668228149414,-0.09682254493236542,-0.03868705779314041,0.12442278116941452,-1.5673099756240845,0.16916300356388092,-1.6418136358261108,-0.09732332825660706,-0.03880860656499863,0.05454017594456673,0.1224302127957344,0.04322494938969612,-0.04877176135778427,-0.0046535879373550415,-0.00070955790579319,0.415077,0.131945,0.45148568405566597,0.05815997089662222,0.2414035978117184,1.0722835069589225,-3.1846788150233003,False
113,0,0.12442278116941452,-1.5673099756240845,0.16916300356388092,-1.6418136358261108,-0.09732332825660706,-0.03880860656499863,0.12588179111480713,-1.5651476383209229,0.17119911313056946,-1.6434048414230347,-0.09785284101963043,-0.03888774290680885,0.054392632097005844,0.12255927920341492,0.043291669338941574,-0.04885921627283096,-0.004751831293106079,-0.0007532816380262375,0.415077,0.131945,0.45148568405566597,0.06154672434536282,0.24206608816396577,1.0717224870425992,-3.1926350221789077,False
114,0,0.12588179111480713,-1.5651476383209229,0.17119911313056946,-1.6434048414230347,-0.09785284101963043,-0.03888774290680885,0.1266586035490036,-1.5650391578674316,0.17306892573833466,-1.6445213556289673,-0.09839799255132675,-0.0389726497232914,0.05426022410392761,0.12293359637260437,0.04323103651404381,-0.04885709285736084,-0.004834316670894623,-0.0007956270128488541,0.415077,0.131945,0.45148568405566597,0.06138063934656614,0.24207770220208288,1.0716877450861073,-3.2026882640948835,False
115,0,0.1266586035490036,-1.5650391578674316,0.17306892573833466,-1.6445213556289673,-0.09839799255132675,-0.0389726497232914,0.1266586035490036,-1.5650391578674316,0.17306892573833466,-1.6445213556289673,-0.09839799255132675,-0.0389726497232914,0.054083503782749176,0.12319182604551315,0.04328172281384468,-0.04893495887517929,-0.004958204925060272,-0.0008509773761034012,0.415077,0.131945,0.45148568405566597,0.062299819834361406,0.24222831032948,1.0715619827757559,-3.2121536349638387,False
116,0,0.1266586035490036,-1.5650391578674316,0.17306892573833466,-1.6445213556289673,-0.09839799255132675,-0.0389726497232914,0.12731076776981354,-1.5661109685897827,0.17499209940433502,-1.6453765630722046,-0.09916103631258011,-0.03915739431977272,0.054083503782749176,0.12319182604551315,0.04328172281384468,-0.04893495887517929,-0.004958204925060272,-0.0008509773761034012,0.415077,0.131945,0.45148568405566597,0.06209110700279341,0.2422548390668854,1.0714969687277698,-3.2222038707142486,False
117,0,0.12731076776981354,-1.5661109685897827,0.17499209940433502,-1.6453765630722046,-0.09916103631258011,-0.03915739431977272,0.12747304141521454,-1.5664018392562866,0.1754860132932663,-1.645599126815796,-0.09935129433870316,-0.03920040279626846,0.053855396807193756,0.12339401245117188,0.04338635131716728,-0.04907003790140152,-0.005111619830131531,-0.0009190943092107773,0.415077,0.131945,0.45148568405566597,0.06209110700279341,0.2422548390668854,1.0714969687277698,-3.2322038707142484,False
118,0,0.12747304141521454,-1.5664018392562866,0.1754860132932663,-1.645599126815796,-0.09935129433870316,-0.03920040279626846,0.12854057550430298,-1.5659631490707397,0.17738258838653564,-1.6467336416244507,-0.1000228151679039,-0.039361316710710526,0.053796689957380295,0.12344587594270706,0.04341423884034157,-0.04910508543252945,-0.005151376128196716,-0.0009366422891616821,0.415077,0.131945,0.45148568405566597,0.06209110700279341,0.2422548390668854,1.0714969687277698,-3.242203870714248,False
119,0,0.12854057550430298,-1.5659631490707397,0.17738258838653564,-1.6467336416244507,-0.1000228151679039,-0.039361316710710526,0.12910377979278564,-1.5650259256362915,0.1782267540693283,-1.6474140882492065,-0.10022368282079697,-0.03937869891524315,0.05361763387918472,0.12371546775102615,0.04343491420149803,-0.04917360097169876,-0.0052655041217803955,-0.0009910538792610168,0.415077,0.131945,0.45148568405566597,0.06409352679011178,0.2426715284059105,1.071130396065027,-3.2509755839323744,False
120,0,0.12910377979278564,-1.5650259256362915,0.1782267540693283,-1.6474140882492065,-0.10022368282079697,-0.03937869891524315,0.12993881106376648,-1.564682126045227,0.17972923815250397,-1.6483174562454224,-0.10071856528520584,-0.03950049728155136,0.05356631428003311,0.12387394160032272,0.04341048374772072,-0.0491708368062973,-0.0052991583943367004,-0.0010075625032186508,0.415077,0.131945,0.45148568405566597,0.06488209968269537,0.24284950729415744,1.070971630457501,-3.2604826893062056,False
121,0,0.12993881106376648,-1.564682126045227,0.17972923815250397,-1.6483174562454224,-0.10071856528520584,-0.03950049728155136,0.13022448122501373,-1.5651614665985107,0.18053187429904938,-1.648660659790039,-0.10105358064174652,-0.03958719223737717,0.05342547968029976,0.12408849596977234,0.043428901582956314,-0.04922401160001755,-0.005391336977481842,-0.0010517649352550507,0.415077,0.131945,0.45148568405566597,0.06476559872344355,0.24285847076811914,1.0709461937653046,-3.270518846868476,False
122,0,0.13022448122501373,-1.5651614665985107,0.18053187429904938,-1.648660659790039,-0.10105358064174652,-0.03958719223737717,0.1304049789905548,-1.5654797554016113,0.18106518685817719,-1.6488960981369019,-0.10126405954360962,-0.039637770503759384,0.05332811921834946,0.1241704598069191,0.04347286745905876,-0.049282170832157135,-0.005455777049064636,-0.0010806191712617874,0.415077,0.131945,0.45148568405566597,0.06468856283538985,0.2428636678537198,1.0709294957031414,-3.280542758243734,False
123,0,0.1304049789905548,-1.5654797554016113,0.18106518685817719,-1.6488960981369019,-0.10126405954360962,-0.039637770503759384,0.1305220127105713,-1.5656923055648804,0.18141934275627136,-1.6490566730499268,-0.10140054672956467,-0.03966750204563141,0.05326348543167114,0.12422478944063187,0.04350363090634346,-0.04931902885437012,-0.005498290061950684,-0.0011005569249391556,0.415077,0.131945,0.45148568405566597,0.06463639201750271,0.24286673264045705,1.0709186007793927,-3.290559241682384,False
124,0,0.1305220127105713,-1.5656923055648804,0.18141934275627136,-1.6490566730499268,-0.10140054672956467,-0.03966750204563141,0.13124199211597443,-1.5645897388458252,0.18252448737621307,-1.6499162912368774,-0.10167475044727325,-0.03970300406217575,0.053219761699438095,0.12425976246595383,0.04352552816271782,-0.0493413582444191,-0.005525775253772736,-0.0011149067431688309,0.415077,0.131945,0.45148568405566597,0.06463639201750271,0.24286673264045705,1.0709186007793927,-3.300559241682384,False
125,0,0.13124199211597443,-1.5645897388458252,0.18252448737621307,-1.6499162912368774,-0.10167475044727325,-0.03970300406217575,0.13146831095218658,-1.5649739503860474,0.1832328885793686,-1.6502422094345093,-0.10193997621536255,-0.03975999727845192,0.053162962198257446,0.12446553260087967,0.04352087154984474,-0.04935318976640701,-0.005578652024269104,-0.0011296961456537247,0.415077,0.131945,0.45148568405566597,0.06463639201750271,0.24286673264045705,1.0709186007793927,-3.310559241682384,False
126,0,0.13146831095218658,-1.5649739503860474,0.1832328885793686,-1.6502422094345093,-0.10193997621536255,-0.03975999727845192,0.13172663748264313,-1.5654187202453613,0.18398812413215637,-1.6505818367004395,-0.10224408656358719,-0.03982743248343468,0.05309063941240311,0.1245439276099205,0.04357684776186943,-0.04940767586231232,-0.005638398230075836,-0.0011491011828184128,0.415077,0.131945,0.45148568405566597,0.06463639201750271,0.24286673264045705,1.0709186007793927,-3.3205592416823837,False
127,0,0.13172663748264313,-1.5654187202453613,0.18398812413215637,-1.6505818367004395,-0.10224408656358719,-0.03982743248343468,0.13244809210300446,-1.5643283128738403,0.18509136140346527,-1.6514339447021484,-0.10252515226602554,-0.03986839950084686,0.05301087349653244,0.12462519109249115,0.04363619163632393,-0.04946731775999069,-0.005701914429664612,-0.001170201227068901,0.415077,0.131945,0.45148568405566597,0.0670356107091546,0.2433612565781109,1.0704761127074713,-3.329090373828306,False
128,0,0.13244809210300446,-1.5643283128738403,0.18509136140346527,-1.6514339447021484,-0.10252515226602554,-0.03986839950084686,0.13326792418956757,-1.5637896060943604,0.18660299479961395,-1.6523876190185547,-0.1030430942773819,-0.039974186569452286,0.05296945571899414,0.124837726354599,0.043647658079862595,-0.049493707716464996,-0.005761526525020599,-0.0011744927614927292,0.415077,0.131945,0.45148568405566597,0.06697222442134032,0.24337148039286302,1.0704518527225795,-3.339101761652353,False
129,0,0.13326792418956757,-1.5637896060943604,0.18660299479961395,-1.6523876190185547,-0.1030430942773819,-0.039974186569452286,0.1335684061050415,-1.5642337799072266,0.18740837275981903,-1.6527328491210938,-0.10339944064617157,-0.04006641358137131,0.05286932736635208,0.12507477402687073,0.04370257630944252,-0.049564458429813385,-0.005860179662704468,-0.0011947695165872574,0.415077,0.131945,0.45148568405566597,0.06791725931410228,0.24358227926190168,1.0702613658577815,-3.348513200086693,False
130,0,0.1335684061050415,-1.5642337799072266,0.18740837275981903,-1.6527328491210938,-0.10339944064617157,-0.04006641358137131,0.13389568030834198,-1.5647279024124146,0.188299298286438,-1.653125524520874,-0.10378817468881607,-0.04015928879380226,0.05278348550200462,0.12516015768051147,0.043762948364019394,-0.049628227949142456,-0.00592687726020813,-0.0012171082198619843,0.415077,0.131945,0.45148568405566597,0.0678196158490828,0.24359803996061652,1.0702282694952419,-3.358534339804388,False
131,0,0.13389568030834198,-1.5647279024124146,0.188299298286438,-1.653125524520874,-0.10378817468881607,-0.04015928879380226,0.13461871445178986,-1.5637238025665283,0.18938736617565155,-1.6539424657821655,-0.10407181084156036,-0.04021202027797699,0.052689000964164734,0.12525564432144165,0.043829966336488724,-0.04969845712184906,-0.006000317633152008,-0.0012414399534463882,0.415077,0.131945,0.45148568405566597,0.0678196158490828,0.24359803996061652,1.0702282694952419,-3.368534339804388,False
132,0,0.13461871445178986,-1.5637238025665283,0.18938736617565155,-1.6539424657821655,-0.10407181084156036,-0.04021202027797699,0.1348607987165451,-1.5640759468078613,0.1900235265493393,-1.6542147397994995,-0.10436072200536728,-0.04028571397066116,0.05264410749077797,0.12546078860759735,0.04384319856762886,-0.04972700774669647,-0.006060995161533356,-0.0012475047260522842,0.415077,0.131945,0.45148568405566597,0.0678196158490828,0.24359803996061652,1.0702282694952419,-3.3785343398043883,False
133,0,0.1348607987165451,-1.5640759468078613,0.1900235265493393,-1.6542147397994995,-0.10436072200536728,-0.04028571397066116,0.135016068816185,-1.5643101930618286,0.1904459446668625,-1.6544013023376465,-0.10454555600881577,-0.04032924771308899,0.052575912326574326,0.1255280077457428,0.04389040544629097,-0.049777545034885406,-0.006113260984420776,-0.001264987513422966,0.415077,0.131945,0.45148568405566597,0.0678196158490828,0.24359803996061652,1.0702282694952419,-3.388534339804388,False
134,0,0.135016068816185,-1.5643101930618286,0.1904459446668625,-1.6544013023376465,-0.10454555600881577,-0.04032924771308899,0.13517752289772034,-1.5645705461502075,0.1909155547618866,-1.6546237468719482,-0.10473669320344925,-0.04036405310034752,0.05253133550286293,0.12557333707809448,0.043921951204538345,-0.04981103539466858,-0.006147891283035278,-0.001276656985282898,0.415077,0.131945,0.45148568405566597,0.0678196158490828,0.24359803996061652,1.0702282694952419,-3.398534339804388,False
135,0,0.13517752289772034,-1.5645705461502075,0.1909155547618866,-1.6546237468719482,-0.10473669320344925,-0.04036405310034752,0.1361234039068222,-1.5638136863708496,0.19256220757961273,-1.6556884050369263,-0.10530286282300949,-0.04048570618033409,0.052485451102256775,0.12562628090381622,0.04395503178238869,-0.04985065013170242,-0.006184861063957214,-0.001291094347834587,0.415077,0.131945,0.45148568405566597,0.07003785646461422,0.24411081481529814,1.069754957074141,-3.407136265897109,False
136,0,0.1361234039068222,-1.5638136863708496,0.19256220757961273,-1.6556884050369263,-0.10530286282300949,-0.04048570618033409,0.13694868981838226,-1.5632230043411255,0.19428423047065735,-1.6568002700805664,-0.10584291815757751,-0.04056793451309204,0.05239205062389374,0.12589570879936218,0.043996457010507584,-0.049933262169361115,-0.006284072995185852,-0.0013178568333387375,0.415077,0.131945,0.45148568405566597,0.07003785646461422,0.24411081481529814,1.069754957074141,-3.417136265897109,False
137,0,0.13694868981838226,-1.5632230043411255,0.19428423047065735,-1.6568002700805664,-0.10584291815757751,-0.04056793451309204,0.13753463327884674,-1.5625028610229492,0.1949109137058258,-1.6572574377059937,-0.10607097297906876,-0.04065252095460892,0.05229203402996063,0.1261712610721588,0.04405668005347252,-0.05002482980489731,-0.00639304518699646,-0.0013474170118570328,0.415077,0.131945,0.45148568405566597,0.07191663138331295,0.24450899361010617,1.0694089629086416,-3.4259976207093144,False
138,0,0.13753463327884674,-1.5625028610229492,0.1949109137058258,-1.6572574377059937,-0.10607097297906876,-0.04065252095460892,0.13782672584056854,-1.5629653930664062,0.19568291306495667,-1.6575775146484375,-0.10642189532518387,-0.04074574634432793,0.05226875841617584,0.12629330158233643,0.04404543712735176,-0.050042279064655304,-0.006422124803066254,-0.0013531111180782318,0.415077,0.131945,0.45148568405566597,0.07180195399693706,0.2445202474204,1.0693822184400616,-3.436031292843043,False
139,0,0.13782672584056854,-1.5629653930664062,0.19568291306495667,-1.6575775146484375,-0.10642189532518387,-0.04074574634432793,0.13871468603610992,-1.5622390508651733,0.1971421092748642,-1.6585255861282349,-0.10692807286977768,-0.040863603353500366,0.05218900740146637,0.12637439370155334,0.04409926012158394,-0.05011015385389328,-0.0064841583371162415,-0.0013786517083644867,0.415077,0.131945,0.45148568405566597,0.07180195399693706,0.2445202474204,1.0693822184400616,-3.446031292843043,False
140,0,0.13871468603610992,-1.5622390508651733,0.1971421092748642,-1.6585255861282349,-0.10692807286977768,-0.040863603353500366,0.1389939785003662,-1.5626769065856934,0.19787409901618958,-1.658828854560852,-0.10726500302553177,-0.04095218703150749,0.05210712179541588,0.1266154944896698,0.04413134232163429,-0.050181515514850616,-0.0065709128975868225,-0.0014021191745996475,0.415077,0.131945,0.45148568405566597,0.07180195399693706,0.2445202474204,1.0693822184400616,-3.4560312928430434,False
141,0,0.1389939785003662,-1.5626769065856934,0.19787409901618958,-1.658828854560852,-0.10726500302553177,-0.04095218703150749,0.1399189978837967,-1.5618083477020264,0.19946756958961487,-1.6598879098892212,-0.10782632231712341,-0.04106433689594269,0.05203134939074516,0.1266922801733017,0.044182080775499344,-0.05024596303701401,-0.006629489362239838,-0.0014262441545724869,0.415077,0.131945,0.45148568405566597,0.0740492241245395,0.24504341717285436,1.0689065783947602,-3.4646276836598675,False
142,0,0.1399189978837967,-1.5618083477020264,0.19946756958961487,-1.6598879098892212,-0.10782632231712341,-0.04106433689594269,0.14071957767009735,-1.5614486932754517,0.20085197687149048,-1.6607075929641724,-0.10834456235170364,-0.041200876235961914,0.05194695293903351,0.1269596666097641,0.04421624913811684,-0.050322093069553375,-0.0067214444279670715,-0.0014492049813270569,0.415077,0.131945,0.45148568405566597,0.07480746801728899,0.24523220047668187,1.0687360252581672,-3.4741484677113172,False
143,0,0.14071957767009735,-1.5614486932754517,0.20085197687149048,-1.6607075929641724,-0.10834456235170364,-0.041200876235961914,0.14103740453720093,-1.561942219734192,0.20167547464370728,-1.6610445976257324,-0.10872994363307953,-0.041304364800453186,0.051853880286216736,0.12716957926750183,0.04425967112183571,-0.050401680171489716,-0.006810463964939117,-0.0014772582799196243,0.415077,0.131945,0.45148568405566597,0.07468467962163569,0.24524539652067429,1.0687064790222218,-3.4841835525215794,False
144,0,0.14103740453720093,-1.561942219734192,0.20167547464370728,-1.6610445976257324,-0.10872994363307953,-0.041304364800453186,0.14126159250736237,-1.5622626543045044,0.20225222408771515,-1.6612886190414429,-0.1090034544467926,-0.041373975574970245,0.05176828056573868,0.1272554099559784,0.044316474348306656,-0.05047445744276047,-0.006876274943351746,-0.0015044976025819778,0.415077,0.131945,0.45148568405566597,0.07462038545368814,0.24525782037593832,1.0686831187518981,-3.4941959865562824,False
145,0,0.14126159250736237,-1.5622626543045044,0.20225222408771515,-1.6612886190414429,-0.1090034544467926,-0.041373975574970245,0.14231301844120026,-1.5614655017852783,0.20434090495109558,-1.662624478340149,-0.10973060876131058,-0.04150242730975151,0.05170947313308716,0.12731698155403137,0.04435505345463753,-0.05052471160888672,-0.006921395659446716,-0.0015228744596242905,0.415077,0.131945,0.45148568405566597,0.07462038545368814,0.24525782037593832,1.0686831187518981,-3.504195986556282,False
146,0,0.14231301844120026,-1.5614655017852783,0.20434090495109558,-1.662624478340149,-0.10973060876131058,-0.04150242730975151,0.1425577700138092,-1.5618128776550293,0.204965740442276,-1.662886619567871,-0.11002937704324722,-0.04157966375350952,0.05158822983503342,0.1276511549949646,0.04442054405808449,-0.05063570290803909,-0.007049493491649628,-0.0015572253614664078,0.415077,0.131945,0.45148568405566597,0.07462038545368814,0.24525782037593832,1.0686831187518981,-3.5141959865562824,False
147,0,0.1425577700138092,-1.5618128776550293,0.204965740442276,-1.662886619567871,-0.11002937704324722,-0.04157966375350952,0.1434508115053177,-1.560911774635315,0.20646657049655914,-1.6638963222503662,-0.11056721210479736,-0.04169059544801712,0.0515243336558342,0.12771758437156677,0.044462185353040695,-0.050690241158008575,-0.007098361849784851,-0.0015772078186273575,0.415077,0.131945,0.45148568405566597,0.07720299154628672,0.2458539708181233,1.068128557042019,-3.522582891312659,False
148,0,0.1434508115053177,-1.560911774635315,0.20646657049655914,-1.6638963222503662,-0.11056721210479736,-0.04169059544801712,0.14372499287128448,-1.5613090991973877,0.20721526443958282,-1.6642218828201294,-0.11090095341205597,-0.04177166521549225,0.051447827368974686,0.12797307968139648,0.04449009522795677,-0.05075966566801071,-0.007183089852333069,-0.0015975423157215118,0.415077,0.131945,0.45148568405566597,0.07713713389806126,0.2458716427952129,1.0680959257998197,-3.532588711270089,False
149,0,0.14372499287128448,-1.5613090991973877,0.20721526443958282,-1.6642218828201294,-0.11090095341205597,-0.04177166521549225,0.14458300173282623,-1.5605695247650146,0.20856508612632751,-1.665102243423462,-0.11139465868473053,-0.041895270347595215,0.05137340724468231,0.12805482745170593,0.04454107955098152,-0.05082366615533829,-0.007241971790790558,-0.0016210544854402542,0.415077,0.131945,0.45148568405566597,0.07708168959467852,0.24588296633427956,1.0680753386653032,-3.5425990078784464,False
150,0,0.14458300173282623,-1.5605695247650146,0.20856508612632751,-1.665102243423462,-0.11139465868473053,-0.041895270347595215,0.14544478058815002,-1.5599822998046875,0.2101888358592987,-1.6661120653152466,-0.11201354116201401,-0.04202563315629959,0.051299042999744415,0.12827995419502258,0.04456581547856331,-0.05088839679956436,-0.00732026994228363,-0.001641876995563507,0.415077,0.131945,0.45148568405566597,0.07924361700773205,0.24636199117527638,1.067654021068293,-3.5512874672173766,False
151,0,0.14544478058815002,-1.5599822998046875,0.2101888358592987,-1.6661120653152466,-0.11201354116201401,-0.04202563315629959,0.14580582082271576,-1.560481071472168,0.21108806133270264,-1.6664793491363525,-0.1124579980969429,-0.042145565152168274,0.051233723759651184,0.12853319942951202,0.04462990537285805,-0.05098778009414673,-0.007391870021820068,-0.0016368087381124496,0.415077,0.131945,0.45148568405566597,0.07924361700773205,0.24636199117527638,1.067654021068293,-3.561287467217377,False
152,0,0.14580582082271576,-1.560481071472168,0.21108806133270264,-1.6664793491363525,-0.1124579980969429,-0.042145565152168274,0.14668546617031097,-1.5597833395004272,0.21252547204494476,-1.667400598526001,-0.11298433691263199,-0.04227612540125847,0.05116211995482445,0.12862646579742432,0.04469900205731392,-0.05107332766056061,-0.007444515824317932,-0.0016449186950922012,0.415077,0.131945,0.45148568405566597,0.07924361700773205,0.24636199117527638,1.067654021068293,-3.5712874672173767,False
153,0,0.14668546617031097,-1.5597833395004272,0.21252547204494476,-1.667400598526001,-0.11298433691263199,-0.04227612540125847,0.1469881236553192,-1.5602447986602783,0.2132953405380249,-1.6677120923995972,-0.11335721611976624,-0.042375825345516205,0.051114387810230255,0.1288597583770752,0.04474664106965065,-0.05115599185228348,-0.007501415908336639,-0.0016344022005796432,0.415077,0.131945,0.45148568405566597,0.07924361700773205,0.24636199117527638,1.067654021068293,-3.5812874672173765,False
154,0,0.1469881236553192,-1.5602447986602783,0.2132953405380249,-1.6677120923995972,-0.11335721611976624,-0.042375825345516205,0.14720048010349274,-1.560544729232788,0.21383482217788696,-1.6679387092590332,-0.11362031102180481,-0.04244207963347435,0.05105188861489296,0.12893837690353394,0.04480752721428871,-0.05122997611761093,-0.007547438144683838,-0.0016419719904661179,0.415077,0.131945,0.45148568405566597,0.08002119992238858,0.24666197282845026,1.067339817516204,-3.590696485261392,False
155,0,0.14720048010349274,-1.560544729232788,0.21383482217788696,-1.6679387092590332,-0.11362031102180481,-0.04244207963347435,0.14733898639678955,-1.5607446432113647,0.21419306099414825,-1.6680946350097656,-0.11379219591617584,-0.04248133674263954,0.051009200513362885,0.1289949119091034,0.04484911635518074,-0.05128104239702225,-0.0075788721442222595,-0.001646699383854866,0.415077,0.131945,0.45148568405566597,0.08002119992238858,0.24666197282845026,1.067339817516204,-3.600696485261392,False
156,0,0.14733898639678955,-1.5607446432113647,0.21419306099414825,-1.6680946350097656,-0.11379219591617584,-0.04248133674263954,0.14742685854434967,-1.560877799987793,0.2144310176372528,-1.6682045459747314,-0.11390101909637451,-0.04250168800354004,0.050981082022190094,0.12903299927711487,0.044876839965581894,-0.05131477117538452,-0.007599584758281708,-0.001649666577577591,0.415077,0.131945,0.45148568405566597,0.0799523524696429,0.2466749413235272,1.067314843880339,-3.610709404367362,False
157,0,0.14742685854434967,-1.560877799987793,0.2144310176372528,-1.6682045459747314,-0.11390101909637451,-0.04250168800354004,0.14822913706302643,-1.5598832368850708,0.21570289134979248,-1.6691097021102905,-0.11434715241193771,-0.0425913967192173,0.050962693989276886,0.12905889749526978,0.04489545896649361,-0.05133688449859619,-0.007613293826580048,-0.0016515348106622696,0.415077,0.131945,0.45148568405566597,0.08120455001497391,0.24695042889836843,1.0670735050499427,-3.619954805892477,False
158,0,0.14822913706302643,-1.5598832368850708,0.21570289134979248,-1.6691097021102905,-0.11434715241193771,-0.0425913967192173,0.14900298416614532,-1.559334635734558,0.21710456907749176,-1.669988989830017,-0.11485427618026733,-0.042707305401563644,0.050937917083501816,0.12928614020347595,0.044923100620508194,-0.05139734596014023,-0.007655531167984009,-0.0016353875398635864,0.415077,0.131945,0.45148568405566597,0.08115550504230169,0.24696386177490826,1.0670489527923799,-3.629958761387146,False
159,0,0.14900298416614532,-1.559334635734558,0.21710456907749176,-1.669988989830017,-0.11485427618026733,-0.042707305401563644,0.14928114414215088,-1.5597174167633057,0.21779084205627441,-1.67026948928833,-0.11520107090473175,-0.0427982322871685,0.05088721215724945,0.1295074075460434,0.04497842118144035,-0.05148211866617203,-0.007714711129665375,-0.0016272831708192825,0.415077,0.131945,0.45148568405566597,0.08115550504230169,0.24696386177490826,1.0670489527923799,-3.6399587613871462,False
160,0,0.14928114414215088,-1.5597174167633057,0.21779084205627441,-1.67026948928833,-0.11520107090473175,-0.0427982322871685,0.1494523137807846,-1.5599608421325684,0.21825441718101501,-1.6704744100570679,-0.11541430652141571,-0.04284689947962761,0.050832297652959824,0.1295783519744873,0.04503074660897255,-0.05154763162136078,-0.007754303514957428,-0.0016332920640707016,0.415077,0.131945,0.45148568405566597,0.08115550504230169,0.24696386177490826,1.0670489527923799,-3.649958761387146,False
161,0,0.1494523137807846,-1.5599608421325684,0.21825441718101501,-1.6704744100570679,-0.11541430652141571,-0.04284689947962761,0.1502843052148819,-1.5590039491653442,0.21968506276607513,-1.6714682579040527,-0.11589832603931427,-0.04293937608599663,0.050796911120414734,0.12962858378887177,0.045066822320222855,-0.05159059166908264,-0.0077814459800720215,-0.0016370955854654312,0.415077,0.131945,0.45148568405566597,0.0832964198540432,0.24749248871581458,1.0665558889232085,-3.658611736606481,False
162,0,0.1502843052148819,-1.5590039491653442,0.21968506276607513,-1.6714682579040527,-0.11589832603931427,-0.04293937608599663,0.15069884061813354,-1.5595719814300537,0.2208387851715088,-1.6719859838485718,-0.11641749739646912,-0.04305465891957283,0.05076351761817932,0.12987692654132843,0.045107651501894,-0.05166327953338623,-0.007833808660507202,-0.0016219448298215866,0.415077,0.131945,0.45148568405566597,0.08323397010714952,0.24752703348660954,1.0664975407686146,-3.66859596315927,False
163,0,0.15069884061813354,-1.5595719814300537,0.2208387851715088,-1.6719859838485718,-0.11641749739646912,-0.04305465891957283,0.15253295004367828,-1.5580064058303833,0.22418910264968872,-1.6741422414779663,-0.11760666221380234,-0.043315183371305466,0.050677523016929626,0.13000404834747314,0.045196954160928726,-0.051768697798252106,-0.007901027798652649,-0.0016309190541505814,0.415077,0.131945,0.45148568405566597,0.08580302874877505,0.2480796948553,1.066013864412627,-3.6770659874535214,False
164,0,0.15253295004367828,-1.5580064058303833,0.22418910264968872,-1.6741422414779663,-0.11760666221380234,-0.043315183371305466,0.15288905799388885,-1.557190179824829,0.2248159646987915,-1.6746915578842163,-0.11771826446056366,-0.04330730065703392,0.05056876316666603,0.13054656982421875,0.04532155767083168,-0.051962874829769135,-0.008038416504859924,-0.0016074534505605698,0.415077,0.131945,0.45148568405566597,0.08567364573125522,0.2481101432357051,1.0659579227273717,-3.687082641727712,False
165,0,0.15288905799388885,-1.557190179824829,0.2248159646987915,-1.6746915578842163,-0.11771826446056366,-0.04330730065703392,0.1533237099647522,-1.5578417778015137,0.22600501775741577,-1.675191044807434,-0.11826757341623306,-0.0434461385011673,0.0505751296877861,0.1306808590888977,0.04532838240265846,-0.05197877436876297,-0.008056648075580597,-0.0015948396176099777,0.415077,0.131945,0.45148568405566597,0.08567364573125522,0.2481101432357051,1.0659579227273717,-3.697082641727712,False
166,0,0.1533237099647522,-1.5578417778015137,0.22600501775741577,-1.675191044807434,-0.11826757341623306,-0.0434461385011673,0.15463696420192719,-1.5577661991119385,0.2284928411245346,-1.676514744758606,-0.11937066167593002,-0.04373481869697571,0.05048256367444992,0.13080641627311707,0.04542252793908119,-0.05209038406610489,-0.008127696812152863,-0.001605721190571785,0.415077,0.131945,0.45148568405566597,0.08567364573125522,0.2481101432357051,1.0659579227273717,-3.707082641727712,False
167,0,0.15463696420192719,-1.5577661991119385,0.2284928411245346,-1.676514744758606,-0.11937066167593002,-0.04373481869697571,0.15623795986175537,-1.5564844608306885,0.23177579045295715,-1.678603172302246,-0.1205219179391861,-0.043953876942396164,0.05034671351313591,0.13114139437675476,0.04555686190724373,-0.052279166877269745,-0.008238270878791809,-0.0016092434525489807,0.415077,0.131945,0.45148568405566597,0.08968117296327746,0.2491003043949388,1.0650134743823194,-3.714564826068707,False
168,0,0.15623795986175537,-1.5564844608306885,0.23177579045295715,-1.678603172302246,-0.1205219179391861,-0.043953876942396164,0.1567542403936386,-1.5556247234344482,0.2325894832611084,-1.6792253255844116,-0.12081244587898254,-0.044000543653964996,0.050187163054943085,0.13163486123085022,0.04575243964791298,-0.05245424062013626,-0.008289501070976257,-0.0016220882534980774,0.415077,0.131945,0.45148568405566597,0.09054306558427963,0.24936641101304816,1.0647415521823547,-3.7239743833615746,False
169,0,0.1567542403936386,-1.5556247234344482,0.2325894832611084,-1.6792253255844116,-0.12081244587898254,-0.044000543653964996,0.15729105472564697,-1.5563998222351074,0.2339164912700653,-1.679743766784668,-0.12150025367736816,-0.044189415872097015,0.0501687154173851,0.13178318738937378,0.04577873274683952,-0.05248118191957474,-0.00828513503074646,-0.0016177594661712646,0.415077,0.131945,0.45148568405566597,0.09036214076399782,0.24939913459908586,1.064682972758877,-3.7340122580843267,False
170,0,0.15729105472564697,-1.5563998222351074,0.2339164912700653,-1.679743766784668,-0.12150025367736816,-0.044189415872097015,0.15789122879505157,-1.5572603940963745,0.2353825718164444,-1.6803231239318848,-0.12227042764425278,-0.044394973665475845,0.05004070699214935,0.13190752267837524,0.04589586332440376,-0.05259527266025543,-0.008330918848514557,-0.001637859269976616,0.415077,0.131945,0.45148568405566597,0.09022860183212575,0.24941779753603496,1.0646470555582765,-3.744045706591386,False
171,0,0.15789122879505157,-1.5572603940963745,0.2353825718164444,-1.6803231239318848,-0.12227042764425278,-0.044394973665475845,0.15921729803085327,-1.5551365613937378,0.23708920180797577,-1.6816591024398804,-0.12285268306732178,-0.04454895481467247,0.04988816753029823,0.1320408582687378,0.046026717871427536,-0.05272980034351349,-0.008382610976696014,-0.001651884987950325,0.415077,0.131945,0.45148568405566597,0.09022860183212575,0.24941779753603496,1.0646470555582765,-3.754045706591386,False
172,0,0.15921729803085327,-1.5551365613937378,0.23708920180797577,-1.6816591024398804,-0.12285268306732178,-0.04454895481467247,0.1605483591556549,-1.5556014776229858,0.24037230014801025,-1.683341383934021,-0.12424618750810623,-0.044857390224933624,0.04986031353473663,0.13236713409423828,0.046062517911195755,-0.05277065187692642,-0.008363604545593262,-0.0016434285789728165,0.415077,0.131945,0.45148568405566597,0.09335691302924928,0.2502189133623551,1.0638946723904459,-3.7620850184065073,False
173,0,0.1605483591556549,-1.5556014776229858,0.24037230014801025,-1.683341383934021,-0.12424618750810623,-0.044857390224933624,0.1610889732837677,-1.5543913841247559,0.24132101237773895,-1.6841464042663574,-0.12446078658103943,-0.044866662472486496,0.04959411919116974,0.13275304436683655,0.04632158949971199,-0.053024642169475555,-0.008458450436592102,-0.0016570165753364563,0.415077,0.131945,0.45148568405566597,0.09322477703344514,0.2502534067171216,1.0638350246324328,-3.7720993707889163,False
174,0,0.1610889732837677,-1.5543913841247559,0.24132101237773895,-1.6841464042663574,-0.12446078658103943,-0.044866662472486496,0.16216713190078735,-1.5541049242019653,0.2436387836933136,-1.685455560684204,-0.12540245056152344,-0.04507702961564064,0.049589261412620544,0.1329433172941208,0.04635221138596535,-0.053046755492687225,-0.008455522358417511,-0.0016517043113708496,0.415077,0.131945,0.45148568405566597,0.09559684951331492,0.2508438366622464,1.0632614222066756,-3.7806135279312025,False
175,0,0.16216713190078735,-1.5541049242019653,0.2436387836933136,-1.685455560684204,-0.12540245056152344,-0.04507702961564064,0.16322599351406097,-1.5536381006240845,0.24585668742656708,-1.6867409944534302,-0.12632721662521362,-0.0452779084444046,0.04946485161781311,0.1332469880580902,0.04651949927210808,-0.05320575088262558,-0.008464179933071136,-0.0016732439398765564,0.415077,0.131945,0.45148568405566597,0.09559684951331492,0.2508438366622464,1.0632614222066756,-3.7906135279312023,False
176,0,0.16322599351406097,-1.5536381006240845,0.24585668742656708,-1.6867409944534302,-0.12632721662521362,-0.0452779084444046,0.16377317905426025,-1.5544028282165527,0.24724699556827545,-1.6872966289520264,-0.12704886496067047,-0.04546532407402992,0.049410365521907806,0.13346996903419495,0.04667354002594948,-0.05335449427366257,-0.008421868085861206,-0.0016892645508050919,0.415077,0.131945,0.45148568405566597,0.09559684951331492,0.2508438366622464,1.0632614222066756,-3.800613527931202,False
177,0,0.16377317905426025,-1.5544028282165527,0.24724699556827545,-1.6872966289520264,-0.12704886496067047,-0.04546532407402992,0.16532276570796967,-1.5542714595794678,0.2503938376903534,-1.688961148262024,-0.12854471802711487,-0.04582301899790764,0.04930809885263443,0.13355375826358795,0.04680265858769417,-0.05348692834377289,-0.008431382477283478,-0.0017032753676176071,0.415077,0.131945,0.45148568405566597,0.09797443029721886,0.2515753809104683,1.0625086943682016,-3.808998541094963,False
178,0,0.16532276570796967,-1.5542714595794678,0.2503938376903534,-1.688961148262024,-0.12854471802711487,-0.04582301899790764,0.1657944619655609,-1.5533876419067383,0.2509787678718567,-1.6894581317901611,-0.12871451675891876,-0.04586641117930412,0.04919913783669472,0.13382336497306824,0.04702926054596901,-0.05371890217065811,-0.008375398814678192,-0.0017262715846300125,0.415077,0.131945,0.45148568405566597,0.09779939869501349,0.251603709608994,1.062460171512833,-3.8190404165731753,False
179,0,0.1657944619655609,-1.5533876419067383,0.2509787678718567,-1.6894581317901611,-0.12871451675891876,-0.04586641117930412,0.1662563681602478,-1.5540332794189453,0.252031147480011,-1.6898449659347534,-0.1293286234140396,-0.04603536054491997,0.04923585429787636,0.13391053676605225,0.047041166573762894,-0.053729280829429626,-0.008330687880516052,-0.001727461814880371,0.415077,0.131945,0.45148568405566597,0.09870843816922263,0.2518195849996,1.0622722741162163,-3.828500781278159,False
180,0,0.1662563681602478,-1.5540332794189453,0.252031147480011,-1.6898449659347534,-0.1293286234140396,-0.04603536054491997,0.1662563681602478,-1.5540332794189453,0.252031147480011,-1.6898449659347534,-0.1293286234140396,-0.04603536054491997,0.04915129020810127,0.1339682936668396,0.0471368171274662,-0.05383255332708359,-0.008335627615451813,-0.0017383936792612076,0.415077,0.131945,0.45148568405566597,0.09853558881934182,0.25184768784881356,1.062225030299711,-3.838542619610287,False
181,0,0.1662563681602478,-1.5540332794189453,0.252031147480011,-1.6898449659347534,-0.1293286234140396,-0.04603536054491997,0.16657714545726776,-1.5544520616531372,0.25277286767959595,-1.690131664276123,-0.12975741922855377,-0.04614728316664696,0.04915129020810127,0.1339682936668396,0.0471368171274662,-0.05383255332708359,-0.008335627615451813,-0.0017383936792612076,0.415077,0.131945,0.45148568405566597,0.09844543224490739,0.2518721125233109,1.0621869924656375,-3.848554421228263,False
182,0,0.16657714545726776,-1.5544520616531372,0.25277286767959595,-1.690131664276123,-0.12975741922855377,-0.04614728316664696,0.16747233271598816,-1.5535025596618652,0.25436699390411377,-1.6911896467208862,-0.13040876388549805,-0.046276673674583435,0.049094438552856445,0.13401120901107788,0.047203365713357925,-0.05390406399965286,-0.008337825536727905,-0.001745704561471939,0.415077,0.131945,0.45148568405566597,0.09838484524339326,0.2518877677366705,1.06216190848735,-3.8585626481098974,False
183,0,0.16747233271598816,-1.5535025596618652,0.25436699390411377,-1.6911896467208862,-0.13040876388549805,-0.046276673674583435,0.1678086519241333,-1.553975224494934,0.25513821840286255,-1.6914780139923096,-0.13085661828517914,-0.04639586806297302,0.04909955710172653,0.13418832421302795,0.04728970304131508,-0.05398895591497421,-0.008275657892227173,-0.0017530042678117752,0.415077,0.131945,0.45148568405566597,0.09838484524339326,0.2518877677366705,1.06216190848735,-3.8685626481098976,False
184,0,0.1678086519241333,-1.553975224494934,0.25513821840286255,-1.6914780139923096,-0.13085661828517914,-0.04639586806297302,0.1680305153131485,-1.5542025566101074,0.25576040148735046,-1.6917699575424194,-0.13116589188575745,-0.04645455256104469,0.04903781786561012,0.1342310905456543,0.047359827905893326,-0.0540645569562912,-0.008279204368591309,-0.001760857179760933,0.415077,0.131945,0.45148568405566597,0.09838484524339326,0.2518877677366705,1.06216190848735,-3.878562648109898,False
185,0,0.1680305153131485,-1.5542025566101074,0.25576040148735046,-1.6917699575424194,-0.13116589188575745,-0.04645455256104469,0.16820284724235535,-1.5544301271438599,0.2561712861061096,-1.6919392347335815,-0.13139621913433075,-0.04650752246379852,0.049000874161720276,0.13427546620368958,0.04741505905985832,-0.054120004177093506,-0.008279561996459961,-0.0017657503485679626,0.415077,0.131945,0.45148568405566597,0.09838484524339326,0.2518877677366705,1.06216190848735,-3.8885626481098976,False
186,0,0.16820284724235535,-1.5544301271438599,0.2561712861061096,-1.6919392347335815,-0.13139621913433075,-0.04650752246379852,0.1690072864294052,-1.5534061193466187,0.2576192319393158,-1.6929494142532349,-0.13191144168376923,-0.04660376161336899,0.048970237374305725,0.1343003213405609,0.04745202884078026,-0.054159365594387054,-0.008280754089355469,-0.0017695315182209015,0.415077,0.131945,0.45148568405566597,0.09959787190238617,0.25228784129145326,1.0617467313452718,-3.897718922874332,False
187,0,0.1690072864294052,-1.5534061193466187,0.2576192319393158,-1.6929494142532349,-0.13191144168376923,-0.04660376161336899,0.1694493591785431,-1.5539941787719727,0.25870469212532043,-1.6933963298797607,-0.13250862061977386,-0.04674144461750984,0.04898786544799805,0.13447031378746033,0.04752849414944649,-0.0542297437787056,-0.008222237229347229,-0.0017757508903741837,0.415077,0.131945,0.45148568405566597,0.10090182778756729,0.25263932348195867,1.06140556303744,-3.9068921239157284,False
188,0,0.1694493591785431,-1.5539941787719727,0.25870469212532043,-1.6933963298797607,-0.13250862061977386,-0.04674144461750984,0.17014111578464508,-1.5529417991638184,0.25964653491973877,-1.6941007375717163,-0.13286513090133667,-0.04683781787753105,0.04890798032283783,0.13453656435012817,0.047626692801713943,-0.05433320254087448,-0.008225999772548676,-0.0017856452614068985,0.415077,0.131945,0.45148568405566597,0.10086075377101189,0.25265455903874606,1.0613815885390225,-3.916892299055325,False
189,0,0.17014111578464508,-1.5529417991638184,0.25964653491973877,-1.6941007375717163,-0.13286513090133667,-0.04683781787753105,0.17042988538742065,-1.5533138513565063,0.2603406608104706,-1.6943796873092651,-0.133256733417511,-0.046933334320783615,0.04894121736288071,0.13465920090675354,0.047657471150159836,-0.05436471849679947,-0.008167050778865814,-0.0017891023308038712,0.415077,0.131945,0.45148568405566597,0.1019595682981306,0.252975064727974,1.06107947063705,-3.9261883475097763,False
190,0,0.17042988538742065,-1.5533138513565063,0.2603406608104706,-1.6943796873092651,-0.133256733417511,-0.046933334320783615,0.17075222730636597,-1.5537657737731934,0.2611334025859833,-1.6947094202041626,-0.13368985056877136,-0.04702803120017052,0.0488898828625679,0.1347009241580963,0.047719765454530716,-0.05443093925714493,-0.008168883621692657,-0.001795625314116478,0.415077,0.131945,0.45148568405566597,0.1019595682981306,0.252975064727974,1.06107947063705,-3.936188347509776,False
191,0,0.17075222730636597,-1.5537657737731934,0.2611334025859833,-1.6947094202041626,-0.13368985056877136,-0.04702803120017052,0.17075222730636597,-1.5537657737731934,0.2611334025859833,-1.6947094202041626,-0.13368985056877136,-0.04702803120017052,0.04883034527301788,0.13474902510643005,0.047792088240385056,-0.054507143795490265,-0.008172333240509033,-0.0018027126789093018,0.415077,0.131945,0.45148568405566597,0.1019595682981306,0.252975064727974,1.06107947063705,-3.9461883475097763,False
192,0,0.17075222730636597,-1.5537657737731934,0.2611334025859833,-1.6947094202041626,-0.13368985056877136,-0.04702803120017052,0.17176015675067902,-1.5529378652572632,0.26293790340423584,-1.6958285570144653,-0.13450632989406586,-0.0472104586660862,0.04883034527301788,0.13474902510643005,0.047792088240385056,-0.054507143795490265,-0.008172333240509033,-0.0018027126789093018,0.415077,0.131945,0.45148568405566597,0.1019595682981306,0.252975064727974,1.06107947063705,-3.956188347509776,False
193,0,0.17176015675067902,-1.5529378652572632,0.26293790340423584,-1.6958285570144653,-0.13450632989406586,-0.0472104586660862,0.17302218079566956,-1.5513774156570435,0.26494523882865906,-1.6972075700759888,-0.13527290523052216,-0.0474017933011055,0.04881738871335983,0.1349359154701233,0.04789542779326439,-0.05461312085390091,-0.00810849666595459,-0.0018123853951692581,0.415077,0.131945,0.45148568405566597,0.10509283354620891,0.2538735059101078,1.0602152385325179,-3.9641830735220696,False
194,0,0.17302218079566956,-1.5513774156570435,0.26494523882865906,-1.6972075700759888,-0.13527290523052216,-0.0474017933011055,0.17386089265346527,-1.5509521961212158,0.26678571105003357,-1.6982905864715576,-0.1360444277524948,-0.04755399376153946,0.04884794354438782,0.13517111539840698,0.04799098148941994,-0.054704420268535614,-0.008013471961021423,-0.0018225479871034622,0.415077,0.131945,0.45148568405566597,0.106085594477799,0.2541627733130705,1.0599150730942295,-3.9735276193574967,False
195,0,0.17386089265346527,-1.5509521961212158,0.26678571105003357,-1.6982905864715576,-0.1360444277524948,-0.04755399376153946,0.17436550557613373,-1.5515756607055664,0.26787614822387695,-1.6986854076385498,-0.13674093782901764,-0.04774056375026703,0.04882343113422394,0.13534510135650635,0.04812464490532875,-0.05481982231140137,-0.0079546719789505,-0.0018375944346189499,0.415077,0.131945,0.45148568405566597,0.106085594477799,0.2541627733130705,1.0599150730942295,-3.9835276193574964,False
196,0,0.17436550557613373,-1.5515756607055664,0.26787614822387695,-1.6986854076385498,-0.13674093782901764,-0.04774056375026703,0.17466363310813904,-1.5518765449523926,0.2687685191631317,-1.6991060972213745,-0.13715717196464539,-0.04782087728381157,0.04873719438910484,0.1354045569896698,0.04821956530213356,-0.05492585152387619,-0.007952883839607239,-0.001848498359322548,0.415077,0.131945,0.45148568405566597,0.1059447741376435,0.2542044859198754,1.0598554214656348,-3.993545403493674,False
197,0,0.17466363310813904,-1.5518765449523926,0.2687685191631317,-1.6991060972213745,-0.13715717196464539,-0.04782087728381157,0.1748996376991272,-1.5521700382232666,0.26931867003440857,-1.6993271112442017,-0.1374841183423996,-0.04789727181196213,0.04868941754102707,0.13546860218048096,0.048301372677087784,-0.055002495646476746,-0.00795021653175354,-0.0018566809594631195,0.415077,0.131945,0.45148568405566597,0.1059447741376435,0.2542044859198754,1.0598554214656348,-4.003545403493674,False
198,0,0.1748996376991272,-1.5521700382232666,0.26931867003440857,-1.6993271112442017,-0.1374841183423996,-0.04789727181196213,0.1750551462173462,-1.5523829460144043,0.26969069242477417,-1.6994805335998535,-0.13769680261611938,-0.04794275760650635,0.04864896088838577,0.13550126552581787,0.048350077122449875,-0.05505474656820297,-0.007949307560920715,-0.0018617864698171616,0.415077,0.131945,0.45148568405566597,0.1059447741376435,0.2542044859198754,1.0598554214656348,-4.013545403493675,False
199,0,0.1750551462173462,-1.5523829460144043,0.26969069242477417,-1.6994805335998535,-0.13769680261611938,-0.04794275760650635,0.1750551462173462,-1.5523829460144043,0.26969069242477417,-1.6994805335998535,-0.13769680261611938,-0.04794275760650635,0.0486210361123085,0.13552343845367432,0.048383671790361404,-0.05509043484926224,-0.007949583232402802,-0.0018651410937309265,0.415077,0.131945,0.45148568405566597,0.1059447741376435,0.2542044859198754,1.0598554214656348,-4.023545403493674,False
